%
O1001 (CNC)
(T1 D=100. CR=0. - ZMIN=-0.5 - FACE MILL)
(T2 D=5. CR=0. - ZMIN=-10.5 - FLAT END MILL)
(T3 D=1.5 CR=0.75 - ZMIN=-29.522 - BALL END MILL)
(T4 D=10. CR=0. - ZMIN=-22.99 - FLAT END MILL)
(T9 D=3. CR=0. - ZMIN=-31. - FLAT END MILL)
(T11 D=8. CR=0. TAPER=118DEG - ZMIN=-21. - DRILL)
N10 G90 G94 G17 G49 G40 G80
N15 G21
N20 G28 G91 Z0.
N25 G90

(FACE2)
N30 T1 M06
N35 T2
N40 S5000 M03
N45 G54
N50 M08
N55 G00 X345. Y13.75
N60 G43 Z15. H01
N65 G00 Z9.5
N70 G18 G03 X335. Z-0.5 I-10. F1000.
N75 G01 X280.
N80 X-30.
N85 G17 G02 Y106.55 J46.4
N90 G01 X280.
N95 G18 G02 X290. Z9.5 K10.
N100 G00 Z15.
N105 G17
N110 M05
N115 G28 G91 Z0.
N120 G90
N125 G49

(POCKET4)
N130 M09
N135 M01
N140 T2 M06
N145 T4
N150 S20000 M03
N155 G54
N160 M08
N165 G00 X62.648 Y56.288
N170 G43 Z15. H02
N175 G00 Z2.
N180 G01 Z1.55 F333.
N185 X62.642 Y56.291 Z1.47
N190 X62.625 Y56.299 Z1.393
N195 X62.598 Y56.314 Z1.319
N200 X62.56 Y56.333 Z1.252
N205 X62.514 Y56.358 Z1.192
N210 X62.459 Y56.386 Z1.141
N215 X62.398 Y56.418 Z1.1
N220 X62.338 Y56.451 Z1.073
N225 X62.274 Y56.487 Z1.056
N230 X62.208 Y56.523 Z1.05
N235 X61.81 Y56.743 Z1.049
N240 X61.297 Y57.037 Z1.047
N245 X60.623 Y57.439 Z1.045
N250 X59.413 Y58.187 Z1.04
N255 X56.183 Y60.248 Z1.029
N260 G03 X55.138 Y60.465 Z1.026 I-0.807 J-1.264
N265 G01 X55.083 Y60.456
N270 G03 X54.382 Y60.144 Z1.023 I0.238 J-1.481
N275 G01 X54.346 Y60.116
N280 X53.383 Y59.525 Z1.02
N285 X53.363 Y59.516
N290 X53.337 Y59.508
N295 X52.271 Y59.3 Z1.016
N300 X52.233 Y59.301
N305 X51.217 Y59.463 Z1.013
N310 X51.15 Y59.478
N315 X51.137 Y59.483
N320 X50.195 Y60.011 Z1.01
N325 X50.168 Y60.03
N330 X50.158 Y60.039
N335 X49.449 Y60.873 Z1.006
N340 X49.43 Y60.909
N345 X49.111 Y61.771 Z1.004
N350 X49.055 Y61.938 Z1.003
N355 X49.051 Y63.046 Z1.
N360 X49.058 Y63.078
N365 X49.417 Y64.059 Z0.997
N370 X49.442 Y64.116 Z0.996
N375 X49.455 Y64.135
N380 X50.158 Y64.961 Z0.993
N385 X50.168 Y64.97
N390 X50.195 Y64.989
N395 X51.142 Y65.519 Z0.99
N400 X51.18 Y65.53
N405 X52.195 Y65.694 Z0.987
N410 X52.262 Y65.7 Z0.986
N415 X52.277 Y65.699
N420 X53.337 Y65.492 Z0.983
N425 X53.363 Y65.484
N430 X53.383 Y65.475
N435 X54.346 Y64.884 Z0.98
N440 X54.382 Y64.856
N445 G03 X55.083 Y64.544 Z0.977 I0.939 J1.17
N450 G01 X55.138 Y64.535
N455 G03 X56.185 Y64.753 Z0.974 I0.238 J1.481
N460 G01 X58.19 Y66.037 Z0.967
N465 X60.018 Y67.191 Z0.96
N470 X61.222 Y67.918 Z0.956
N475 X61.811 Y68.258 Z0.954
N480 X62.342 Y68.551 Z0.952
N485 X62.982 Y68.887 Z0.95
N490 X63.477 Y69.129 Z0.949
N495 X64.123 Y69.421 Z0.946
N500 X64.679 Y69.645 Z0.945
N505 X65.227 Y69.838 Z0.943
N510 X65.765 Y69.998 Z0.941
N515 X66.293 Y70.124 Z0.94
N520 X66.811 Y70.213 Z0.938
N525 X67.32 Y70.264 Z0.937
N530 X67.836 Y70.279 Z0.935
N535 X68.187 Y70.268 Z0.934
N540 X68.733 Y70.203 Z0.932
N545 X69.289 Y70.08 Z0.931
N550 X69.768 Y69.925 Z0.929
N555 X70.327 Y69.684 Z0.927
N560 X70.841 Y69.4 Z0.926
N565 X71.261 Y69.117 Z0.924
N570 X71.766 Y68.724 Z0.922
N575 X72.337 Y68.205 Z0.92
N580 X72.565 Y67.978 Z0.919
N585 G03 X72.896 Y67.729 Z0.918 I1.059 J1.063
N590 G01 X72.968 Y67.688
N595 G03 X73.696 Y67.5 Z0.915 I0.728 J1.312
N600 G01 X78.613 Z0.901
N605 G03 X79.537 Y67.819 Z0.898 J1.5
N610 G01 X79.619 Y67.883 Z0.897
N615 G03 X80.149 Y68.697 Z0.895 I-0.924 J1.181
N620 G01 X80.172 Y68.785 Z0.894
N625 X80.673 Y69.998 Z0.89
N630 X80.677 Y70.005
N635 X81.472 Y71.037 Z0.887
N640 X81.494 Y71.057 Z0.886
N645 X82.5 Y71.826 Z0.883
N650 X82.514 Y71.834
N655 X83.689 Y72.32 Z0.879
N660 X83.729 Y72.331
N665 X84.99 Y72.496 Z0.875
N670 X84.996
N675 X84.999 Y72.472
N680 X85. Y69.067 Z0.865
N685 G03 X85.316 Y68.147 Z0.862 I1.5 J0.001
N690 G01 X85.365 Y68.083
N695 G03 X86.562 Y67.503 Z0.858 I1.184 J0.92
N700 G01 X89.984 Y67.532 Z0.847
N705 X89.996
N710 X93.685 Y67.592 Z0.836
N715 X93.698
N720 X97.387 Y67.683 Z0.825
N725 X97.4
N730 X101.089 Y67.807 Z0.814
N735 X101.102
N740 X104.176 Y67.937 Z0.805
N745 X104.188
N750 X106.648 Y68.061 Z0.798
N755 X106.659 Y68.062
N760 X109.119 Y68.204 Z0.791
N765 X109.131 Y68.205
N770 X111.59 Y68.367 Z0.783
N775 X111.604 Y68.368
N780 X114.678 Y68.599 Z0.774
N785 X114.694 Y68.6
N790 X117.769 Y68.865 Z0.765
N795 X117.786 Y68.867
N800 X120.86 Y69.169 Z0.756
N805 X120.878 Y69.17
N810 X123.337 Y69.441 Z0.748
N815 X123.353 Y69.443
N820 X126.427 Y69.813 Z0.739
N825 X126.446 Y69.816
N830 X129.52 Y70.226 Z0.73
N835 X129.541 Y70.229
N840 X133.23 Y70.773 Z0.719
N845 X133.252 Y70.777
N850 X136.326 Y71.276 Z0.709
N855 X136.347 Y71.28
N860 X140.036 Y71.935 Z0.698
N865 X140.057 Y71.938
N870 X143.131 Y72.529 Z0.689
N875 X143.151 Y72.533
N880 X146.84 Y73.293 Z0.678
N885 X146.863 Y73.298
N890 X150.552 Y74.117 Z0.666
N895 X150.573 Y74.122
N900 X154.262 Y74.998 Z0.655
N905 X154.284 Y75.003
N910 X158.588 Y76.093 Z0.642
N915 X158.609 Y76.098
N920 X162.298 Y77.09 Z0.63
N925 X162.317 Y77.095
N930 X166.427 Y78.259 Z0.618
N935 X166.447 Y78.265
N940 X170.573 Y79.493 Z0.605
N945 X170.592 Y79.499
N950 X175.267 Y80.956 Z0.59
N955 X175.285 Y80.962
N960 X178.971 Y82.164 Z0.579
N965 X180.005 Y82.496 Z0.575
N970 X184.995 Y82.495 Z0.561
N975 Y42.505 Z0.442
N980 X180.083 Y42.5 Z0.428
N985 X180.004 Y42.504 Z0.427
N990 X179.969 Y42.511
N995 X175.285 Y44.038 Z0.413
N1000 X175.268 Y44.044
N1005 X170.964 Y45.39 Z0.399
N1010 X170.945 Y45.396
N1015 X166.641 Y46.68 Z0.386
N1020 X166.621 Y46.686
N1025 X162.317 Y47.905 Z0.372
N1030 X162.298 Y47.91
N1035 X158.609 Y48.902 Z0.361
N1040 X158.588 Y48.907
N1045 X154.284 Y49.997 Z0.348
N1050 X154.262 Y50.002
N1055 X150.573 Y50.878 Z0.337
N1060 X150.552 Y50.883 Z0.336
N1065 X146.983 Y51.677 Z0.326
N1070 X146.962 Y51.682
N1075 X143.767 Y52.343 Z0.316
N1080 X143.748 Y52.347
N1085 X140.059 Y53.061 Z0.305
N1090 X140.036 Y53.065
N1095 X136.347 Y53.72 Z0.294
N1100 X136.326 Y53.723 Z0.293
N1105 X133.252 Y54.223 Z0.284
N1110 X133.232 Y54.226
N1115 X130.158 Y54.684 Z0.275
N1120 X130.139 Y54.687
N1125 X127.065 Y55.105 Z0.266
N1130 X127.046 Y55.108
N1135 X123.972 Y55.487 Z0.256
N1140 X123.953 Y55.489
N1145 X120.879 Y55.829 Z0.247
N1150 X120.861 Y55.831
N1155 X118.402 Y56.074 Z0.24
N1160 X118.389 Y56.076
N1165 X115.929 Y56.296 Z0.232
N1170 X115.915 Y56.297
N1175 X112.841 Y56.544 Z0.223
N1180 X112.826 Y56.545
N1185 X110.366 Y56.717 Z0.216
N1190 X110.354 Y56.718
N1195 X107.895 Y56.869 Z0.209
N1200 X107.883 Y56.87
N1205 X105.424 Y57.003 Z0.201
N1210 X105.41 Y57.004
N1215 X101.721 Y57.169 Z0.19
N1220 X101.707
N1225 X98.018 Y57.3 Z0.179
N1230 X98.003
N1235 X94.314 Y57.394 Z0.168
N1240 X94.302 Y57.395
N1245 X90.613 Y57.459 Z0.157
N1250 X90.6
N1255 X86.563 Y57.497 Z0.145
N1260 G03 X85.365 Y56.917 Z0.141 I-0.014 J-1.5
N1265 G01 X85.316 Y56.853
N1270 G03 X85. Y55.933 Z0.138 I1.184 J-0.92
N1275 G01 X84.999 Y52.528 Z0.128
N1280 X84.996 Y52.504
N1285 X84.99
N1290 X83.729 Y52.669 Z0.124
N1295 X83.689 Y52.68
N1300 X82.514 Y53.166 Z0.12
N1305 X82.5 Y53.174
N1310 X81.494 Y53.943 Z0.116
N1315 X81.472 Y53.963
N1320 X80.677 Y54.995 Z0.112
N1325 X80.673 Y55.002
N1330 X80.172 Y56.215 Z0.109
N1335 X80.149 Y56.303 Z0.108
N1340 G03 X79.619 Y57.117 Z0.105 I-1.454 J-0.368
N1345 G01 X79.537 Y57.181
N1350 G03 X78.613 Y57.5 Z0.102 I-0.924 J-1.181
N1355 G01 X73.696 Z0.087
N1360 G03 X72.968 Y57.312 Z0.085 J-1.5
N1365 G01 X72.896 Y57.271
N1370 G03 X72.562 Y57.019 Z0.084 I0.728 J-1.312
N1375 G01 X72.369 Y56.825 Z0.083
N1380 X71.787 Y56.293 Z0.081
N1385 X71.26 Y55.883 Z0.079
N1390 X70.841 Y55.6 Z0.077
N1395 X70.327 Y55.316 Z0.075
N1400 X69.768 Y55.075 Z0.074
N1405 X69.289 Y54.92 Z0.072
N1410 X68.733 Y54.797 Z0.07
N1415 X68.187 Y54.732 Z0.069
N1420 X67.836 Y54.721 Z0.068
N1425 X67.313 Y54.736 Z0.066
N1430 X66.913 Y54.773 Z0.065
N1435 X66.29 Y54.877 Z0.063
N1440 X65.765 Y55.002 Z0.061
N1445 X65.22 Y55.164 Z0.06
N1450 X64.806 Y55.306 Z0.059
N1455 X64.119 Y55.581 Z0.056
N1460 X63.554 Y55.834 Z0.054
N1465 X62.98 Y56.114 Z0.053
N1470 X62.398 Y56.418 Z0.051
N1475 X61.81 Y56.743 Z0.049
N1480 X61.297 Y57.037 Z0.047
N1485 X60.623 Y57.439 Z0.045
N1490 X59.413 Y58.187 Z0.04
N1495 X56.183 Y60.248 Z0.029
N1500 G03 X55.138 Y60.465 Z0.026 I-0.807 J-1.264
N1505 G01 X55.083 Y60.456
N1510 G03 X54.382 Y60.144 Z0.023 I0.238 J-1.481
N1515 G01 X54.346 Y60.116
N1520 X53.383 Y59.525 Z0.02
N1525 X53.363 Y59.516
N1530 X53.337 Y59.508
N1535 X52.271 Y59.3 Z0.016
N1540 X52.233 Y59.301
N1545 X51.217 Y59.463 Z0.013
N1550 X51.15 Y59.478
N1555 X51.137 Y59.483
N1560 X50.195 Y60.011 Z0.01
N1565 X50.168 Y60.03
N1570 X50.158 Y60.039
N1575 X49.449 Y60.873 Z0.006
N1580 X49.43 Y60.909
N1585 X49.111 Y61.771 Z0.004
N1590 X49.055 Y61.938 Z0.003
N1595 X49.051 Y63.046 Z0.
N1600 X49.058 Y63.078
N1605 X49.417 Y64.059 Z-0.003
N1610 X49.442 Y64.116 Z-0.004
N1615 X49.455 Y64.135
N1620 X50.158 Y64.961 Z-0.007
N1625 X50.168 Y64.97
N1630 X50.195 Y64.989
N1635 X51.142 Y65.519 Z-0.01
N1640 X51.18 Y65.53
N1645 X52.195 Y65.694 Z-0.013
N1650 X52.262 Y65.7 Z-0.014
N1655 X52.277 Y65.699
N1660 X53.337 Y65.492 Z-0.017
N1665 X53.363 Y65.484
N1670 X53.383 Y65.475
N1675 X54.346 Y64.884 Z-0.02
N1680 X54.382 Y64.856
N1685 G03 X55.083 Y64.544 Z-0.023 I0.939 J1.17
N1690 G01 X55.138 Y64.535
N1695 G03 X56.185 Y64.753 Z-0.026 I0.238 J1.481
N1700 G01 X58.19 Y66.037 Z-0.033
N1705 X60.018 Y67.191 Z-0.04
N1710 X61.222 Y67.918 Z-0.044
N1715 X61.811 Y68.258 Z-0.046
N1720 X62.342 Y68.551 Z-0.048
N1725 X62.982 Y68.887 Z-0.05
N1730 X63.477 Y69.129 Z-0.051
N1735 X64.123 Y69.421 Z-0.054
N1740 X64.679 Y69.645 Z-0.055
N1745 X65.227 Y69.838 Z-0.057
N1750 X65.765 Y69.998 Z-0.059
N1755 X66.293 Y70.124 Z-0.06
N1760 X66.811 Y70.213 Z-0.062
N1765 X67.32 Y70.264 Z-0.063
N1770 X67.836 Y70.279 Z-0.065
N1775 X68.187 Y70.268 Z-0.066
N1780 X68.733 Y70.203 Z-0.068
N1785 X69.289 Y70.08 Z-0.069
N1790 X69.768 Y69.925 Z-0.071
N1795 X70.327 Y69.684 Z-0.073
N1800 X70.841 Y69.4 Z-0.074
N1805 X71.261 Y69.117 Z-0.076
N1810 X71.766 Y68.724 Z-0.078
N1815 X72.337 Y68.205 Z-0.08
N1820 X72.565 Y67.978 Z-0.081
N1825 G03 X72.896 Y67.729 Z-0.082 I1.059 J1.063
N1830 G01 X72.968 Y67.688
N1835 G03 X73.696 Y67.5 Z-0.085 I0.728 J1.312
N1840 G01 X78.613 Z-0.099
N1845 G03 X79.537 Y67.819 Z-0.102 J1.5
N1850 G01 X79.619 Y67.883 Z-0.103
N1855 G03 X80.149 Y68.697 Z-0.105 I-0.924 J1.181
N1860 G01 X80.172 Y68.785 Z-0.106
N1865 X80.673 Y69.998 Z-0.11
N1870 X80.677 Y70.005
N1875 X81.472 Y71.037 Z-0.113
N1880 X81.494 Y71.057 Z-0.114
N1885 X82.5 Y71.826 Z-0.117
N1890 X82.514 Y71.834
N1895 X83.689 Y72.32 Z-0.121
N1900 X83.729 Y72.331
N1905 X84.99 Y72.496 Z-0.125
N1910 X84.996
N1915 X84.999 Y72.472
N1920 X85. Y69.067 Z-0.135
N1925 G03 X85.316 Y68.147 Z-0.138 I1.5 J0.001
N1930 G01 X85.365 Y68.083
N1935 G03 X86.562 Y67.503 Z-0.142 I1.184 J0.92
N1940 G01 X89.984 Y67.532 Z-0.153
N1945 X89.996
N1950 X93.685 Y67.592 Z-0.164
N1955 X93.698
N1960 X97.387 Y67.683 Z-0.175
N1965 X97.4
N1970 X101.089 Y67.807 Z-0.186
N1975 X101.102
N1980 X104.176 Y67.937 Z-0.195
N1985 X104.188
N1990 X106.648 Y68.061 Z-0.202
N1995 X106.659 Y68.062
N2000 X109.119 Y68.204 Z-0.209
N2005 X109.131 Y68.205
N2010 X111.59 Y68.367 Z-0.217
N2015 X111.604 Y68.368
N2020 X114.678 Y68.599 Z-0.226
N2025 X114.694 Y68.6
N2030 X117.769 Y68.865 Z-0.235
N2035 X117.786 Y68.867
N2040 X120.86 Y69.169 Z-0.244
N2045 X120.878 Y69.17
N2050 X123.337 Y69.441 Z-0.252
N2055 X123.353 Y69.443
N2060 X126.427 Y69.813 Z-0.261
N2065 X126.446 Y69.816
N2070 X129.52 Y70.226 Z-0.27
N2075 X129.541 Y70.229
N2080 X133.23 Y70.773 Z-0.281
N2085 X133.252 Y70.777
N2090 X136.326 Y71.276 Z-0.291
N2095 X136.347 Y71.28
N2100 X140.036 Y71.935 Z-0.302
N2105 X140.057 Y71.938
N2110 X143.131 Y72.529 Z-0.311
N2115 X143.151 Y72.533
N2120 X146.84 Y73.293 Z-0.322
N2125 X146.863 Y73.298
N2130 X150.552 Y74.117 Z-0.334
N2135 X150.573 Y74.122
N2140 X154.262 Y74.998 Z-0.345
N2145 X154.284 Y75.003
N2150 X158.588 Y76.093 Z-0.358
N2155 X158.609 Y76.098
N2160 X162.298 Y77.09 Z-0.37
N2165 X162.317 Y77.095
N2170 X166.427 Y78.259 Z-0.382
N2175 X166.447 Y78.265
N2180 X170.573 Y79.493 Z-0.395
N2185 X170.592 Y79.499
N2190 X175.267 Y80.956 Z-0.41
N2195 X175.285 Y80.962
N2200 X178.971 Y82.164 Z-0.421
N2205 X180.005 Y82.496 Z-0.425
N2210 X184.995 Y82.495 Z-0.439
N2215 Y62.025 Z-0.5
N2220 Y42.505 F1000.
N2225 X180.083 Y42.5
N2230 X180.004 Y42.504
N2235 X179.969 Y42.511
N2240 X175.285 Y44.038
N2245 X175.268 Y44.044
N2250 X170.964 Y45.39
N2255 X170.945 Y45.396
N2260 X166.641 Y46.68
N2265 X166.621 Y46.686
N2270 X162.317 Y47.905
N2275 X162.298 Y47.91
N2280 X158.609 Y48.902
N2285 X158.588 Y48.907
N2290 X154.284 Y49.997
N2295 X154.262 Y50.002
N2300 X150.573 Y50.878
N2305 X150.552 Y50.883
N2310 X146.983 Y51.677
N2315 X146.962 Y51.682
N2320 X143.767 Y52.343
N2325 X143.748 Y52.347
N2330 X140.059 Y53.061
N2335 X140.036 Y53.065
N2340 X136.347 Y53.72
N2345 X136.326 Y53.723
N2350 X133.252 Y54.223
N2355 X133.232 Y54.226
N2360 X130.158 Y54.684
N2365 X130.139 Y54.687
N2370 X127.065 Y55.105
N2375 X127.046 Y55.108
N2380 X123.972 Y55.487
N2385 X123.953 Y55.489
N2390 X120.879 Y55.829
N2395 X120.861 Y55.831
N2400 X118.402 Y56.074
N2405 X118.389 Y56.076
N2410 X115.929 Y56.296
N2415 X115.915 Y56.297
N2420 X112.841 Y56.544
N2425 X112.826 Y56.545
N2430 X110.366 Y56.717
N2435 X110.354 Y56.718
N2440 X107.895 Y56.869
N2445 X107.883 Y56.87
N2450 X105.424 Y57.003
N2455 X105.41 Y57.004
N2460 X101.721 Y57.169
N2465 X101.707
N2470 X98.018 Y57.3
N2475 X98.003
N2480 X94.314 Y57.394
N2485 X94.302 Y57.395
N2490 X90.613 Y57.459
N2495 X90.6
N2500 X86.563 Y57.497
N2505 G03 X85.365 Y56.917 I-0.014 J-1.5
N2510 G01 X85.316 Y56.853
N2515 G03 X85. Y55.933 I1.184 J-0.92
N2520 G01 X84.999 Y52.528
N2525 X84.996 Y52.504
N2530 X84.99
N2535 X83.729 Y52.669
N2540 X83.689 Y52.68
N2545 X82.514 Y53.166
N2550 X82.5 Y53.174
N2555 X81.494 Y53.943
N2560 X81.472 Y53.963
N2565 X80.677 Y54.995
N2570 X80.673 Y55.002
N2575 X80.172 Y56.215
N2580 X80.149 Y56.303
N2585 G03 X79.619 Y57.117 I-1.454 J-0.368
N2590 G01 X79.537 Y57.181
N2595 G03 X78.613 Y57.5 I-0.924 J-1.181
N2600 G01 X73.696
N2605 G03 X72.968 Y57.312 J-1.5
N2610 G01 X72.896 Y57.271
N2615 G03 X72.562 Y57.019 I0.728 J-1.312
N2620 G01 X72.369 Y56.825
N2625 X71.787 Y56.293
N2630 X71.26 Y55.883
N2635 X70.841 Y55.6
N2640 X70.327 Y55.316
N2645 X69.768 Y55.075
N2650 X69.289 Y54.92
N2655 X68.733 Y54.797
N2660 X68.187 Y54.732
N2665 X67.836 Y54.721
N2670 X67.313 Y54.736
N2675 X66.913 Y54.773
N2680 X66.29 Y54.877
N2685 X65.765 Y55.002
N2690 X65.22 Y55.164
N2695 X64.806 Y55.306
N2700 X64.119 Y55.581
N2705 X63.554 Y55.834
N2710 X62.98 Y56.114
N2715 X62.398 Y56.418
N2720 X61.81 Y56.743
N2725 X61.297 Y57.037
N2730 X60.623 Y57.439
N2735 X59.413 Y58.187
N2740 X56.183 Y60.248
N2745 G03 X55.138 Y60.465 I-0.807 J-1.264
N2750 G01 X55.083 Y60.456
N2755 G03 X54.382 Y60.144 I0.238 J-1.481
N2760 G01 X54.346 Y60.116
N2765 X53.383 Y59.525
N2770 X53.363 Y59.516
N2775 X53.337 Y59.508
N2780 X52.271 Y59.3
N2785 X52.233 Y59.301
N2790 X51.217 Y59.463
N2795 X51.15 Y59.478
N2800 X51.137 Y59.483
N2805 X50.195 Y60.011
N2810 X50.168 Y60.03
N2815 X50.158 Y60.039
N2820 X49.449 Y60.873
N2825 X49.43 Y60.909
N2830 X49.111 Y61.771
N2835 X49.055 Y61.938
N2840 X49.051 Y63.046
N2845 X49.058 Y63.078
N2850 X49.417 Y64.059
N2855 X49.442 Y64.116
N2860 X49.455 Y64.135
N2865 X50.158 Y64.961
N2870 X50.168 Y64.97
N2875 X50.195 Y64.989
N2880 X51.142 Y65.519
N2885 X51.18 Y65.53
N2890 X52.195 Y65.694
N2895 X52.262 Y65.7
N2900 X52.277 Y65.699
N2905 X53.337 Y65.492
N2910 X53.363 Y65.484
N2915 X53.383 Y65.475
N2920 X54.346 Y64.884
N2925 X54.382 Y64.856
N2930 G03 X55.083 Y64.544 I0.939 J1.17
N2935 G01 X55.138 Y64.535
N2940 G03 X56.185 Y64.753 I0.238 J1.481
N2945 G01 X58.19 Y66.037
N2950 X60.018 Y67.191
N2955 X61.222 Y67.918
N2960 X61.811 Y68.258
N2965 X62.342 Y68.551
N2970 X62.982 Y68.887
N2975 X63.477 Y69.129
N2980 X64.123 Y69.421
N2985 X64.679 Y69.645
N2990 X65.227 Y69.838
N2995 X65.765 Y69.998
N3000 X66.293 Y70.124
N3005 X66.811 Y70.213
N3010 X67.32 Y70.264
N3015 X67.836 Y70.279
N3020 X68.187 Y70.268
N3025 X68.733 Y70.203
N3030 X69.289 Y70.08
N3035 X69.768 Y69.925
N3040 X70.327 Y69.684
N3045 X70.841 Y69.4
N3050 X71.261 Y69.117
N3055 X71.766 Y68.724
N3060 X72.337 Y68.205
N3065 X72.565 Y67.978
N3070 G03 X72.896 Y67.729 I1.059 J1.063
N3075 G01 X72.968 Y67.688
N3080 G03 X73.696 Y67.5 I0.728 J1.312
N3085 G01 X78.613
N3090 G03 X79.537 Y67.819 J1.5
N3095 G01 X79.619 Y67.883
N3100 G03 X80.149 Y68.697 I-0.924 J1.181
N3105 G01 X80.172 Y68.785
N3110 X80.673 Y69.998
N3115 X80.677 Y70.005
N3120 X81.472 Y71.037
N3125 X81.494 Y71.057
N3130 X82.5 Y71.826
N3135 X82.514 Y71.834
N3140 X83.689 Y72.32
N3145 X83.729 Y72.331
N3150 X84.99 Y72.496
N3155 X84.996
N3160 X84.999 Y72.472
N3165 X85. Y69.067
N3170 G03 X85.316 Y68.147 I1.5 J0.001
N3175 G01 X85.365 Y68.083
N3180 G03 X86.562 Y67.503 I1.184 J0.92
N3185 G01 X89.984 Y67.532
N3190 X89.996
N3195 X93.685 Y67.592
N3200 X93.698
N3205 X97.387 Y67.683
N3210 X97.4
N3215 X101.089 Y67.807
N3220 X101.102
N3225 X104.176 Y67.937
N3230 X104.188
N3235 X106.648 Y68.061
N3240 X106.659 Y68.062
N3245 X109.119 Y68.204
N3250 X109.131 Y68.205
N3255 X111.59 Y68.367
N3260 X111.604 Y68.368
N3265 X114.678 Y68.599
N3270 X114.694 Y68.6
N3275 X117.769 Y68.865
N3280 X117.786 Y68.867
N3285 X120.86 Y69.169
N3290 X120.878 Y69.17
N3295 X123.337 Y69.441
N3300 X123.353 Y69.443
N3305 X126.427 Y69.813
N3310 X126.446 Y69.816
N3315 X129.52 Y70.226
N3320 X129.541 Y70.229
N3325 X133.23 Y70.773
N3330 X133.252 Y70.777
N3335 X136.326 Y71.276
N3340 X136.347 Y71.28
N3345 X140.036 Y71.935
N3350 X140.057 Y71.938
N3355 X143.131 Y72.529
N3360 X143.151 Y72.533
N3365 X146.84 Y73.293
N3370 X146.863 Y73.298
N3375 X150.552 Y74.117
N3380 X150.573 Y74.122
N3385 X154.262 Y74.998
N3390 X154.284 Y75.003
N3395 X158.588 Y76.093
N3400 X158.609 Y76.098
N3405 X162.298 Y77.09
N3410 X162.317 Y77.095
N3415 X166.427 Y78.259
N3420 X166.447 Y78.265
N3425 X170.573 Y79.493
N3430 X170.592 Y79.499
N3435 X175.267 Y80.956
N3440 X175.285 Y80.962
N3445 X178.971 Y82.164
N3450 X180.005 Y82.496
N3455 X184.995 Y82.495
N3460 Y62.025
N3465 G02 X183.46 Y59.722 I-2.494
N3470 G03 X181.925 Y57.42 I0.959 J-2.302
N3475 G01 Y46.666
N3480 G02 X180.831 Y45.571 I-1.095
N3485 G01 X180.664
N3490 G02 X180.324 Y45.625 I-0.001 J1.095
N3495 X176.138 Y47.085 I33.581 J102.987
N3500 G03 X171.943 Y48.52 I-29.166 J-78.405
N3505 G01 X155.088 Y53.176
N3510 X140.683 Y56.281
N3515 G03 X115.773 Y59.596 I-40.556 J-209.466
N3520 X90.67 Y60.738 I-32.979 J-448.502
N3525 X86.972 Y60.749 I-2.234 J-127.537
N3530 X83.522 Y59.42 I0.061 J-5.3
N3535 G02 X81.669 Y59.405 I-0.935 J1.057
N3540 G03 X77.806 Y60.806 I-3.788 J-4.419
N3545 G02 X73.696 Y60.779 I-4.109 J317.343
N3550 G03 X70.385 Y59.268 J-4.383
N3555 G02 X66.94 Y58.094 I-2.73 J2.368
N3560 X63.099 Y59.564 I2.459 J12.173
N3565 X59.593 Y61.713 I57.731 J98.093
N3570 X59.592 Y63.289 I0.503 J0.788
N3575 X61.986 Y64.702 I20.652 J-32.263
N3580 X64.448 Y65.992 I47.362 J-87.354
N3585 X66.826 Y66.913 I5.792 J-11.434
N3590 X69.336 Y66.46 I0.784 J-2.837
N3595 X71.339 Y64.996 I-170.635 J-235.598
N3600 G03 X73.696 Y64.221 I2.357 J3.197
N3605 G02 X77.806 Y64.194 J-317.37
N3610 G03 X81.669 Y65.595 I0.075 J5.82
N3615 G02 X83.522 Y65.58 I0.918 J-1.071
N3620 G03 X84.94 Y64.672 I3.628 J4.102
N3625 X86.589 Y64.332 I1.616 J3.662
N3630 G02 X90.183 Y64.308 I1.007 J-120.938
N3635 G03 X93.778 Y64.314 I1.673 J78.148
N3640 G01 X118.106 Y65.603
N3645 X136.92 Y68.051
N3650 X151.331 Y70.931
N3655 X167.383 Y75.121
N3660 X180.323 Y79.374
N3665 G02 X180.658 Y79.426 I0.335 J-1.043
N3670 G01 X180.83
N3675 G02 X181.925 Y78.331 J-1.095
N3680 G01 Y57.42
N3685 G02 X180.878 Y55.849 I-1.702
N3690 G03 X179.83 Y54.277 I0.655 J-1.571
N3695 G01 Y49.434
N3700 G02 X178.457 Y48.437 I-1.048
N3705 X175.514 Y49.48 I19.017 J58.323
N3710 G03 X172.564 Y50.506 I-17.752 J-46.302
N3715 G01 X155.602 Y55.207
N3720 G03 X131.787 Y59.795 I-51.7 J-204.248
N3725 X107.639 Y62.056 I-40.759 J-305.264
N3730 G02 X107.637 Y62.945 I0.024 J0.444
N3735 X108.529 Y62.968 I0.825 J-14.255
N3740 G03 X109.42 Y62.992 I0.066 J14.279
N3745 G01 X127.07 Y64.478
N3750 X147.926 Y68.03
N3755 X163.693 Y71.9
N3760 X178.457 Y76.563
N3765 G02 X179.83 Y75.567 I0.325 J-0.997
N3770 G01 Y54.277
N3775 G02 X178.697 Y52.153 I-2.558
N3780 X176.367 Y51.544 I-2.039 J3.04
N3785 G01 X176.247 Y51.56
N3790 X176.13 Y51.59
N3795 G02 X174.675 Y52.095 I7.361 J23.535
N3800 G03 X173.219 Y52.601 I-8.816 J-23.029
N3805 G01 X160.6 Y56.312
N3810 G03 X146.209 Y59.572 I-48.167 J-179.207
N3815 X131.655 Y62.003 I-76.543 J-413.513
N3820 G02 X131.656 Y63.001 I0.074 J0.499
N3825 X132.993 Y63.156 I3.145 J-21.319
N3830 G03 X134.33 Y63.311 I-1.807 J21.474
N3835 G01 X148.39 Y65.778
N3840 X164.289 Y69.68
N3845 X176.129 Y73.412
N3850 G02 X177.536 Y72.377 I0.323 J-1.035
N3855 G01 Y52.623
N3860 G02 X176.367 Y51.544 I-1.083
N3865 X174.407 Y53.269 I0.174 J2.173
N3870 G03 X172.668 Y55.217 I-2.565 J-0.539
N3875 G02 X171.611 Y55.587 I11.187 J33.653
N3880 G03 X169.509 Y56.287 I-12.244 J-33.283
N3885 G01 X156.762 Y59.788
N3890 X146.025 Y61.972
N3895 G02 X146.026 Y63.03 I0.11 J0.529
N3900 X147.44 Y63.276 I4.642 J-22.513
N3905 G03 X148.855 Y63.522 I-3.228 J22.759
N3910 G01 X161.066 Y66.301
N3915 X173.702 Y70.112
N3920 G02 X175.108 Y69.077 I0.323 J-1.035
N3925 G01 Y55.927
N3930 G02 X173.713 Y54.888 I-1.085
N3935 X172.668 Y55.217 I10.142 J33.982
N3940 X171.463 Y56.896 I0.555 J1.67
N3945 G03 X170.246 Y58.566 I-1.742 J0.009
N3950 G02 X168.462 Y59.16 I18.298 J57.924
N3955 G03 X165.748 Y60.019 I-15.44 J-44.079
N3960 X161.712 Y61.011 I-16.17 J-57.105
N3965 G02 X157.662 Y61.946 I20.227 J96.844
N3970 Y63.054 I0.14 J0.554
N3975 X159.663 Y63.495 I8.049 J-31.801
N3980 G03 X161.665 Y63.935 I-6.048 J32.241
N3985 X166.432 Y65.278 I-22.799 J90.071
N3990 G02 X171.171 Y66.72 I124.158 J-399.629
N3995 X172.582 Y65.667 I0.313 J-1.052
N4000 G01 Y59.334
N4005 G02 X171.171 Y58.282 I-1.097
N4010 X170.246 Y58.566 I17.373 J58.208
N4015 X168.946 Y60.211 I0.563 J1.781
N4020 G03 X167.817 Y61.979 I-2.2 J-0.161
N4025 G02 X167.944 Y63.074 I0.29 J0.521
N4030 G01 X168.912 Y63.348
N4035 G02 X169.971 Y62.547 I0.227 J-0.801
N4040 G01 Y62.453
N4045 G02 X168.912 Y61.652 I-0.832
N4050 G01 X167.944 Y61.926
N4055 X167.879 Y61.949
N4060 X167.817 Y61.979
N4065 X167.762 Y62.013 Z-0.491
N4070 X167.712 Y62.053 Z-0.483
N4075 X167.669 Y62.095 Z-0.458
N4080 X167.63 Y62.142 Z-0.433
N4085 X167.601 Y62.184 Z-0.393
N4090 X167.575 Y62.229 Z-0.354
N4095 X167.544 Y62.302 Z-0.25
N4100 X167.53 Y62.35 Z-0.129
N4105 X167.525 Y62.367 Z0.
N4110 G00 Z5.
N4115 X83.123 Y61.617
N4120 Z2.
N4125 G01 Z0. F333.
N4130 X83.127 Y61.61 Z-0.087
N4135 X83.138 Y61.591 Z-0.171
N4140 X83.157 Y61.559 Z-0.25
N4145 X83.183 Y61.517 Z-0.321
N4150 X83.216 Y61.464 Z-0.383
N4155 X83.253 Y61.403 Z-0.433
N4160 X83.294 Y61.336 Z-0.47
N4165 X83.338 Y61.264 Z-0.492
N4170 X83.383 Y61.19 Z-0.5
N4175 G02 X82.529 Y60.669 I-0.427 J-0.26 F1000.
N4180 X82.459 Y60.879 I0.427 J0.26
N4185 G01 X82.341 Y62.031
N4190 G02 X83.336 Y62.133 I0.497 J0.051
N4195 X83.099 Y61.655 I-0.497 J-0.051
N4200 G01 X83.026 Y61.61
N4205 G02 X82.141 I-0.442 J0.705
N4210 G03 X81.784 Y61.82 I-3.528 J-5.61
N4215 G02 Y63.18 I0.371 J0.68
N4220 G03 X82.141 Y63.39 I-3.171 J5.82
N4225 G02 X83.026 I0.443 J-0.704
N4230 G03 X83.387 Y63.179 I3.523 J5.614
N4235 G02 Y61.821 I-0.369 J-0.679
N4240 G03 X83.099 Y61.655 I3.163 J-5.824
N4245 G02 X82.749 Y61.987 I-0.13 J0.213
N4250 G01 X83.197 Y62.824
N4255 X83.223 Y62.862
N4260 X83.254 Y62.895
N4265 X83.291 Y62.921
N4270 X84.342 Y63.536
N4275 G03 X84.417 Y63.899 I-0.126 J0.216
N4280 X80.58 Y61.1 Z-0.761 I-1.919 J-1.4 F333.
N4285 X84.417 Y63.899 Z-1.021 I1.919 J1.4
N4290 X80.58 Y61.1 Z-1.282 I-1.919 J-1.4
N4295 X84.856 Y62.786 Z-1.5 I1.919 J1.4
N4300 X83.511 Y63.549 I-0.955 J-0.116 F1000.
N4305 G01 X82.088 Y62.916
N4310 G03 X82.086 Y62.08 I0.186 J-0.418
N4315 G01 X82.175 Y62.04
N4320 X82.296 Y61.983
N4325 G03 X82.713 Y61.987 I0.203 J0.41
N4330 G01 X82.91 Y62.083
N4335 G03 X82.919 Y62.914 I-0.187 J0.418
N4340 G01 X82.85 Y62.948
N4345 X82.71 Y63.018
N4350 G03 X82.292 Y63.015 I-0.205 J-0.409
N4355 G01 X82.088 Y62.916
N4360 X82.031 Y62.885 Z-1.491
N4365 X81.978 Y62.847 Z-1.483
N4370 X81.935 Y62.806 Z-1.458
N4375 X81.897 Y62.758 Z-1.433
N4380 X81.87 Y62.714 Z-1.393
N4385 X81.849 Y62.667 Z-1.354
N4390 X81.826 Y62.591 Z-1.25
N4395 X81.818 Y62.542 Z-1.129
N4400 X81.817 Y62.525 Z-1.
N4405 G00 Z5.
N4410 X69.382 Y62.5
N4415 Z2.
N4420 G01 Z0. F333.
N4425 G18 G03 X68.882 Z-0.5 I-0.5
N4430 G17 G02 Y63.5 J0.5 F1000.
N4435 X69.185 Y62.603 J-0.5
N4440 G01 X68.531 Y62.103
N4445 G02 X67.924 Y62.897 I-0.304 J0.397
N4450 X68.727 Y62.5 I0.304 J-0.397
N4455 X68.342 Y61.614 I-1.212
N4460 G03 X68.132 Y61.41 I5.934 J-6.328
N4465 G02 X66.949 Y61.167 I-0.776 J0.773
N4470 X66.275 Y61.454 I6.313 J15.75
N4475 X65.616 Y61.774 I5.307 J11.744
N4480 X65.615 Y63.225 I0.379 J0.726
N4485 X66.293 Y63.561 I7.738 J-14.768
N4490 X66.994 Y63.847 I3.273 J-7.002
N4495 X68.131 Y63.59 I0.365 J-1.033
N4500 G03 X68.342 Y63.386 I5.618 J5.584
N4505 G02 X68.727 Y62.5 I-0.827 J-0.886
N4510 X68.452 Y62.251 I-0.25
N4515 G01 X52.888 Y63.831
N4520 G03 X52.732 Y63.369 I-0.025 J-0.249
N4525 G01 X52.821 Y63.314
N4530 G02 Y61.686 I-0.5 J-0.814
N4535 G01 X52.704 Y61.614
N4540 G02 X52.428 Y61.506 I-0.435 J0.709
N4545 G01 X52.365 Y61.494
N4550 G02 X52.075 Y61.489 I-0.16 J0.817
N4555 G01 X52.015 Y61.498
N4560 G02 X51.739 Y61.594 I0.131 J0.822
N4565 G01 X51.679 Y61.628
N4570 G02 X51.452 Y61.814 I0.407 J0.726
N4575 G01 X51.407 Y61.867
N4580 G02 X51.26 Y62.118 I0.633 J0.54
N4585 G01 X51.24 Y62.17
N4590 G02 X51.189 Y62.456 I0.781 J0.289
N4595 G01 X51.188 Y62.535
N4600 G02 X51.239 Y62.824 I0.832 J0.003
N4605 G01 X51.26 Y62.88
N4610 G02 X51.408 Y63.134 I0.781 J-0.286
N4615 G01 X51.452 Y63.186
N4620 G02 X51.679 Y63.372 I0.633 J-0.54
N4625 G01 X51.739 Y63.406
N4630 G02 X52.013 Y63.501 I0.407 J-0.726
N4635 G01 X52.073 Y63.511
N4640 G02 X52.365 Y63.506 I0.132 J-0.822
N4645 G01 X52.428 Y63.494
N4650 G02 X52.704 Y63.386 I-0.16 J-0.817
N4655 G01 X52.732 Y63.369
N4660 X52.768 Y63.351
N4665 X52.808 Y63.338
N4670 X66.986 Y60.143
N4675 G03 X67.567 Y64.857 Z-0.761 I0.29 J2.357 F333.
N4680 X66.986 Y60.143 Z-1.021 I-0.29 J-2.357
N4685 X67.567 Y64.857 Z-1.282 I0.29 J2.357
N4690 X65.874 Y60.583 Z-1.5 I-0.29 J-2.357
N4695 X67.365 Y60.682 I0.687 J0.938 F1000.
N4700 X68.428 Y61.732 I-34.458 J35.947
N4705 Y63.268 I-0.781 J0.768
N4710 G01 X68.127 Y63.575
N4715 G03 X66.968 Y63.835 I-0.781 J-0.768
N4720 X66.288 Y63.539 I2.139 J-5.833
N4725 G02 X65.625 Y63.206 I-25.64 J50.344
N4730 G03 Y61.794 I0.348 J-0.706
N4735 G02 X66.288 Y61.461 I-24.977 J-50.676
N4740 G03 X66.968 Y61.165 I2.82 J5.536
N4745 X68.127 Y61.425 I0.377 J1.028
N4750 G01 X68.428 Y61.732
N4755 X68.471 Y61.781 Z-1.491
N4760 X68.506 Y61.835 Z-1.483
N4765 X68.533 Y61.89 Z-1.458
N4770 X68.553 Y61.946 Z-1.433
N4775 X68.564 Y61.997 Z-1.393
N4780 X68.571 Y62.048 Z-1.354
N4785 X68.57 Y62.128 Z-1.25
N4790 X68.563 Y62.177 Z-1.129
N4795 X68.559 Y62.194 Z-1.
N4800 G00 Z5.
N4805 X52.288 Y62.369
N4810 Z1.5
N4815 G01 Z-1.5 F333.
N4820 X52.313 Y62.384 F1000.
N4825 X52.406 Y62.5
N4830 X52.313 Y62.616
N4835 X52.262 Y62.647
N4840 X52.208 Y62.657
N4845 X52.153 Y62.649
N4850 X52.106 Y62.623
N4855 X52.068 Y62.577
N4860 X52.054 Y62.539
N4865 Y62.461
N4870 X52.068 Y62.423
N4875 X52.106 Y62.377
N4880 X52.153 Y62.351
N4885 X52.208 Y62.343
N4890 X52.262 Y62.353
N4895 X52.288 Y62.369
N4900 X52.313 Y62.384 Z-1.499
N4905 X52.36 Y62.443 Z-1.489
N4910 X52.406 Y62.5 Z-1.467
N4915 X52.357 Y62.561 Z-1.429
N4920 X52.313 Y62.616 Z-1.379
N4925 X52.262 Y62.647 Z-1.318
N4930 X52.233 Y62.653 Z-1.278
N4935 X52.208 Y62.657 Z-1.236
N4940 X52.182 Y62.653 Z-1.178
N4945 X52.164 Y62.65 Z-1.118
N4950 X52.153 Y62.649 Z-1.056
N4955 X52.15 Y62.647 Z-1.
N4960 G00 Z5.
N4965 X52.054 Y62.5
N4970 Z0.5
N4975 G01 Z-2.5 F333.
N4980 Y62.461 F1000.
N4985 X52.068 Y62.423
N4990 X52.106 Y62.377
N4995 X52.153 Y62.351
N5000 X52.208 Y62.343
N5005 X52.262 Y62.353
N5010 X52.313 Y62.384
N5015 X52.406 Y62.5
N5020 X52.313 Y62.616
N5025 X52.262 Y62.647
N5030 X52.208 Y62.657
N5035 X52.153 Y62.649
N5040 X52.106 Y62.623
N5045 X52.068 Y62.577
N5050 X52.054 Y62.539
N5055 Y62.5
N5060 Y62.461 Z-2.498
N5065 X52.068 Y62.423 Z-2.494
N5070 X52.106 Y62.377 Z-2.48
N5075 X52.153 Y62.351 Z-2.461
N5080 X52.208 Y62.343 Z-2.434
N5085 X52.262 Y62.353 Z-2.397
N5090 X52.313 Y62.384 Z-2.344
N5095 X52.343 Y62.421 Z-2.285
N5100 X52.367 Y62.451 Z-2.22
N5105 X52.384 Y62.473 Z-2.15
N5110 X52.395 Y62.487 Z-2.076
N5115 X52.399 Y62.491 Z-2.
N5120 G00 Z5.
N5125 X52.288 Y62.631
N5130 Z2.
N5135 G01 Z-0.5 F333.
N5140 Z-3.5
N5145 X52.262 Y62.647 F1000.
N5150 X52.208 Y62.657
N5155 X52.153 Y62.649
N5160 X52.106 Y62.623
N5165 X52.068 Y62.577
N5170 X52.054 Y62.539
N5175 Y62.461
N5180 X52.068 Y62.423
N5185 X52.106 Y62.377
N5190 X52.153 Y62.351
N5195 X52.208 Y62.343
N5200 X52.262 Y62.353
N5205 X52.313 Y62.384
N5210 X52.406 Y62.5
N5215 X52.313 Y62.616
N5220 X52.288 Y62.631
N5225 X52.262 Y62.647 Z-3.499
N5230 X52.208 Y62.657 Z-3.493
N5235 X52.153 Y62.649 Z-3.48
N5240 X52.106 Y62.623 Z-3.461
N5245 X52.068 Y62.577 Z-3.431
N5250 X52.054 Y62.539 Z-3.404
N5255 Y62.498 Z-3.371
N5260 Y62.461 Z-3.334
N5265 X52.068 Y62.423 Z-3.281
N5270 X52.09 Y62.397 Z-3.224
N5275 X52.106 Y62.377 Z-3.164
N5280 X52.124 Y62.367 Z-3.083
N5285 X52.13 Y62.364 Z-3.
N5290 G00 Z5.
N5295 X52.288 Y62.369
N5300 Z-1.5
N5305 G01 Z-4.5 F333.
N5310 X52.313 Y62.384 F1000.
N5315 X52.406 Y62.5
N5320 X52.313 Y62.616
N5325 X52.262 Y62.647
N5330 X52.208 Y62.657
N5335 X52.153 Y62.649
N5340 X52.106 Y62.623
N5345 X52.068 Y62.577
N5350 X52.054 Y62.539
N5355 Y62.461
N5360 X52.068 Y62.423
N5365 X52.106 Y62.377
N5370 X52.153 Y62.351
N5375 X52.208 Y62.343
N5380 X52.262 Y62.353
N5385 X52.288 Y62.369
N5390 X52.313 Y62.384 Z-4.499
N5395 X52.36 Y62.443 Z-4.489
N5400 X52.406 Y62.5 Z-4.467
N5405 X52.357 Y62.561 Z-4.429
N5410 X52.313 Y62.616 Z-4.379
N5415 X52.262 Y62.647 Z-4.318
N5420 X52.233 Y62.653 Z-4.278
N5425 X52.208 Y62.657 Z-4.236
N5430 X52.182 Y62.653 Z-4.178
N5435 X52.164 Y62.65 Z-4.118
N5440 X52.153 Y62.649 Z-4.056
N5445 X52.15 Y62.647 Z-4.
N5450 G00 Z5.
N5455 X52.054 Y62.5
N5460 Z1.5
N5465 G01 Z-2.5 F333.
N5470 Z-5.5
N5475 Y62.461 F1000.
N5480 X52.068 Y62.423
N5485 X52.106 Y62.377
N5490 X52.153 Y62.351
N5495 X52.208 Y62.343
N5500 X52.262 Y62.353
N5505 X52.313 Y62.384
N5510 X52.406 Y62.5
N5515 X52.313 Y62.616
N5520 X52.262 Y62.647
N5525 X52.208 Y62.657
N5530 X52.153 Y62.649
N5535 X52.106 Y62.623
N5540 X52.068 Y62.577
N5545 X52.054 Y62.539
N5550 Y62.5
N5555 Y62.461 Z-5.498
N5560 X52.068 Y62.423 Z-5.494
N5565 X52.106 Y62.377 Z-5.48
N5570 X52.153 Y62.351 Z-5.461
N5575 X52.208 Y62.343 Z-5.434
N5580 X52.262 Y62.353 Z-5.397
N5585 X52.313 Y62.384 Z-5.344
N5590 X52.343 Y62.421 Z-5.285
N5595 X52.367 Y62.451 Z-5.22
N5600 X52.384 Y62.473 Z-5.15
N5605 X52.395 Y62.487 Z-5.076
N5610 X52.399 Y62.491 Z-5.
N5615 G00 Z5.
N5620 X52.054 Y62.5
N5625 Z1.5
N5630 G01 Z-3.5 F333.
N5635 Z-6.5
N5640 Y62.461 F1000.
N5645 X52.068 Y62.423
N5650 X52.106 Y62.377
N5655 X52.153 Y62.351
N5660 X52.208 Y62.343
N5665 X52.262 Y62.353
N5670 X52.313 Y62.384
N5675 X52.406 Y62.5
N5680 X52.313 Y62.616
N5685 X52.262 Y62.647
N5690 X52.208 Y62.657
N5695 X52.153 Y62.649
N5700 X52.106 Y62.623
N5705 X52.068 Y62.577
N5710 X52.054 Y62.539
N5715 Y62.5
N5720 Y62.461 Z-6.498
N5725 X52.068 Y62.423 Z-6.494
N5730 X52.106 Y62.377 Z-6.48
N5735 X52.153 Y62.351 Z-6.461
N5740 X52.208 Y62.343 Z-6.434
N5745 X52.262 Y62.353 Z-6.397
N5750 X52.313 Y62.384 Z-6.344
N5755 X52.343 Y62.421 Z-6.285
N5760 X52.367 Y62.451 Z-6.22
N5765 X52.384 Y62.473 Z-6.15
N5770 X52.395 Y62.487 Z-6.076
N5775 X52.399 Y62.491 Z-6.
N5780 G00 Z5.
N5785 X52.054 Y62.5
N5790 Z1.5
N5795 G01 Z-4.5 F333.
N5800 Z-7.5
N5805 Y62.461 F1000.
N5810 X52.068 Y62.423
N5815 X52.106 Y62.377
N5820 X52.153 Y62.351
N5825 X52.208 Y62.343
N5830 X52.262 Y62.353
N5835 X52.313 Y62.384
N5840 X52.406 Y62.5
N5845 X52.313 Y62.616
N5850 X52.262 Y62.647
N5855 X52.208 Y62.657
N5860 X52.153 Y62.649
N5865 X52.106 Y62.623
N5870 X52.068 Y62.577
N5875 X52.054 Y62.539
N5880 Y62.5
N5885 Y62.461 Z-7.498
N5890 X52.068 Y62.423 Z-7.494
N5895 X52.106 Y62.377 Z-7.48
N5900 X52.153 Y62.351 Z-7.461
N5905 X52.208 Y62.343 Z-7.434
N5910 X52.262 Y62.353 Z-7.397
N5915 X52.313 Y62.384 Z-7.344
N5920 X52.343 Y62.421 Z-7.285
N5925 X52.367 Y62.451 Z-7.22
N5930 X52.384 Y62.473 Z-7.15
N5935 X52.395 Y62.487 Z-7.076
N5940 X52.399 Y62.491 Z-7.
N5945 G00 Z5.
N5950 X52.288 Y62.369
N5955 Z1.5
N5960 G01 Z-5.5 F333.
N5965 Z-8.5
N5970 X52.313 Y62.384 F1000.
N5975 X52.406 Y62.5
N5980 X52.313 Y62.616
N5985 X52.262 Y62.647
N5990 X52.208 Y62.657
N5995 X52.153 Y62.649
N6000 X52.106 Y62.623
N6005 X52.068 Y62.577
N6010 X52.054 Y62.539
N6015 Y62.461
N6020 X52.068 Y62.423
N6025 X52.106 Y62.377
N6030 X52.153 Y62.351
N6035 X52.208 Y62.343
N6040 X52.262 Y62.353
N6045 X52.288 Y62.369
N6050 X52.313 Y62.384 Z-8.499
N6055 X52.36 Y62.443 Z-8.489
N6060 X52.406 Y62.5 Z-8.467
N6065 X52.357 Y62.561 Z-8.429
N6070 X52.313 Y62.616 Z-8.379
N6075 X52.262 Y62.647 Z-8.318
N6080 X52.233 Y62.653 Z-8.278
N6085 X52.208 Y62.657 Z-8.236
N6090 X52.182 Y62.653 Z-8.178
N6095 X52.164 Y62.65 Z-8.118
N6100 X52.153 Y62.649 Z-8.056
N6105 X52.15 Y62.647 Z-8.
N6110 G00 Z5.
N6115 X52.054 Y62.5
N6120 Z1.5
N6125 G01 Z-6.5 F333.
N6130 Z-9.5
N6135 Y62.461 F1000.
N6140 X52.068 Y62.423
N6145 X52.106 Y62.377
N6150 X52.153 Y62.351
N6155 X52.208 Y62.343
N6160 X52.262 Y62.353
N6165 X52.313 Y62.384
N6170 X52.406 Y62.5
N6175 X52.313 Y62.616
N6180 X52.262 Y62.647
N6185 X52.208 Y62.657
N6190 X52.153 Y62.649
N6195 X52.106 Y62.623
N6200 X52.068 Y62.577
N6205 X52.054 Y62.539
N6210 Y62.5
N6215 Y62.461 Z-9.498
N6220 X52.068 Y62.423 Z-9.494
N6225 X52.106 Y62.377 Z-9.48
N6230 X52.153 Y62.351 Z-9.461
N6235 X52.208 Y62.343 Z-9.434
N6240 X52.262 Y62.353 Z-9.397
N6245 X52.313 Y62.384 Z-9.344
N6250 X52.343 Y62.421 Z-9.285
N6255 X52.367 Y62.451 Z-9.22
N6260 X52.384 Y62.473 Z-9.15
N6265 X52.395 Y62.487 Z-9.076
N6270 X52.399 Y62.491 Z-9.
N6275 G00 Z5.
N6280 X52.054 Y62.5
N6285 Z1.5
N6290 G01 Z-7.5 F333.
N6295 Z-10.5
N6300 Y62.461 F1000.
N6305 X52.068 Y62.423
N6310 X52.106 Y62.377
N6315 X52.153 Y62.351
N6320 X52.208 Y62.343
N6325 X52.262 Y62.353
N6330 X52.313 Y62.384
N6335 X52.406 Y62.5
N6340 X52.313 Y62.616
N6345 X52.262 Y62.647
N6350 X52.208 Y62.657
N6355 X52.153 Y62.649
N6360 X52.106 Y62.623
N6365 X52.068 Y62.577
N6370 X52.054 Y62.539
N6375 Y62.5
N6380 Y62.461 Z-10.498
N6385 X52.068 Y62.423 Z-10.494
N6390 X52.106 Y62.377 Z-10.48
N6395 X52.153 Y62.351 Z-10.461
N6400 X52.208 Y62.343 Z-10.434
N6405 X52.262 Y62.353 Z-10.397
N6410 X52.313 Y62.384 Z-10.344
N6415 X52.343 Y62.421 Z-10.285
N6420 X52.367 Y62.451 Z-10.22
N6425 X52.384 Y62.473 Z-10.15
N6430 X52.395 Y62.487 Z-10.076
N6435 X52.399 Y62.491 Z-10.
N6440 G00 Z5.
N6445 X171.442 Y62.929
N6450 Z1.05
N6455 G01 X171.439 Y62.945 Z0.923 F333.
N6460 X171.43 Y62.992 Z0.805
N6465 X171.413 Y63.066 Z0.702
N6470 X171.387 Y63.162 Z0.623
N6475 X171.352 Y63.273 Z0.571
N6480 X171.308 Y63.391 Z0.55
N6485 G03 X166.905 Y61.609 Z0.289 I-2.201 J-0.891
N6490 X171.308 Y63.391 Z0.029 I2.201 J0.891
N6495 X166.905 Y61.609 Z-0.232 I-2.201 J-0.891
N6500 X171.308 Y63.391 Z-0.492 I2.201 J0.891
N6505 X166.905 Y61.609 Z-0.753 I-2.201 J-0.891
N6510 X171.308 Y63.391 Z-1.013 I2.201 J0.891
N6515 X166.905 Y61.609 Z-1.274 I-2.201 J-0.891
N6520 X171.48 Y62.428 Z-1.5 I2.201 J0.891
N6525 X169.758 Y63.708 I-1.307 J0.04 F1000.
N6530 G02 X167.707 Y63.076 I-14.36 J42.937
N6535 G03 X167.706 Y61.927 I0.162 J-0.574
N6540 G01 X168.981 Y61.564
N6545 G03 X170.041 Y62.364 I0.228 J0.8
N6550 G01 Y62.635
N6555 G03 X168.982 Y63.436 I-0.832
N6560 G01 X167.707 Y63.076
N6565 G02 X165.496 Y63.774 I-0.574 J2.032
N6570 G03 X163.285 Y64.472 I-1.626 J-1.298
N6575 G01 X161.521 Y63.955
N6580 G02 X159.454 Y63.502 I-8.285 J32.846
N6585 G03 X157.387 Y63.049 I6.218 J-33.299
N6590 X157.394 Y61.949 I0.138 J-0.549
N6595 X161.788 Y60.938 I67.771 J284.354
N6600 G02 X166.158 Y59.831 I-16.54 J-74.475
N6605 X168.701 Y59.023 I-12.25 J-42.979
N6610 G03 X171.237 Y58.199 I19.115 J54.497
N6615 X172.648 Y59.249 I0.315 J1.05
N6620 G01 Y65.751
N6625 G03 X171.237 Y66.803 I-1.098
N6630 G01 X163.285 Y64.472
N6635 G02 X161.148 Y65.151 I-0.565 J1.926
N6640 G03 X159.033 Y65.895 I-1.648 J-1.307
N6645 G01 X148.855 Y63.575
N6650 G02 X147.292 Y63.303 I-5.133 J24.876
N6655 G03 X145.728 Y63.031 I3.57 J-25.148
N6660 Y61.971 I0.109 J-0.53
N6665 G01 X157.243 Y59.607
N6670 X169.869 Y56.106
N6675 G02 X171.821 Y55.454 I-9.458 J-31.56
N6680 G03 X173.773 Y54.802 I11.41 J30.908
N6685 X175.174 Y55.844 I0.313 J1.043
N6690 G01 Y69.162
N6695 G03 X173.768 Y70.196 I-1.083
N6700 G01 X160.923 Y66.326
N6705 X159.033 Y65.895
N6710 G02 X156.956 Y66.668 I-0.449 J1.969
N6715 G03 X154.874 Y67.425 I-1.608 J-1.18
N6720 G01 X148.388 Y65.835
N6725 X133.885 Y63.301
N6730 G02 X132.569 Y63.149 I-3.099 J20.987
N6735 G03 X131.252 Y62.996 I1.783 J-21.14
N6740 X131.258 Y62.004 I0.073 J-0.496
N6745 G02 X144.02 Y59.991 I-40.71 J-299.508
N6750 X156.648 Y57.259 I-32.479 J-180.7
N6755 G01 X173.541 Y52.433
N6760 G02 X174.866 Y51.971 I-6.731 J-21.428
N6765 G03 X176.191 Y51.509 I8.055 J20.966
N6770 X177.597 Y52.541 I0.324 J1.032
N6775 G01 Y72.457
N6780 G03 X176.19 Y73.491 I-1.083
N6785 G01 X164.111 Y69.69
N6790 X154.874 Y67.425
N6795 G02 X152.93 Y68.129 I-0.444 J1.81
N6800 G03 X150.986 Y68.833 I-1.5 J-1.106
N6805 G01 X147.925 Y68.082
N6810 X127.304 Y64.559
N6815 X109.853 Y63.025
N6820 G02 X108.215 Y62.985 I-1.455 J26.181
N6825 G03 X106.578 Y62.945 I-0.183 J-26.22
N6830 X106.577 Y62.056 I0.025 J-0.445
N6835 G02 X122.176 Y60.938 I-31.053 J-542.596
N6840 X137.681 Y58.891 I-14.812 J-171.919
N6845 G01 X151.728 Y56.073
N6850 X168.539 Y51.669
N6855 X178.514 Y48.365
N6860 G03 X179.887 Y49.361 I0.325 J0.996
N6865 G01 Y75.639
N6870 G03 X178.514 Y76.635 I-1.048
N6875 G01 X163.516 Y71.906
N6880 X150.986 Y68.833
N6885 G02 X149.061 Y69.546 I-0.436 J1.779
N6890 G03 X147.149 Y70.294 I-1.531 J-1.096
N6895 G01 X143.766 Y69.596
N6900 X143.744 Y69.591
N6905 X140.055 Y68.888
N6910 X140.036 Y68.885
N6915 X136.961 Y68.341
N6920 X136.939 Y68.337
N6925 X133.25 Y67.742
N6930 X133.23 Y67.739
N6935 X130.156 Y67.285
N6940 X130.136 Y67.282
N6945 X127.062 Y66.87
N6950 X127.036 Y66.866
N6955 X121.502 Y66.223
N6960 X121.478 Y66.22
N6965 X120.248 Y66.098
N6970 X120.238 Y66.097
N6975 X115.319 Y65.641
N6980 X115.288 Y65.638
N6985 X109.755 Y65.238
N6990 X109.73 Y65.237
N6995 X104.811 Y64.963
N7000 X104.789 Y64.962
N7005 X99.871 Y64.761
N7010 X99.853 Y64.76
N7015 X95.549 Y64.634
N7020 X95.534
N7025 X91.23 Y64.551
N7030 X91.217 Y64.55
N7035 X87.528 Y64.511
N7040 X87.517
N7045 X84.904 Y64.503
N7050 X84.793 Y64.507
N7055 X84.683 Y64.519
N7060 X84.452 Y64.553
N7065 X84.335 Y64.575
N7070 X84.221 Y64.605
N7075 X83.99 Y64.678
N7080 X83.876 Y64.719
N7085 X83.765 Y64.769
N7090 X83.546 Y64.879
N7095 X83.447 Y64.933
N7100 X83.352 Y64.995
N7105 X83.182 Y65.116
N7110 X83.092 Y65.185
N7115 X83.007 Y65.261
N7120 X82.828 Y65.434
N7125 X82.748 Y65.518
N7130 X82.674 Y65.608
N7135 X82.543 Y65.781
N7140 X82.5 Y65.842
N7145 X82.416 Y65.724
N7150 X82.298 Y65.574
N7155 X82.247 Y65.512
N7160 X82.192 Y65.453
N7165 X82.099 Y65.358
N7170 X82.033 Y65.294
N7175 X81.963 Y65.234
N7180 X81.778 Y65.087
N7185 X81.686 Y65.019
N7190 X81.589 Y64.958
N7195 X81.398 Y64.848
N7200 X81.297 Y64.795
N7205 X81.191 Y64.749
N7210 X80.97 Y64.664
N7215 X80.861 Y64.626
N7220 X80.748 Y64.597
N7225 X80.527 Y64.549
N7230 X80.416 Y64.529
N7235 X80.303 Y64.518
N7240 X80.076 Y64.503
N7245 X79.98 Y64.5
N7250 X72.909 Y64.503
N7255 X72.826 Y64.505
N7260 X72.743 Y64.512
N7265 X72.589 Y64.529
N7270 X72.452 Y64.551
N7275 X72.332 Y64.576
N7280 X72.212 Y64.606
N7285 X72.092 Y64.641
N7290 X72.016 Y64.666
N7295 X71.941 Y64.695
N7300 X71.761 Y64.769
N7305 X71.665 Y64.813
N7310 X71.573 Y64.864
N7315 X71.378 Y64.979
N7320 X71.293 Y65.033
N7325 X71.212 Y65.093
N7330 X71.073 Y65.203
N7335 X71.001 Y65.263
N7340 X70.932 Y65.329
N7345 X69.962 Y66.317
N7350 X69.307 Y66.807
N7355 X69.242 Y66.843
N7360 X68.744 Y67.09
N7365 X68.659 Y67.116
N7370 X68.206 Y67.236
N7375 X67.673 Y67.273
N7380 X67.649 Y67.272
N7385 X67.02 Y67.206
N7390 X66.278 Y67.023
N7395 X65.432 Y66.713
N7400 X63.619 Y65.819
N7405 X63.056 Y65.503
N7410 X61.246 Y64.422
N7415 X58.225 Y62.5
N7420 X61.246 Y60.578
N7425 X63.057 Y59.497
N7430 X63.619 Y59.181
N7435 X65.432 Y58.287
N7440 X66.278 Y57.977
N7445 X67.02 Y57.794
N7450 X67.652 Y57.728
N7455 X67.753 Y57.732
N7460 X68.205 Y57.764
N7465 X68.73 Y57.904
N7470 X68.744 Y57.91
N7475 X69.294 Y58.184
N7480 X69.306 Y58.191
N7485 X69.962 Y58.683
N7490 X70.932 Y59.671
N7495 X71.001 Y59.737
N7500 X71.073 Y59.797
N7505 X71.212 Y59.907
N7510 X71.293 Y59.967
N7515 X71.378 Y60.021
N7520 X71.573 Y60.136
N7525 X71.665 Y60.187
N7530 X71.761 Y60.231
N7535 X71.941 Y60.305
N7540 X72.016 Y60.334
N7545 X72.092 Y60.359
N7550 X72.212 Y60.394
N7555 X72.291 Y60.415
N7560 X72.37 Y60.431
N7565 X72.567 Y60.467
N7570 X72.669 Y60.482
N7575 X72.772 Y60.489
N7580 X73.003 Y60.499
N7585 X73.064 Y60.5
N7590 X80.058 Y60.499
N7595 X80.143 Y60.496
N7600 X80.227 Y60.489
N7605 X80.452 Y60.464
N7610 X80.564 Y60.446
N7615 X80.675 Y60.421
N7620 X80.896 Y60.361
N7625 X81.009 Y60.325
N7630 X81.118 Y60.281
N7635 X81.339 Y60.182
N7640 X81.425 Y60.14
N7645 X81.507 Y60.093
N7650 X81.625 Y60.021
N7655 X81.703 Y59.969
N7660 X81.778 Y59.913
N7665 X81.963 Y59.766
N7670 X82.051 Y59.689
N7675 X82.133 Y59.606
N7680 X82.288 Y59.437
N7685 X82.355 Y59.358
N7690 X82.416 Y59.276
N7695 X82.501 Y59.153
N7700 X82.585 Y59.276
N7705 X82.651 Y59.367
N7710 X82.725 Y59.452
N7715 X82.889 Y59.628
N7720 X82.971 Y59.71
N7725 X83.06 Y59.785
N7730 X83.235 Y59.924
N7735 X83.326 Y59.989
N7740 X83.421 Y60.048
N7745 X83.615 Y60.159
N7750 X83.721 Y60.213
N7755 X83.83 Y60.26
N7760 X84.065 Y60.348
N7765 X84.18 Y60.386
N7770 X84.298 Y60.414
N7775 X84.529 Y60.46
N7780 X84.642 Y60.479
N7785 X84.755 Y60.488
N7790 X84.986 Y60.498
N7795 X85.061 Y60.5
N7800 X88.75 Y60.48
N7805 X88.762
N7810 X92.451 Y60.43
N7815 X92.463
N7820 X96.152 Y60.352
N7825 X96.166 Y60.351
N7830 X100.47 Y60.219
N7835 X100.489 Y60.218
N7840 X105.408 Y60.006
N7845 X105.429 Y60.005
N7850 X110.347 Y59.724
N7855 X110.371 Y59.722
N7860 X115.29 Y59.362
N7865 X115.319 Y59.359
N7870 X120.853 Y58.846
N7875 X120.884 Y58.843
N7880 X124.22 Y58.461
N7885 X127.036 Y58.134
N7890 X127.064 Y58.13
N7895 X130.753 Y57.629
N7900 X130.774 Y57.626
N7905 X133.848 Y57.166
N7910 X133.868 Y57.162
N7915 X137.252 Y56.608
N7920 X137.273 Y56.604
N7925 X140.715 Y55.99
N7930 X140.734 Y55.986
N7935 X143.935 Y55.372
N7940 X143.956 Y55.368
N7945 X147.456 Y54.643
N7950 X147.477 Y54.638
N7955 X151.166 Y53.819
N7960 X151.189 Y53.814
N7965 X155.493 Y52.788
N7970 X155.514 Y52.783
N7975 X159.203 Y51.848
N7980 X159.225 Y51.843
N7985 X163.529 Y50.682
N7990 X163.549 Y50.677
N7995 X167.853 Y49.45
N8000 X167.873 Y49.444
N8005 X172.177 Y48.155
N8010 X172.195 Y48.149
N8015 X176.716 Y46.729
N8020 X176.732 Y46.724
N8025 X180.478 Y45.5
N8030 X182.
N8035 Y79.5
N8040 X180.478
N8045 X176.516 Y78.206
N8050 X176.497 Y78.2
N8055 X171.579 Y76.663
N8060 X171.559 Y76.657
N8065 X167.255 Y75.376
N8070 X167.235 Y75.37
N8075 X162.931 Y74.154
N8080 X162.913 Y74.149
N8085 X159.224 Y73.157
N8090 X159.201 Y73.151
N8095 X154.897 Y72.066
N8100 X154.877 Y72.061
N8105 X151.188 Y71.185
N8110 X151.166 Y71.181
N8115 X147.477 Y70.362
N8120 X147.455 Y70.357
N8125 X147.149 Y70.294
N8130 X147.087 Y70.277 Z-1.491
N8135 X147.028 Y70.252 Z-1.483
N8140 X146.975 Y70.222 Z-1.458
N8145 X146.927 Y70.185 Z-1.433
N8150 X146.889 Y70.15 Z-1.393
N8155 X146.856 Y70.111 Z-1.354
N8160 X146.812 Y70.044 Z-1.25
N8165 X146.79 Y70. Z-1.129
N8170 X146.784 Y69.984 Z-1.
N8175 G00 Z5.
N8180 X171.442 Y62.929
N8185 Z0.05
N8190 G01 X171.439 Y62.945 Z-0.077 F333.
N8195 X171.43 Y62.992 Z-0.195
N8200 X171.413 Y63.066 Z-0.298
N8205 X171.387 Y63.162 Z-0.377
N8210 X171.352 Y63.273 Z-0.429
N8215 X171.308 Y63.391 Z-0.45
N8220 G03 X166.905 Y61.609 Z-0.711 I-2.201 J-0.891
N8225 X171.308 Y63.391 Z-0.971 I2.201 J0.891
N8230 X166.905 Y61.609 Z-1.232 I-2.201 J-0.891
N8235 X171.308 Y63.391 Z-1.492 I2.201 J0.891
N8240 X166.905 Y61.609 Z-1.753 I-2.201 J-0.891
N8245 X171.308 Y63.391 Z-2.013 I2.201 J0.891
N8250 X166.905 Y61.609 Z-2.274 I-2.201 J-0.891
N8255 X171.48 Y62.428 Z-2.5 I2.201 J0.891
N8260 X169.758 Y63.708 I-1.307 J0.04 F1000.
N8265 G02 X167.707 Y63.076 I-14.36 J42.937
N8270 G03 X167.706 Y61.927 I0.162 J-0.574
N8275 G01 X168.981 Y61.564
N8280 G03 X170.041 Y62.364 I0.228 J0.8
N8285 G01 Y62.635
N8290 G03 X168.982 Y63.436 I-0.832
N8295 G01 X167.707 Y63.076
N8300 G02 X165.496 Y63.774 I-0.574 J2.032
N8305 G03 X163.285 Y64.472 I-1.626 J-1.298
N8310 G01 X161.521 Y63.955
N8315 G02 X159.454 Y63.502 I-8.285 J32.846
N8320 G03 X157.387 Y63.049 I6.218 J-33.299
N8325 X157.394 Y61.949 I0.138 J-0.549
N8330 X161.788 Y60.938 I67.771 J284.354
N8335 G02 X166.158 Y59.831 I-16.54 J-74.475
N8340 X168.701 Y59.023 I-12.25 J-42.979
N8345 G03 X171.237 Y58.199 I19.115 J54.497
N8350 X172.648 Y59.249 I0.315 J1.05
N8355 G01 Y65.751
N8360 G03 X171.237 Y66.803 I-1.098
N8365 G01 X163.285 Y64.472
N8370 G02 X161.148 Y65.151 I-0.565 J1.926
N8375 G03 X159.033 Y65.895 I-1.648 J-1.307
N8380 G01 X148.855 Y63.575
N8385 G02 X147.292 Y63.303 I-5.133 J24.876
N8390 G03 X145.728 Y63.031 I3.57 J-25.148
N8395 Y61.971 I0.109 J-0.53
N8400 G01 X157.243 Y59.607
N8405 X169.869 Y56.106
N8410 G02 X171.821 Y55.454 I-9.458 J-31.56
N8415 G03 X173.773 Y54.802 I11.41 J30.908
N8420 X175.174 Y55.844 I0.313 J1.043
N8425 G01 Y69.162
N8430 G03 X173.768 Y70.196 I-1.083
N8435 G01 X160.923 Y66.326
N8440 X159.033 Y65.895
N8445 G02 X156.956 Y66.668 I-0.449 J1.969
N8450 G03 X154.874 Y67.425 I-1.608 J-1.18
N8455 G01 X148.388 Y65.835
N8460 X133.885 Y63.301
N8465 G02 X132.569 Y63.149 I-3.099 J20.987
N8470 G03 X131.252 Y62.996 I1.783 J-21.14
N8475 X131.258 Y62.004 I0.073 J-0.496
N8480 G02 X144.02 Y59.991 I-40.71 J-299.508
N8485 X156.648 Y57.259 I-32.479 J-180.7
N8490 G01 X173.541 Y52.433
N8495 G02 X174.866 Y51.971 I-6.731 J-21.428
N8500 G03 X176.191 Y51.509 I8.055 J20.966
N8505 X177.597 Y52.541 I0.324 J1.032
N8510 G01 Y72.457
N8515 G03 X176.19 Y73.491 I-1.083
N8520 G01 X164.111 Y69.69
N8525 X154.874 Y67.425
N8530 G02 X152.93 Y68.129 I-0.444 J1.81
N8535 G03 X150.986 Y68.833 I-1.5 J-1.106
N8540 G01 X147.925 Y68.082
N8545 X127.304 Y64.559
N8550 X109.853 Y63.025
N8555 G02 X108.215 Y62.985 I-1.455 J26.181
N8560 G03 X106.578 Y62.945 I-0.183 J-26.22
N8565 X106.577 Y62.056 I0.025 J-0.445
N8570 G02 X122.176 Y60.938 I-31.053 J-542.596
N8575 X137.681 Y58.891 I-14.812 J-171.919
N8580 G01 X151.728 Y56.073
N8585 X168.539 Y51.669
N8590 X178.514 Y48.365
N8595 G03 X179.887 Y49.361 I0.325 J0.996
N8600 G01 Y75.639
N8605 G03 X178.514 Y76.635 I-1.048
N8610 G01 X163.516 Y71.906
N8615 X150.986 Y68.833
N8620 X150.924 Y68.815 Z-2.491
N8625 X150.865 Y68.789 Z-2.483
N8630 X150.813 Y68.758 Z-2.458
N8635 X150.766 Y68.722 Z-2.433
N8640 X150.728 Y68.686 Z-2.393
N8645 X150.695 Y68.646 Z-2.354
N8650 X150.653 Y68.579 Z-2.25
N8655 X150.632 Y68.534 Z-2.129
N8660 X150.625 Y68.518 Z-2.
N8665 G00 Z5.
N8670 X84.743 Y63.276
N8675 Z0.05
N8680 G01 X84.738 Y63.291 Z-0.077 F333.
N8685 X84.721 Y63.336 Z-0.195
N8690 X84.693 Y63.407 Z-0.298
N8695 X84.653 Y63.498 Z-0.377
N8700 X84.602 Y63.603 Z-0.429
N8705 X84.54 Y63.713 Z-0.45
N8710 G03 X80.457 Y61.286 Z-0.711 I-2.041 J-1.214
N8715 X84.54 Y63.713 Z-0.971 I2.041 J1.214
N8720 X80.457 Y61.286 Z-1.232 I-2.041 J-1.214
N8725 X84.54 Y63.713 Z-1.492 I2.041 J1.214
N8730 X80.457 Y61.286 Z-1.753 I-2.041 J-1.214
N8735 X84.54 Y63.713 Z-2.013 I2.041 J1.214
N8740 X80.457 Y61.286 Z-2.274 I-2.041 J-1.214
N8745 X84.856 Y62.786 Z-2.5 I2.041 J1.214
N8750 X83.511 Y63.549 I-0.955 J-0.116 F1000.
N8755 G01 X82.088 Y62.916
N8760 G03 X82.086 Y62.08 I0.186 J-0.418
N8765 G01 X82.175 Y62.04
N8770 X82.296 Y61.983
N8775 G03 X82.713 Y61.987 I0.203 J0.41
N8780 G01 X82.91 Y62.083
N8785 G03 X82.919 Y62.914 I-0.187 J0.418
N8790 G01 X82.85 Y62.948
N8795 X82.71 Y63.018
N8800 G03 X82.292 Y63.015 I-0.205 J-0.409
N8805 G01 X82.088 Y62.916
N8810 X82.064 Y62.901
N8815 X82.047 Y62.879
N8820 X82.038 Y62.852
N8825 X82.022 Y62.758
N8830 X82.011 Y62.729
N8835 X81.991 Y62.706
N8840 X81.965 Y62.692
N8845 X81.935 Y62.687
N8850 X67.815 Y63.035
N8855 X67.753 Y63.044
N8860 X67.696 Y63.069
N8865 X67.646 Y63.107
N8870 X67.038 Y63.705
N8875 G03 X66.769 Y63.758 I-0.175 J-0.178
N8880 X66.288 Y63.539 I2.339 J-5.756
N8885 G02 X65.625 Y63.206 I-25.64 J50.344
N8890 G03 Y61.794 I0.348 J-0.706
N8895 G02 X66.288 Y61.461 I-24.977 J-50.676
N8900 G03 X66.968 Y61.165 I2.82 J5.536
N8905 X68.127 Y61.425 I0.377 J1.028
N8910 G01 X68.428 Y61.732
N8915 G03 Y63.268 I-0.781 J0.768
N8920 G01 X68.127 Y63.575
N8925 G03 X66.968 Y63.835 I-0.781 J-0.768
N8930 G01 X66.769 Y63.758
N8935 G02 X64.041 Y64.206 I-0.998 J2.455
N8940 G03 X61.286 Y64.446 I-1.543 J-1.789
N8945 G01 X61.246 Y64.422
N8950 X58.225 Y62.5
N8955 X61.246 Y60.578
N8960 X63.057 Y59.497
N8965 X63.619 Y59.181
N8970 X65.432 Y58.287
N8975 X66.278 Y57.977
N8980 X67.02 Y57.794
N8985 X67.652 Y57.728
N8990 X67.753 Y57.732
N8995 X68.205 Y57.764
N9000 X68.73 Y57.904
N9005 X68.744 Y57.91
N9010 X69.294 Y58.184
N9015 X69.306 Y58.191
N9020 X69.962 Y58.683
N9025 X70.932 Y59.671
N9030 X71.001 Y59.737
N9035 X71.073 Y59.797
N9040 X71.212 Y59.907
N9045 X71.293 Y59.967
N9050 X71.378 Y60.021
N9055 X71.573 Y60.136
N9060 X71.665 Y60.187
N9065 X71.761 Y60.231
N9070 X71.941 Y60.305
N9075 X72.016 Y60.334
N9080 X72.092 Y60.359
N9085 X72.212 Y60.394
N9090 X72.291 Y60.415
N9095 X72.37 Y60.431
N9100 X72.567 Y60.467
N9105 X72.669 Y60.482
N9110 X72.772 Y60.489
N9115 X73.003 Y60.499
N9120 X73.064 Y60.5
N9125 X80.058 Y60.499
N9130 X80.143 Y60.496
N9135 X80.227 Y60.489
N9140 X80.452 Y60.464
N9145 X80.564 Y60.446
N9150 X80.675 Y60.421
N9155 X80.896 Y60.361
N9160 X81.009 Y60.325
N9165 X81.118 Y60.281
N9170 X81.339 Y60.182
N9175 X81.425 Y60.14
N9180 X81.507 Y60.093
N9185 X81.625 Y60.021
N9190 X81.703 Y59.969
N9195 X81.778 Y59.913
N9200 X81.963 Y59.766
N9205 X82.051 Y59.689
N9210 X82.133 Y59.606
N9215 X82.288 Y59.437
N9220 X82.355 Y59.358
N9225 X82.416 Y59.276
N9230 X82.501 Y59.153
N9235 X82.585 Y59.276
N9240 X82.651 Y59.367
N9245 X82.725 Y59.452
N9250 X82.889 Y59.628
N9255 X82.971 Y59.71
N9260 X83.06 Y59.785
N9265 X83.235 Y59.924
N9270 X83.326 Y59.989
N9275 X83.421 Y60.048
N9280 X83.615 Y60.159
N9285 X83.721 Y60.213
N9290 X83.83 Y60.26
N9295 X84.065 Y60.348
N9300 X84.18 Y60.386
N9305 X84.298 Y60.414
N9310 X84.529 Y60.46
N9315 X84.642 Y60.479
N9320 X84.755 Y60.488
N9325 X84.986 Y60.498
N9330 X85.061 Y60.5
N9335 X88.75 Y60.48
N9340 X88.762
N9345 X92.451 Y60.43
N9350 X92.463
N9355 X96.152 Y60.352
N9360 X96.166 Y60.351
N9365 X100.47 Y60.219
N9370 X100.489 Y60.218
N9375 X105.408 Y60.006
N9380 X105.429 Y60.005
N9385 X110.347 Y59.724
N9390 X110.371 Y59.722
N9395 X115.29 Y59.362
N9400 X115.319 Y59.359
N9405 X120.853 Y58.846
N9410 X120.884 Y58.843
N9415 X124.22 Y58.461
N9420 X127.036 Y58.134
N9425 X127.064 Y58.13
N9430 X130.753 Y57.629
N9435 X130.774 Y57.626
N9440 X133.848 Y57.166
N9445 X133.868 Y57.162
N9450 X137.252 Y56.608
N9455 X137.273 Y56.604
N9460 X140.715 Y55.99
N9465 X140.734 Y55.986
N9470 X143.935 Y55.372
N9475 X143.956 Y55.368
N9480 X147.456 Y54.643
N9485 X147.477 Y54.638
N9490 X151.166 Y53.819
N9495 X151.189 Y53.814
N9500 X155.493 Y52.788
N9505 X155.514 Y52.783
N9510 X159.203 Y51.848
N9515 X159.225 Y51.843
N9520 X163.529 Y50.682
N9525 X163.549 Y50.677
N9530 X167.853 Y49.45
N9535 X167.873 Y49.444
N9540 X172.177 Y48.155
N9545 X172.195 Y48.149
N9550 X176.716 Y46.729
N9555 X176.732 Y46.724
N9560 X180.478 Y45.5
N9565 X182.
N9570 Y79.5
N9575 X180.478
N9580 X176.516 Y78.206
N9585 X176.497 Y78.2
N9590 X171.579 Y76.663
N9595 X171.559 Y76.657
N9600 X167.255 Y75.376
N9605 X167.235 Y75.37
N9610 X162.931 Y74.154
N9615 X162.913 Y74.149
N9620 X159.224 Y73.157
N9625 X159.201 Y73.151
N9630 X154.897 Y72.066
N9635 X154.877 Y72.061
N9640 X151.188 Y71.185
N9645 X151.166 Y71.181
N9650 X147.477 Y70.362
N9655 X147.455 Y70.357
N9660 X143.766 Y69.596
N9665 X143.744 Y69.591
N9670 X140.055 Y68.888
N9675 X140.036 Y68.885
N9680 X136.961 Y68.341
N9685 X136.939 Y68.337
N9690 X133.25 Y67.742
N9695 X133.23 Y67.739
N9700 X130.156 Y67.285
N9705 X130.136 Y67.282
N9710 X127.062 Y66.87
N9715 X127.036 Y66.866
N9720 X121.502 Y66.223
N9725 X121.478 Y66.22
N9730 X120.248 Y66.098
N9735 X120.238 Y66.097
N9740 X115.319 Y65.641
N9745 X115.288 Y65.638
N9750 X109.755 Y65.238
N9755 X109.73 Y65.237
N9760 X104.811 Y64.963
N9765 X104.789 Y64.962
N9770 X99.871 Y64.761
N9775 X99.853 Y64.76
N9780 X95.549 Y64.634
N9785 X95.534
N9790 X91.23 Y64.551
N9795 X91.217 Y64.55
N9800 X87.528 Y64.511
N9805 X87.517
N9810 X84.904 Y64.503
N9815 X84.793 Y64.507
N9820 X84.683 Y64.519
N9825 X84.452 Y64.553
N9830 X84.335 Y64.575
N9835 X84.221 Y64.605
N9840 X83.99 Y64.678
N9845 X83.876 Y64.719
N9850 X83.765 Y64.769
N9855 X83.546 Y64.879
N9860 X83.447 Y64.933
N9865 X83.352 Y64.995
N9870 X83.182 Y65.116
N9875 X83.092 Y65.185
N9880 X83.007 Y65.261
N9885 X82.828 Y65.434
N9890 X82.748 Y65.518
N9895 X82.674 Y65.608
N9900 X82.543 Y65.781
N9905 X82.5 Y65.842
N9910 X82.416 Y65.724
N9915 X82.298 Y65.574
N9920 X82.247 Y65.512
N9925 X82.192 Y65.453
N9930 X82.099 Y65.358
N9935 X82.033 Y65.294
N9940 X81.963 Y65.234
N9945 X81.778 Y65.087
N9950 X81.686 Y65.019
N9955 X81.589 Y64.958
N9960 X81.398 Y64.848
N9965 X81.297 Y64.795
N9970 X81.191 Y64.749
N9975 X80.97 Y64.664
N9980 X80.861 Y64.626
N9985 X80.748 Y64.597
N9990 X80.527 Y64.549
N9995 X80.416 Y64.529
N10000 X80.303 Y64.518
N10005 X80.076 Y64.503
N10010 X79.98 Y64.5
N10015 X72.909 Y64.503
N10020 X72.826 Y64.505
N10025 X72.743 Y64.512
N10030 X72.589 Y64.529
N10035 X72.452 Y64.551
N10040 X72.332 Y64.576
N10045 X72.212 Y64.606
N10050 X72.092 Y64.641
N10055 X72.016 Y64.666
N10060 X71.941 Y64.695
N10065 X71.761 Y64.769
N10070 X71.665 Y64.813
N10075 X71.573 Y64.864
N10080 X71.378 Y64.979
N10085 X71.293 Y65.033
N10090 X71.212 Y65.093
N10095 X71.073 Y65.203
N10100 X71.001 Y65.263
N10105 X70.932 Y65.329
N10110 X69.962 Y66.317
N10115 X69.307 Y66.807
N10120 X69.242 Y66.843
N10125 X68.744 Y67.09
N10130 X68.659 Y67.116
N10135 X68.206 Y67.236
N10140 X67.673 Y67.273
N10145 X67.649 Y67.272
N10150 X67.02 Y67.206
N10155 X66.278 Y67.023
N10160 X65.432 Y66.713
N10165 X63.619 Y65.819
N10170 X63.056 Y65.503
N10175 X61.286 Y64.446
N10180 G03 X61.273 Y64.025 I0.128 J-0.215
N10185 G01 X66.875 Y60.185
N10190 X66.928 Y60.157
N10195 X66.986 Y60.143
N10200 G03 X67.567 Y64.857 Z-2.761 I0.29 J2.357 F333.
N10205 X66.986 Y60.143 Z-3.021 I-0.29 J-2.357
N10210 X67.567 Y64.857 Z-3.282 I0.29 J2.357
N10215 X65.874 Y60.583 Z-3.5 I-0.29 J-2.357
N10220 X67.365 Y60.682 I0.687 J0.938 F1000.
N10225 X68.428 Y61.732 I-34.458 J35.947
N10230 Y63.268 I-0.781 J0.768
N10235 G01 X68.127 Y63.575
N10240 G03 X66.968 Y63.835 I-0.781 J-0.768
N10245 X66.288 Y63.539 I2.139 J-5.833
N10250 G02 X65.625 Y63.206 I-25.64 J50.344
N10255 G03 Y61.794 I0.348 J-0.706
N10260 G02 X66.288 Y61.461 I-24.977 J-50.676
N10265 G03 X66.968 Y61.165 I2.82 J5.536
N10270 X68.127 Y61.425 I0.377 J1.028
N10275 G01 X68.428 Y61.732
N10280 X68.454 Y61.765
N10285 X68.776 Y62.263
N10290 G03 X68.431 Y62.486 I-0.173 J0.111
N10295 X68.605 Y62.169 I0.173 J-0.111
N10300 G01 X82.301 Y62.276
N10305 X82.337 Y62.269
N10310 X82.369 Y62.25
N10315 X82.633 Y62.019
N10320 X82.659 Y62.003
N10325 X82.688 Y61.995
N10330 X82.718
N10335 X82.747 Y62.005
N10340 X82.91 Y62.083
N10345 G03 X82.919 Y62.914 I-0.187 J0.418
N10350 G01 X82.85 Y62.948
N10355 X82.71 Y63.018
N10360 G03 X82.292 Y63.015 I-0.205 J-0.409
N10365 G01 X82.088 Y62.916
N10370 G03 X82.086 Y62.08 I0.186 J-0.418
N10375 G01 X82.175 Y62.04
N10380 X82.296 Y61.983
N10385 G03 X82.713 Y61.987 I0.203 J0.41
N10390 G01 X82.747 Y62.005
N10395 X82.829 Y62.046 Z-3.491
N10400 X82.91 Y62.083 Z-3.466
N10405 X82.957 Y62.108 Z-3.438
N10410 X83. Y62.137 Z-3.41
N10415 X83.035 Y62.166 Z-3.37
N10420 X83.066 Y62.198 Z-3.33
N10425 X83.107 Y62.252 Z-3.231
N10430 X83.128 Y62.288 Z-3.119
N10435 X83.134 Y62.301 Z-3.
N10440 G00 Z5.
N10445 X171.442 Y62.929
N10450 Z-0.95
N10455 G01 X171.439 Y62.945 Z-1.077 F333.
N10460 X171.43 Y62.992 Z-1.195
N10465 X171.413 Y63.066 Z-1.298
N10470 X171.387 Y63.162 Z-1.377
N10475 X171.352 Y63.273 Z-1.429
N10480 X171.308 Y63.391 Z-1.45
N10485 G03 X166.905 Y61.609 Z-1.711 I-2.201 J-0.891
N10490 X171.308 Y63.391 Z-1.971 I2.201 J0.891
N10495 X166.905 Y61.609 Z-2.232 I-2.201 J-0.891
N10500 X171.308 Y63.391 Z-2.492 I2.201 J0.891
N10505 X166.905 Y61.609 Z-2.753 I-2.201 J-0.891
N10510 X171.308 Y63.391 Z-3.013 I2.201 J0.891
N10515 X166.905 Y61.609 Z-3.274 I-2.201 J-0.891
N10520 X171.48 Y62.428 Z-3.5 I2.201 J0.891
N10525 X169.758 Y63.708 I-1.307 J0.04 F1000.
N10530 G02 X167.707 Y63.076 I-14.36 J42.937
N10535 G03 X167.706 Y61.927 I0.162 J-0.574
N10540 G01 X168.981 Y61.564
N10545 G03 X170.041 Y62.364 I0.228 J0.8
N10550 G01 Y62.635
N10555 G03 X168.982 Y63.436 I-0.832
N10560 G01 X167.707 Y63.076
N10565 G02 X165.496 Y63.774 I-0.574 J2.032
N10570 G03 X163.285 Y64.472 I-1.626 J-1.298
N10575 G01 X161.521 Y63.955
N10580 G02 X159.454 Y63.502 I-8.285 J32.846
N10585 G03 X157.387 Y63.049 I6.218 J-33.299
N10590 X157.394 Y61.949 I0.138 J-0.549
N10595 X161.788 Y60.938 I67.771 J284.354
N10600 G02 X166.158 Y59.831 I-16.54 J-74.475
N10605 X168.701 Y59.023 I-12.25 J-42.979
N10610 G03 X171.237 Y58.199 I19.115 J54.497
N10615 X172.648 Y59.249 I0.315 J1.05
N10620 G01 Y65.751
N10625 G03 X171.237 Y66.803 I-1.098
N10630 G01 X163.285 Y64.472
N10635 G02 X161.148 Y65.151 I-0.565 J1.926
N10640 G03 X159.033 Y65.895 I-1.648 J-1.307
N10645 G01 X148.855 Y63.575
N10650 G02 X147.292 Y63.303 I-5.133 J24.876
N10655 G03 X145.728 Y63.031 I3.57 J-25.148
N10660 Y61.971 I0.109 J-0.53
N10665 G01 X157.243 Y59.607
N10670 X169.869 Y56.106
N10675 G02 X171.821 Y55.454 I-9.458 J-31.56
N10680 G03 X173.773 Y54.802 I11.41 J30.908
N10685 X175.174 Y55.844 I0.313 J1.043
N10690 G01 Y69.162
N10695 G03 X173.768 Y70.196 I-1.083
N10700 G01 X160.923 Y66.326
N10705 X159.033 Y65.895
N10710 G02 X156.956 Y66.668 I-0.449 J1.969
N10715 G03 X154.874 Y67.425 I-1.608 J-1.18
N10720 G01 X148.388 Y65.835
N10725 X133.885 Y63.301
N10730 G02 X132.569 Y63.149 I-3.099 J20.987
N10735 G03 X131.252 Y62.996 I1.783 J-21.14
N10740 X131.258 Y62.004 I0.073 J-0.496
N10745 G02 X144.02 Y59.991 I-40.71 J-299.508
N10750 X156.648 Y57.259 I-32.479 J-180.7
N10755 G01 X173.541 Y52.433
N10760 G02 X174.866 Y51.971 I-6.731 J-21.428
N10765 G03 X176.191 Y51.509 I8.055 J20.966
N10770 X177.597 Y52.541 I0.324 J1.032
N10775 G01 Y72.457
N10780 G03 X176.19 Y73.491 I-1.083
N10785 G01 X164.111 Y69.69
N10790 X154.874 Y67.425
N10795 G02 X152.93 Y68.129 I-0.444 J1.81
N10800 G03 X150.986 Y68.833 I-1.5 J-1.106
N10805 G01 X147.925 Y68.082
N10810 X127.304 Y64.559
N10815 X109.853 Y63.025
N10820 G02 X108.215 Y62.985 I-1.455 J26.181
N10825 G03 X106.578 Y62.945 I-0.183 J-26.22
N10830 X106.577 Y62.056 I0.025 J-0.445
N10835 G02 X122.176 Y60.938 I-31.053 J-542.596
N10840 X137.681 Y58.891 I-14.812 J-171.919
N10845 G01 X151.728 Y56.073
N10850 X168.539 Y51.669
N10855 X178.514 Y48.365
N10860 G03 X179.887 Y49.361 I0.325 J0.996
N10865 G01 Y75.639
N10870 G03 X178.514 Y76.635 I-1.048
N10875 G01 X163.516 Y71.906
N10880 X150.986 Y68.833
N10885 G02 X149.061 Y69.546 I-0.436 J1.779
N10890 G03 X147.149 Y70.294 I-1.531 J-1.096
N10895 G01 X143.766 Y69.596
N10900 X143.744 Y69.591
N10905 X140.055 Y68.888
N10910 X140.036 Y68.885
N10915 X136.961 Y68.341
N10920 X136.939 Y68.337
N10925 X133.25 Y67.742
N10930 X133.23 Y67.739
N10935 X130.156 Y67.285
N10940 X130.136 Y67.282
N10945 X127.062 Y66.87
N10950 X127.036 Y66.866
N10955 X121.502 Y66.223
N10960 X121.478 Y66.22
N10965 X120.248 Y66.098
N10970 X120.238 Y66.097
N10975 X115.319 Y65.641
N10980 X115.288 Y65.638
N10985 X109.755 Y65.238
N10990 X109.73 Y65.237
N10995 X104.811 Y64.963
N11000 X104.789 Y64.962
N11005 X99.871 Y64.761
N11010 X99.853 Y64.76
N11015 X95.549 Y64.634
N11020 X95.534
N11025 X91.23 Y64.551
N11030 X91.217 Y64.55
N11035 X87.528 Y64.511
N11040 X87.517
N11045 X84.904 Y64.503
N11050 X84.793 Y64.507
N11055 X84.683 Y64.519
N11060 X84.452 Y64.553
N11065 X84.335 Y64.575
N11070 X84.221 Y64.605
N11075 X83.99 Y64.678
N11080 X83.876 Y64.719
N11085 X83.765 Y64.769
N11090 X83.546 Y64.879
N11095 X83.447 Y64.933
N11100 X83.352 Y64.995
N11105 X83.182 Y65.116
N11110 X83.092 Y65.185
N11115 X83.007 Y65.261
N11120 X82.828 Y65.434
N11125 X82.748 Y65.518
N11130 X82.674 Y65.608
N11135 X82.543 Y65.781
N11140 X82.5 Y65.842
N11145 X82.416 Y65.724
N11150 X82.298 Y65.574
N11155 X82.247 Y65.512
N11160 X82.192 Y65.453
N11165 X82.099 Y65.358
N11170 X82.033 Y65.294
N11175 X81.963 Y65.234
N11180 X81.778 Y65.087
N11185 X81.686 Y65.019
N11190 X81.589 Y64.958
N11195 X81.398 Y64.848
N11200 X81.297 Y64.795
N11205 X81.191 Y64.749
N11210 X80.97 Y64.664
N11215 X80.861 Y64.626
N11220 X80.748 Y64.597
N11225 X80.527 Y64.549
N11230 X80.416 Y64.529
N11235 X80.303 Y64.518
N11240 X80.076 Y64.503
N11245 X79.98 Y64.5
N11250 X72.909 Y64.503
N11255 X72.826 Y64.505
N11260 X72.743 Y64.512
N11265 X72.589 Y64.529
N11270 X72.452 Y64.551
N11275 X72.332 Y64.576
N11280 X72.212 Y64.606
N11285 X72.092 Y64.641
N11290 X72.016 Y64.666
N11295 X71.941 Y64.695
N11300 X71.761 Y64.769
N11305 X71.665 Y64.813
N11310 X71.573 Y64.864
N11315 X71.378 Y64.979
N11320 X71.293 Y65.033
N11325 X71.212 Y65.093
N11330 X71.073 Y65.203
N11335 X71.001 Y65.263
N11340 X70.932 Y65.329
N11345 X69.962 Y66.317
N11350 X69.307 Y66.807
N11355 X69.242 Y66.843
N11360 X68.744 Y67.09
N11365 X68.659 Y67.116
N11370 X68.206 Y67.236
N11375 X67.673 Y67.273
N11380 X67.649 Y67.272
N11385 X67.02 Y67.206
N11390 X66.278 Y67.023
N11395 X65.432 Y66.713
N11400 X63.619 Y65.819
N11405 X63.056 Y65.503
N11410 X61.246 Y64.422
N11415 X58.225 Y62.5
N11420 X61.246 Y60.578
N11425 X63.057 Y59.497
N11430 X63.619 Y59.181
N11435 X65.432 Y58.287
N11440 X66.278 Y57.977
N11445 X67.02 Y57.794
N11450 X67.652 Y57.728
N11455 X67.753 Y57.732
N11460 X68.205 Y57.764
N11465 X68.73 Y57.904
N11470 X68.744 Y57.91
N11475 X69.294 Y58.184
N11480 X69.306 Y58.191
N11485 X69.962 Y58.683
N11490 X70.932 Y59.671
N11495 X71.001 Y59.737
N11500 X71.073 Y59.797
N11505 X71.212 Y59.907
N11510 X71.293 Y59.967
N11515 X71.378 Y60.021
N11520 X71.573 Y60.136
N11525 X71.665 Y60.187
N11530 X71.761 Y60.231
N11535 X71.941 Y60.305
N11540 X72.016 Y60.334
N11545 X72.092 Y60.359
N11550 X72.212 Y60.394
N11555 X72.291 Y60.415
N11560 X72.37 Y60.431
N11565 X72.567 Y60.467
N11570 X72.669 Y60.482
N11575 X72.772 Y60.489
N11580 X73.003 Y60.499
N11585 X73.064 Y60.5
N11590 X80.058 Y60.499
N11595 X80.143 Y60.496
N11600 X80.227 Y60.489
N11605 X80.452 Y60.464
N11610 X80.564 Y60.446
N11615 X80.675 Y60.421
N11620 X80.896 Y60.361
N11625 X81.009 Y60.325
N11630 X81.118 Y60.281
N11635 X81.339 Y60.182
N11640 X81.425 Y60.14
N11645 X81.507 Y60.093
N11650 X81.625 Y60.021
N11655 X81.703 Y59.969
N11660 X81.778 Y59.913
N11665 X81.963 Y59.766
N11670 X82.051 Y59.689
N11675 X82.133 Y59.606
N11680 X82.288 Y59.437
N11685 X82.355 Y59.358
N11690 X82.416 Y59.276
N11695 X82.501 Y59.153
N11700 X82.585 Y59.276
N11705 X82.651 Y59.367
N11710 X82.725 Y59.452
N11715 X82.889 Y59.628
N11720 X82.971 Y59.71
N11725 X83.06 Y59.785
N11730 X83.235 Y59.924
N11735 X83.326 Y59.989
N11740 X83.421 Y60.048
N11745 X83.615 Y60.159
N11750 X83.721 Y60.213
N11755 X83.83 Y60.26
N11760 X84.065 Y60.348
N11765 X84.18 Y60.386
N11770 X84.298 Y60.414
N11775 X84.529 Y60.46
N11780 X84.642 Y60.479
N11785 X84.755 Y60.488
N11790 X84.986 Y60.498
N11795 X85.061 Y60.5
N11800 X88.75 Y60.48
N11805 X88.762
N11810 X92.451 Y60.43
N11815 X92.463
N11820 X96.152 Y60.352
N11825 X96.166 Y60.351
N11830 X100.47 Y60.219
N11835 X100.489 Y60.218
N11840 X105.408 Y60.006
N11845 X105.429 Y60.005
N11850 X110.347 Y59.724
N11855 X110.371 Y59.722
N11860 X115.29 Y59.362
N11865 X115.319 Y59.359
N11870 X120.853 Y58.846
N11875 X120.884 Y58.843
N11880 X124.22 Y58.461
N11885 X127.036 Y58.134
N11890 X127.064 Y58.13
N11895 X130.753 Y57.629
N11900 X130.774 Y57.626
N11905 X133.848 Y57.166
N11910 X133.868 Y57.162
N11915 X137.252 Y56.608
N11920 X137.273 Y56.604
N11925 X140.715 Y55.99
N11930 X140.734 Y55.986
N11935 X143.935 Y55.372
N11940 X143.956 Y55.368
N11945 X147.456 Y54.643
N11950 X147.477 Y54.638
N11955 X151.166 Y53.819
N11960 X151.189 Y53.814
N11965 X155.493 Y52.788
N11970 X155.514 Y52.783
N11975 X159.203 Y51.848
N11980 X159.225 Y51.843
N11985 X163.529 Y50.682
N11990 X163.549 Y50.677
N11995 X167.853 Y49.45
N12000 X167.873 Y49.444
N12005 X172.177 Y48.155
N12010 X172.195 Y48.149
N12015 X176.716 Y46.729
N12020 X176.732 Y46.724
N12025 X180.478 Y45.5
N12030 X182.
N12035 Y79.5
N12040 X180.478
N12045 X176.516 Y78.206
N12050 X176.497 Y78.2
N12055 X171.579 Y76.663
N12060 X171.559 Y76.657
N12065 X167.255 Y75.376
N12070 X167.235 Y75.37
N12075 X162.931 Y74.154
N12080 X162.913 Y74.149
N12085 X159.224 Y73.157
N12090 X159.201 Y73.151
N12095 X154.897 Y72.066
N12100 X154.877 Y72.061
N12105 X151.188 Y71.185
N12110 X151.166 Y71.181
N12115 X147.477 Y70.362
N12120 X147.455 Y70.357
N12125 X147.149 Y70.294
N12130 X147.087 Y70.277 Z-3.491
N12135 X147.028 Y70.252 Z-3.483
N12140 X146.975 Y70.222 Z-3.458
N12145 X146.927 Y70.185 Z-3.433
N12150 X146.889 Y70.15 Z-3.393
N12155 X146.856 Y70.111 Z-3.354
N12160 X146.812 Y70.044 Z-3.25
N12165 X146.79 Y70. Z-3.129
N12170 X146.784 Y69.984 Z-3.
N12175 G00 Z5.
N12180 X171.442 Y62.929
N12185 Z-1.95
N12190 G01 X171.439 Y62.945 Z-2.077 F333.
N12195 X171.43 Y62.992 Z-2.195
N12200 X171.413 Y63.066 Z-2.298
N12205 X171.387 Y63.162 Z-2.377
N12210 X171.352 Y63.273 Z-2.429
N12215 X171.308 Y63.391 Z-2.45
N12220 G03 X166.905 Y61.609 Z-2.711 I-2.201 J-0.891
N12225 X171.308 Y63.391 Z-2.971 I2.201 J0.891
N12230 X166.905 Y61.609 Z-3.232 I-2.201 J-0.891
N12235 X171.308 Y63.391 Z-3.492 I2.201 J0.891
N12240 X166.905 Y61.609 Z-3.753 I-2.201 J-0.891
N12245 X171.308 Y63.391 Z-4.013 I2.201 J0.891
N12250 X166.905 Y61.609 Z-4.274 I-2.201 J-0.891
N12255 X171.48 Y62.428 Z-4.5 I2.201 J0.891
N12260 X169.758 Y63.708 I-1.307 J0.04 F1000.
N12265 G02 X167.707 Y63.076 I-14.36 J42.937
N12270 G03 X167.706 Y61.927 I0.162 J-0.574
N12275 G01 X168.981 Y61.564
N12280 G03 X170.041 Y62.364 I0.228 J0.8
N12285 G01 Y62.635
N12290 G03 X168.982 Y63.436 I-0.832
N12295 G01 X167.707 Y63.076
N12300 G02 X165.496 Y63.774 I-0.574 J2.032
N12305 G03 X163.285 Y64.472 I-1.626 J-1.298
N12310 G01 X161.521 Y63.955
N12315 G02 X159.454 Y63.502 I-8.285 J32.846
N12320 G03 X157.387 Y63.049 I6.218 J-33.299
N12325 X157.394 Y61.949 I0.138 J-0.549
N12330 X161.788 Y60.938 I67.771 J284.354
N12335 G02 X166.158 Y59.831 I-16.54 J-74.475
N12340 X168.701 Y59.023 I-12.25 J-42.979
N12345 G03 X171.237 Y58.199 I19.115 J54.497
N12350 X172.648 Y59.249 I0.315 J1.05
N12355 G01 Y65.751
N12360 G03 X171.237 Y66.803 I-1.098
N12365 G01 X163.285 Y64.472
N12370 G02 X161.148 Y65.151 I-0.565 J1.926
N12375 G03 X159.033 Y65.895 I-1.648 J-1.307
N12380 G01 X148.855 Y63.575
N12385 G02 X147.292 Y63.303 I-5.133 J24.876
N12390 G03 X145.728 Y63.031 I3.57 J-25.148
N12395 Y61.971 I0.109 J-0.53
N12400 G01 X157.243 Y59.607
N12405 X169.869 Y56.106
N12410 G02 X171.821 Y55.454 I-9.458 J-31.56
N12415 G03 X173.773 Y54.802 I11.41 J30.908
N12420 X175.174 Y55.844 I0.313 J1.043
N12425 G01 Y69.162
N12430 G03 X173.768 Y70.196 I-1.083
N12435 G01 X160.923 Y66.326
N12440 X159.033 Y65.895
N12445 G02 X156.956 Y66.668 I-0.449 J1.969
N12450 G03 X154.874 Y67.425 I-1.608 J-1.18
N12455 G01 X148.388 Y65.835
N12460 X133.885 Y63.301
N12465 G02 X132.569 Y63.149 I-3.099 J20.987
N12470 G03 X131.252 Y62.996 I1.783 J-21.14
N12475 X131.258 Y62.004 I0.073 J-0.496
N12480 G02 X144.02 Y59.991 I-40.71 J-299.508
N12485 X156.648 Y57.259 I-32.479 J-180.7
N12490 G01 X173.541 Y52.433
N12495 G02 X174.866 Y51.971 I-6.731 J-21.428
N12500 G03 X176.191 Y51.509 I8.055 J20.966
N12505 X177.597 Y52.541 I0.324 J1.032
N12510 G01 Y72.457
N12515 G03 X176.19 Y73.491 I-1.083
N12520 G01 X164.111 Y69.69
N12525 X154.874 Y67.425
N12530 G02 X152.93 Y68.129 I-0.444 J1.81
N12535 G03 X150.986 Y68.833 I-1.5 J-1.106
N12540 G01 X147.925 Y68.082
N12545 X127.304 Y64.559
N12550 X109.853 Y63.025
N12555 G02 X108.215 Y62.985 I-1.455 J26.181
N12560 G03 X106.578 Y62.945 I-0.183 J-26.22
N12565 X106.577 Y62.056 I0.025 J-0.445
N12570 G02 X122.176 Y60.938 I-31.053 J-542.596
N12575 X137.681 Y58.891 I-14.812 J-171.919
N12580 G01 X151.728 Y56.073
N12585 X168.539 Y51.669
N12590 X178.514 Y48.365
N12595 G03 X179.887 Y49.361 I0.325 J0.996
N12600 G01 Y75.639
N12605 G03 X178.514 Y76.635 I-1.048
N12610 G01 X163.516 Y71.906
N12615 X150.986 Y68.833
N12620 X150.924 Y68.815 Z-4.491
N12625 X150.865 Y68.789 Z-4.483
N12630 X150.813 Y68.758 Z-4.458
N12635 X150.766 Y68.722 Z-4.433
N12640 X150.728 Y68.686 Z-4.393
N12645 X150.695 Y68.646 Z-4.354
N12650 X150.653 Y68.579 Z-4.25
N12655 X150.632 Y68.534 Z-4.129
N12660 X150.625 Y68.518 Z-4.
N12665 G00 Z5.
N12670 X84.743 Y63.276
N12675 Z1.5
N12680 G01 Z-1.95 F333.
N12685 X84.738 Y63.291 Z-2.077
N12690 X84.721 Y63.336 Z-2.195
N12695 X84.693 Y63.407 Z-2.298
N12700 X84.653 Y63.498 Z-2.377
N12705 X84.602 Y63.603 Z-2.429
N12710 X84.54 Y63.713 Z-2.45
N12715 G03 X80.457 Y61.286 Z-2.711 I-2.041 J-1.214
N12720 X84.54 Y63.713 Z-2.971 I2.041 J1.214
N12725 X80.457 Y61.286 Z-3.232 I-2.041 J-1.214
N12730 X84.54 Y63.713 Z-3.492 I2.041 J1.214
N12735 X80.457 Y61.286 Z-3.753 I-2.041 J-1.214
N12740 X84.54 Y63.713 Z-4.013 I2.041 J1.214
N12745 X80.457 Y61.286 Z-4.274 I-2.041 J-1.214
N12750 X84.856 Y62.786 Z-4.5 I2.041 J1.214
N12755 X83.511 Y63.549 I-0.955 J-0.116 F1000.
N12760 G01 X82.088 Y62.916
N12765 G03 X82.086 Y62.08 I0.186 J-0.418
N12770 G01 X82.175 Y62.04
N12775 X82.296 Y61.983
N12780 G03 X82.713 Y61.987 I0.203 J0.41
N12785 G01 X82.91 Y62.083
N12790 G03 X82.919 Y62.914 I-0.187 J0.418
N12795 G01 X82.85 Y62.948
N12800 X82.71 Y63.018
N12805 G03 X82.292 Y63.015 I-0.205 J-0.409
N12810 G01 X82.088 Y62.916
N12815 X82.064 Y62.901
N12820 X82.047 Y62.879
N12825 X82.038 Y62.852
N12830 X82.022 Y62.758
N12835 X82.011 Y62.729
N12840 X81.991 Y62.706
N12845 X81.965 Y62.692
N12850 X81.935 Y62.687
N12855 X67.815 Y63.035
N12860 X67.753 Y63.044
N12865 X67.696 Y63.069
N12870 X67.646 Y63.107
N12875 X67.038 Y63.705
N12880 G03 X66.769 Y63.758 I-0.175 J-0.178
N12885 X66.288 Y63.539 I2.339 J-5.756
N12890 G02 X65.625 Y63.206 I-25.64 J50.344
N12895 G03 Y61.794 I0.348 J-0.706
N12900 G02 X66.288 Y61.461 I-24.977 J-50.676
N12905 G03 X66.968 Y61.165 I2.82 J5.536
N12910 X68.127 Y61.425 I0.377 J1.028
N12915 G01 X68.428 Y61.732
N12920 G03 Y63.268 I-0.781 J0.768
N12925 G01 X68.127 Y63.575
N12930 G03 X66.968 Y63.835 I-0.781 J-0.768
N12935 G01 X66.769 Y63.758
N12940 G02 X64.041 Y64.206 I-0.998 J2.455
N12945 G03 X61.286 Y64.446 I-1.543 J-1.789
N12950 G01 X61.246 Y64.422
N12955 X58.225 Y62.5
N12960 X61.246 Y60.578
N12965 X63.057 Y59.497
N12970 X63.619 Y59.181
N12975 X65.432 Y58.287
N12980 X66.278 Y57.977
N12985 X67.02 Y57.794
N12990 X67.652 Y57.728
N12995 X67.753 Y57.732
N13000 X68.205 Y57.764
N13005 X68.73 Y57.904
N13010 X68.744 Y57.91
N13015 X69.294 Y58.184
N13020 X69.306 Y58.191
N13025 X69.962 Y58.683
N13030 X70.932 Y59.671
N13035 X71.001 Y59.737
N13040 X71.073 Y59.797
N13045 X71.212 Y59.907
N13050 X71.293 Y59.967
N13055 X71.378 Y60.021
N13060 X71.573 Y60.136
N13065 X71.665 Y60.187
N13070 X71.761 Y60.231
N13075 X71.941 Y60.305
N13080 X72.016 Y60.334
N13085 X72.092 Y60.359
N13090 X72.212 Y60.394
N13095 X72.291 Y60.415
N13100 X72.37 Y60.431
N13105 X72.567 Y60.467
N13110 X72.669 Y60.482
N13115 X72.772 Y60.489
N13120 X73.003 Y60.499
N13125 X73.064 Y60.5
N13130 X80.058 Y60.499
N13135 X80.143 Y60.496
N13140 X80.227 Y60.489
N13145 X80.452 Y60.464
N13150 X80.564 Y60.446
N13155 X80.675 Y60.421
N13160 X80.896 Y60.361
N13165 X81.009 Y60.325
N13170 X81.118 Y60.281
N13175 X81.339 Y60.182
N13180 X81.425 Y60.14
N13185 X81.507 Y60.093
N13190 X81.625 Y60.021
N13195 X81.703 Y59.969
N13200 X81.778 Y59.913
N13205 X81.963 Y59.766
N13210 X82.051 Y59.689
N13215 X82.133 Y59.606
N13220 X82.288 Y59.437
N13225 X82.355 Y59.358
N13230 X82.416 Y59.276
N13235 X82.501 Y59.153
N13240 X82.585 Y59.276
N13245 X82.651 Y59.367
N13250 X82.725 Y59.452
N13255 X82.889 Y59.628
N13260 X82.971 Y59.71
N13265 X83.06 Y59.785
N13270 X83.235 Y59.924
N13275 X83.326 Y59.989
N13280 X83.421 Y60.048
N13285 X83.615 Y60.159
N13290 X83.721 Y60.213
N13295 X83.83 Y60.26
N13300 X84.065 Y60.348
N13305 X84.18 Y60.386
N13310 X84.298 Y60.414
N13315 X84.529 Y60.46
N13320 X84.642 Y60.479
N13325 X84.755 Y60.488
N13330 X84.986 Y60.498
N13335 X85.061 Y60.5
N13340 X88.75 Y60.48
N13345 X88.762
N13350 X92.451 Y60.43
N13355 X92.463
N13360 X96.152 Y60.352
N13365 X96.166 Y60.351
N13370 X100.47 Y60.219
N13375 X100.489 Y60.218
N13380 X105.408 Y60.006
N13385 X105.429 Y60.005
N13390 X110.347 Y59.724
N13395 X110.371 Y59.722
N13400 X115.29 Y59.362
N13405 X115.319 Y59.359
N13410 X120.853 Y58.846
N13415 X120.884 Y58.843
N13420 X124.22 Y58.461
N13425 X127.036 Y58.134
N13430 X127.064 Y58.13
N13435 X130.753 Y57.629
N13440 X130.774 Y57.626
N13445 X133.848 Y57.166
N13450 X133.868 Y57.162
N13455 X137.252 Y56.608
N13460 X137.273 Y56.604
N13465 X140.715 Y55.99
N13470 X140.734 Y55.986
N13475 X143.935 Y55.372
N13480 X143.956 Y55.368
N13485 X147.456 Y54.643
N13490 X147.477 Y54.638
N13495 X151.166 Y53.819
N13500 X151.189 Y53.814
N13505 X155.493 Y52.788
N13510 X155.514 Y52.783
N13515 X159.203 Y51.848
N13520 X159.225 Y51.843
N13525 X163.529 Y50.682
N13530 X163.549 Y50.677
N13535 X167.853 Y49.45
N13540 X167.873 Y49.444
N13545 X172.177 Y48.155
N13550 X172.195 Y48.149
N13555 X176.716 Y46.729
N13560 X176.732 Y46.724
N13565 X180.478 Y45.5
N13570 X182.
N13575 Y79.5
N13580 X180.478
N13585 X176.516 Y78.206
N13590 X176.497 Y78.2
N13595 X171.579 Y76.663
N13600 X171.559 Y76.657
N13605 X167.255 Y75.376
N13610 X167.235 Y75.37
N13615 X162.931 Y74.154
N13620 X162.913 Y74.149
N13625 X159.224 Y73.157
N13630 X159.201 Y73.151
N13635 X154.897 Y72.066
N13640 X154.877 Y72.061
N13645 X151.188 Y71.185
N13650 X151.166 Y71.181
N13655 X147.477 Y70.362
N13660 X147.455 Y70.357
N13665 X143.766 Y69.596
N13670 X143.744 Y69.591
N13675 X140.055 Y68.888
N13680 X140.036 Y68.885
N13685 X136.961 Y68.341
N13690 X136.939 Y68.337
N13695 X133.25 Y67.742
N13700 X133.23 Y67.739
N13705 X130.156 Y67.285
N13710 X130.136 Y67.282
N13715 X127.062 Y66.87
N13720 X127.036 Y66.866
N13725 X121.502 Y66.223
N13730 X121.478 Y66.22
N13735 X120.248 Y66.098
N13740 X120.238 Y66.097
N13745 X115.319 Y65.641
N13750 X115.288 Y65.638
N13755 X109.755 Y65.238
N13760 X109.73 Y65.237
N13765 X104.811 Y64.963
N13770 X104.789 Y64.962
N13775 X99.871 Y64.761
N13780 X99.853 Y64.76
N13785 X95.549 Y64.634
N13790 X95.534
N13795 X91.23 Y64.551
N13800 X91.217 Y64.55
N13805 X87.528 Y64.511
N13810 X87.517
N13815 X84.904 Y64.503
N13820 X84.793 Y64.507
N13825 X84.683 Y64.519
N13830 X84.452 Y64.553
N13835 X84.335 Y64.575
N13840 X84.221 Y64.605
N13845 X83.99 Y64.678
N13850 X83.876 Y64.719
N13855 X83.765 Y64.769
N13860 X83.546 Y64.879
N13865 X83.447 Y64.933
N13870 X83.352 Y64.995
N13875 X83.182 Y65.116
N13880 X83.092 Y65.185
N13885 X83.007 Y65.261
N13890 X82.828 Y65.434
N13895 X82.748 Y65.518
N13900 X82.674 Y65.608
N13905 X82.543 Y65.781
N13910 X82.5 Y65.842
N13915 X82.416 Y65.724
N13920 X82.298 Y65.574
N13925 X82.247 Y65.512
N13930 X82.192 Y65.453
N13935 X82.099 Y65.358
N13940 X82.033 Y65.294
N13945 X81.963 Y65.234
N13950 X81.778 Y65.087
N13955 X81.686 Y65.019
N13960 X81.589 Y64.958
N13965 X81.398 Y64.848
N13970 X81.297 Y64.795
N13975 X81.191 Y64.749
N13980 X80.97 Y64.664
N13985 X80.861 Y64.626
N13990 X80.748 Y64.597
N13995 X80.527 Y64.549
N14000 X80.416 Y64.529
N14005 X80.303 Y64.518
N14010 X80.076 Y64.503
N14015 X79.98 Y64.5
N14020 X72.909 Y64.503
N14025 X72.826 Y64.505
N14030 X72.743 Y64.512
N14035 X72.589 Y64.529
N14040 X72.452 Y64.551
N14045 X72.332 Y64.576
N14050 X72.212 Y64.606
N14055 X72.092 Y64.641
N14060 X72.016 Y64.666
N14065 X71.941 Y64.695
N14070 X71.761 Y64.769
N14075 X71.665 Y64.813
N14080 X71.573 Y64.864
N14085 X71.378 Y64.979
N14090 X71.293 Y65.033
N14095 X71.212 Y65.093
N14100 X71.073 Y65.203
N14105 X71.001 Y65.263
N14110 X70.932 Y65.329
N14115 X69.962 Y66.317
N14120 X69.307 Y66.807
N14125 X69.242 Y66.843
N14130 X68.744 Y67.09
N14135 X68.659 Y67.116
N14140 X68.206 Y67.236
N14145 X67.673 Y67.273
N14150 X67.649 Y67.272
N14155 X67.02 Y67.206
N14160 X66.278 Y67.023
N14165 X65.432 Y66.713
N14170 X63.619 Y65.819
N14175 X63.056 Y65.503
N14180 X61.286 Y64.446
N14185 G03 X61.273 Y64.025 I0.128 J-0.215
N14190 G01 X66.875 Y60.185
N14195 X66.928 Y60.157
N14200 X66.986 Y60.143
N14205 G03 X67.567 Y64.857 Z-4.761 I0.29 J2.357 F333.
N14210 X66.986 Y60.143 Z-5.021 I-0.29 J-2.357
N14215 X67.567 Y64.857 Z-5.282 I0.29 J2.357
N14220 X65.874 Y60.583 Z-5.5 I-0.29 J-2.357
N14225 X67.365 Y60.682 I0.687 J0.938 F1000.
N14230 X68.428 Y61.732 I-34.458 J35.947
N14235 Y63.268 I-0.781 J0.768
N14240 G01 X68.127 Y63.575
N14245 G03 X66.968 Y63.835 I-0.781 J-0.768
N14250 X66.288 Y63.539 I2.139 J-5.833
N14255 G02 X65.625 Y63.206 I-25.64 J50.344
N14260 G03 Y61.794 I0.348 J-0.706
N14265 G02 X66.288 Y61.461 I-24.977 J-50.676
N14270 G03 X66.968 Y61.165 I2.82 J5.536
N14275 X68.127 Y61.425 I0.377 J1.028
N14280 G01 X68.428 Y61.732
N14285 X68.454 Y61.765
N14290 X68.776 Y62.263
N14295 G03 X68.431 Y62.486 I-0.173 J0.111
N14300 X68.605 Y62.169 I0.173 J-0.111
N14305 G01 X82.301 Y62.276
N14310 X82.337 Y62.269
N14315 X82.369 Y62.25
N14320 X82.633 Y62.019
N14325 X82.659 Y62.003
N14330 X82.688 Y61.995
N14335 X82.718
N14340 X82.747 Y62.005
N14345 X82.91 Y62.083
N14350 G03 X82.919 Y62.914 I-0.187 J0.418
N14355 G01 X82.85 Y62.948
N14360 X82.71 Y63.018
N14365 G03 X82.292 Y63.015 I-0.205 J-0.409
N14370 G01 X82.088 Y62.916
N14375 G03 X82.086 Y62.08 I0.186 J-0.418
N14380 G01 X82.175 Y62.04
N14385 X82.296 Y61.983
N14390 G03 X82.713 Y61.987 I0.203 J0.41
N14395 G01 X82.747 Y62.005
N14400 X82.829 Y62.046 Z-5.491
N14405 X82.91 Y62.083 Z-5.466
N14410 X82.957 Y62.108 Z-5.438
N14415 X83. Y62.137 Z-5.41
N14420 X83.035 Y62.166 Z-5.37
N14425 X83.066 Y62.198 Z-5.33
N14430 X83.107 Y62.252 Z-5.231
N14435 X83.128 Y62.288 Z-5.119
N14440 X83.134 Y62.301 Z-5.
N14445 G00 Z5.
N14450 X171.442 Y62.929
N14455 Z-2.95
N14460 G01 X171.439 Y62.945 Z-3.077 F333.
N14465 X171.43 Y62.992 Z-3.195
N14470 X171.413 Y63.066 Z-3.298
N14475 X171.387 Y63.162 Z-3.377
N14480 X171.352 Y63.273 Z-3.429
N14485 X171.308 Y63.391 Z-3.45
N14490 G03 X166.905 Y61.609 Z-3.711 I-2.201 J-0.891
N14495 X171.308 Y63.391 Z-3.971 I2.201 J0.891
N14500 X166.905 Y61.609 Z-4.232 I-2.201 J-0.891
N14505 X171.308 Y63.391 Z-4.492 I2.201 J0.891
N14510 X166.905 Y61.609 Z-4.753 I-2.201 J-0.891
N14515 X171.308 Y63.391 Z-5.013 I2.201 J0.891
N14520 X166.905 Y61.609 Z-5.274 I-2.201 J-0.891
N14525 X171.48 Y62.428 Z-5.5 I2.201 J0.891
N14530 X169.758 Y63.708 I-1.307 J0.04 F1000.
N14535 G02 X167.707 Y63.076 I-14.36 J42.937
N14540 G03 X167.706 Y61.927 I0.162 J-0.574
N14545 G01 X168.981 Y61.564
N14550 G03 X170.041 Y62.364 I0.228 J0.8
N14555 G01 Y62.635
N14560 G03 X168.982 Y63.436 I-0.832
N14565 G01 X167.707 Y63.076
N14570 G02 X165.496 Y63.774 I-0.574 J2.032
N14575 G03 X163.285 Y64.472 I-1.626 J-1.298
N14580 G01 X161.521 Y63.955
N14585 G02 X159.454 Y63.502 I-8.285 J32.846
N14590 G03 X157.387 Y63.049 I6.218 J-33.299
N14595 X157.394 Y61.949 I0.138 J-0.549
N14600 X161.788 Y60.938 I67.771 J284.354
N14605 G02 X166.158 Y59.831 I-16.54 J-74.475
N14610 X168.701 Y59.023 I-12.25 J-42.979
N14615 G03 X171.237 Y58.199 I19.115 J54.497
N14620 X172.648 Y59.249 I0.315 J1.05
N14625 G01 Y65.751
N14630 G03 X171.237 Y66.803 I-1.098
N14635 G01 X163.285 Y64.472
N14640 G02 X161.148 Y65.151 I-0.565 J1.926
N14645 G03 X159.033 Y65.895 I-1.648 J-1.307
N14650 G01 X148.855 Y63.575
N14655 G02 X147.292 Y63.303 I-5.133 J24.876
N14660 G03 X145.728 Y63.031 I3.57 J-25.148
N14665 Y61.971 I0.109 J-0.53
N14670 G01 X157.243 Y59.607
N14675 X169.869 Y56.106
N14680 G02 X171.821 Y55.454 I-9.458 J-31.56
N14685 G03 X173.773 Y54.802 I11.41 J30.908
N14690 X175.174 Y55.844 I0.313 J1.043
N14695 G01 Y69.162
N14700 G03 X173.768 Y70.196 I-1.083
N14705 G01 X160.923 Y66.326
N14710 X159.033 Y65.895
N14715 G02 X156.956 Y66.668 I-0.449 J1.969
N14720 G03 X154.874 Y67.425 I-1.608 J-1.18
N14725 G01 X148.388 Y65.835
N14730 X133.885 Y63.301
N14735 G02 X132.569 Y63.149 I-3.099 J20.987
N14740 G03 X131.252 Y62.996 I1.783 J-21.14
N14745 X131.258 Y62.004 I0.073 J-0.496
N14750 G02 X144.02 Y59.991 I-40.71 J-299.508
N14755 X156.648 Y57.259 I-32.479 J-180.7
N14760 G01 X173.541 Y52.433
N14765 G02 X174.866 Y51.971 I-6.731 J-21.428
N14770 G03 X176.191 Y51.509 I8.055 J20.966
N14775 X177.597 Y52.541 I0.324 J1.032
N14780 G01 Y72.457
N14785 G03 X176.19 Y73.491 I-1.083
N14790 G01 X164.111 Y69.69
N14795 X154.874 Y67.425
N14800 G02 X152.93 Y68.129 I-0.444 J1.81
N14805 G03 X150.986 Y68.833 I-1.5 J-1.106
N14810 G01 X147.925 Y68.082
N14815 X127.304 Y64.559
N14820 X109.853 Y63.025
N14825 G02 X108.215 Y62.985 I-1.455 J26.181
N14830 G03 X106.578 Y62.945 I-0.183 J-26.22
N14835 X106.577 Y62.056 I0.025 J-0.445
N14840 G02 X122.176 Y60.938 I-31.053 J-542.596
N14845 X137.681 Y58.891 I-14.812 J-171.919
N14850 G01 X151.728 Y56.073
N14855 X168.539 Y51.669
N14860 X178.514 Y48.365
N14865 G03 X179.887 Y49.361 I0.325 J0.996
N14870 G01 Y75.639
N14875 G03 X178.514 Y76.635 I-1.048
N14880 G01 X163.516 Y71.906
N14885 X150.986 Y68.833
N14890 G02 X149.061 Y69.546 I-0.436 J1.779
N14895 G03 X147.149 Y70.294 I-1.531 J-1.096
N14900 G01 X143.766 Y69.596
N14905 X143.744 Y69.591
N14910 X140.055 Y68.888
N14915 X140.036 Y68.885
N14920 X136.961 Y68.341
N14925 X136.939 Y68.337
N14930 X133.25 Y67.742
N14935 X133.23 Y67.739
N14940 X130.156 Y67.285
N14945 X130.136 Y67.282
N14950 X127.062 Y66.87
N14955 X127.036 Y66.866
N14960 X121.502 Y66.223
N14965 X121.478 Y66.22
N14970 X120.248 Y66.098
N14975 X120.238 Y66.097
N14980 X115.319 Y65.641
N14985 X115.288 Y65.638
N14990 X109.755 Y65.238
N14995 X109.73 Y65.237
N15000 X104.811 Y64.963
N15005 X104.789 Y64.962
N15010 X99.871 Y64.761
N15015 X99.853 Y64.76
N15020 X95.549 Y64.634
N15025 X95.534
N15030 X91.23 Y64.551
N15035 X91.217 Y64.55
N15040 X87.528 Y64.511
N15045 X87.517
N15050 X84.904 Y64.503
N15055 X84.793 Y64.507
N15060 X84.683 Y64.519
N15065 X84.452 Y64.553
N15070 X84.335 Y64.575
N15075 X84.221 Y64.605
N15080 X83.99 Y64.678
N15085 X83.876 Y64.719
N15090 X83.765 Y64.769
N15095 X83.546 Y64.879
N15100 X83.447 Y64.933
N15105 X83.352 Y64.995
N15110 X83.182 Y65.116
N15115 X83.092 Y65.185
N15120 X83.007 Y65.261
N15125 X82.828 Y65.434
N15130 X82.748 Y65.518
N15135 X82.674 Y65.608
N15140 X82.543 Y65.781
N15145 X82.5 Y65.842
N15150 X82.416 Y65.724
N15155 X82.298 Y65.574
N15160 X82.247 Y65.512
N15165 X82.192 Y65.453
N15170 X82.099 Y65.358
N15175 X82.033 Y65.294
N15180 X81.963 Y65.234
N15185 X81.778 Y65.087
N15190 X81.686 Y65.019
N15195 X81.589 Y64.958
N15200 X81.398 Y64.848
N15205 X81.297 Y64.795
N15210 X81.191 Y64.749
N15215 X80.97 Y64.664
N15220 X80.861 Y64.626
N15225 X80.748 Y64.597
N15230 X80.527 Y64.549
N15235 X80.416 Y64.529
N15240 X80.303 Y64.518
N15245 X80.076 Y64.503
N15250 X79.98 Y64.5
N15255 X72.909 Y64.503
N15260 X72.826 Y64.505
N15265 X72.743 Y64.512
N15270 X72.589 Y64.529
N15275 X72.452 Y64.551
N15280 X72.332 Y64.576
N15285 X72.212 Y64.606
N15290 X72.092 Y64.641
N15295 X72.016 Y64.666
N15300 X71.941 Y64.695
N15305 X71.761 Y64.769
N15310 X71.665 Y64.813
N15315 X71.573 Y64.864
N15320 X71.378 Y64.979
N15325 X71.293 Y65.033
N15330 X71.212 Y65.093
N15335 X71.073 Y65.203
N15340 X71.001 Y65.263
N15345 X70.932 Y65.329
N15350 X69.962 Y66.317
N15355 X69.307 Y66.807
N15360 X69.242 Y66.843
N15365 X68.744 Y67.09
N15370 X68.659 Y67.116
N15375 X68.206 Y67.236
N15380 X67.673 Y67.273
N15385 X67.649 Y67.272
N15390 X67.02 Y67.206
N15395 X66.278 Y67.023
N15400 X65.432 Y66.713
N15405 X63.619 Y65.819
N15410 X63.056 Y65.503
N15415 X61.246 Y64.422
N15420 X58.225 Y62.5
N15425 X61.246 Y60.578
N15430 X63.057 Y59.497
N15435 X63.619 Y59.181
N15440 X65.432 Y58.287
N15445 X66.278 Y57.977
N15450 X67.02 Y57.794
N15455 X67.652 Y57.728
N15460 X67.753 Y57.732
N15465 X68.205 Y57.764
N15470 X68.73 Y57.904
N15475 X68.744 Y57.91
N15480 X69.294 Y58.184
N15485 X69.306 Y58.191
N15490 X69.962 Y58.683
N15495 X70.932 Y59.671
N15500 X71.001 Y59.737
N15505 X71.073 Y59.797
N15510 X71.212 Y59.907
N15515 X71.293 Y59.967
N15520 X71.378 Y60.021
N15525 X71.573 Y60.136
N15530 X71.665 Y60.187
N15535 X71.761 Y60.231
N15540 X71.941 Y60.305
N15545 X72.016 Y60.334
N15550 X72.092 Y60.359
N15555 X72.212 Y60.394
N15560 X72.291 Y60.415
N15565 X72.37 Y60.431
N15570 X72.567 Y60.467
N15575 X72.669 Y60.482
N15580 X72.772 Y60.489
N15585 X73.003 Y60.499
N15590 X73.064 Y60.5
N15595 X80.058 Y60.499
N15600 X80.143 Y60.496
N15605 X80.227 Y60.489
N15610 X80.452 Y60.464
N15615 X80.564 Y60.446
N15620 X80.675 Y60.421
N15625 X80.896 Y60.361
N15630 X81.009 Y60.325
N15635 X81.118 Y60.281
N15640 X81.339 Y60.182
N15645 X81.425 Y60.14
N15650 X81.507 Y60.093
N15655 X81.625 Y60.021
N15660 X81.703 Y59.969
N15665 X81.778 Y59.913
N15670 X81.963 Y59.766
N15675 X82.051 Y59.689
N15680 X82.133 Y59.606
N15685 X82.288 Y59.437
N15690 X82.355 Y59.358
N15695 X82.416 Y59.276
N15700 X82.501 Y59.153
N15705 X82.585 Y59.276
N15710 X82.651 Y59.367
N15715 X82.725 Y59.452
N15720 X82.889 Y59.628
N15725 X82.971 Y59.71
N15730 X83.06 Y59.785
N15735 X83.235 Y59.924
N15740 X83.326 Y59.989
N15745 X83.421 Y60.048
N15750 X83.615 Y60.159
N15755 X83.721 Y60.213
N15760 X83.83 Y60.26
N15765 X84.065 Y60.348
N15770 X84.18 Y60.386
N15775 X84.298 Y60.414
N15780 X84.529 Y60.46
N15785 X84.642 Y60.479
N15790 X84.755 Y60.488
N15795 X84.986 Y60.498
N15800 X85.061 Y60.5
N15805 X88.75 Y60.48
N15810 X88.762
N15815 X92.451 Y60.43
N15820 X92.463
N15825 X96.152 Y60.352
N15830 X96.166 Y60.351
N15835 X100.47 Y60.219
N15840 X100.489 Y60.218
N15845 X105.408 Y60.006
N15850 X105.429 Y60.005
N15855 X110.347 Y59.724
N15860 X110.371 Y59.722
N15865 X115.29 Y59.362
N15870 X115.319 Y59.359
N15875 X120.853 Y58.846
N15880 X120.884 Y58.843
N15885 X124.22 Y58.461
N15890 X127.036 Y58.134
N15895 X127.064 Y58.13
N15900 X130.753 Y57.629
N15905 X130.774 Y57.626
N15910 X133.848 Y57.166
N15915 X133.868 Y57.162
N15920 X137.252 Y56.608
N15925 X137.273 Y56.604
N15930 X140.715 Y55.99
N15935 X140.734 Y55.986
N15940 X143.935 Y55.372
N15945 X143.956 Y55.368
N15950 X147.456 Y54.643
N15955 X147.477 Y54.638
N15960 X151.166 Y53.819
N15965 X151.189 Y53.814
N15970 X155.493 Y52.788
N15975 X155.514 Y52.783
N15980 X159.203 Y51.848
N15985 X159.225 Y51.843
N15990 X163.529 Y50.682
N15995 X163.549 Y50.677
N16000 X167.853 Y49.45
N16005 X167.873 Y49.444
N16010 X172.177 Y48.155
N16015 X172.195 Y48.149
N16020 X176.716 Y46.729
N16025 X176.732 Y46.724
N16030 X180.478 Y45.5
N16035 X182.
N16040 Y79.5
N16045 X180.478
N16050 X176.516 Y78.206
N16055 X176.497 Y78.2
N16060 X171.579 Y76.663
N16065 X171.559 Y76.657
N16070 X167.255 Y75.376
N16075 X167.235 Y75.37
N16080 X162.931 Y74.154
N16085 X162.913 Y74.149
N16090 X159.224 Y73.157
N16095 X159.201 Y73.151
N16100 X154.897 Y72.066
N16105 X154.877 Y72.061
N16110 X151.188 Y71.185
N16115 X151.166 Y71.181
N16120 X147.477 Y70.362
N16125 X147.455 Y70.357
N16130 X147.149 Y70.294
N16135 X147.087 Y70.277 Z-5.491
N16140 X147.028 Y70.252 Z-5.483
N16145 X146.975 Y70.222 Z-5.458
N16150 X146.927 Y70.185 Z-5.433
N16155 X146.889 Y70.15 Z-5.393
N16160 X146.856 Y70.111 Z-5.354
N16165 X146.812 Y70.044 Z-5.25
N16170 X146.79 Y70. Z-5.129
N16175 X146.784 Y69.984 Z-5.
N16180 G00 Z5.
N16185 X171.442 Y62.929
N16190 Z-3.95
N16195 G01 X171.439 Y62.945 Z-4.077 F333.
N16200 X171.43 Y62.992 Z-4.195
N16205 X171.413 Y63.066 Z-4.298
N16210 X171.387 Y63.162 Z-4.377
N16215 X171.352 Y63.273 Z-4.429
N16220 X171.308 Y63.391 Z-4.45
N16225 G03 X166.905 Y61.609 Z-4.711 I-2.201 J-0.891
N16230 X171.308 Y63.391 Z-4.971 I2.201 J0.891
N16235 X166.905 Y61.609 Z-5.232 I-2.201 J-0.891
N16240 X171.308 Y63.391 Z-5.492 I2.201 J0.891
N16245 X166.905 Y61.609 Z-5.753 I-2.201 J-0.891
N16250 X171.308 Y63.391 Z-6.013 I2.201 J0.891
N16255 X166.905 Y61.609 Z-6.274 I-2.201 J-0.891
N16260 X171.48 Y62.428 Z-6.5 I2.201 J0.891
N16265 X169.758 Y63.708 I-1.307 J0.04 F1000.
N16270 G02 X167.707 Y63.076 I-14.36 J42.937
N16275 G03 X167.706 Y61.927 I0.162 J-0.574
N16280 G01 X168.981 Y61.564
N16285 G03 X170.041 Y62.364 I0.228 J0.8
N16290 G01 Y62.635
N16295 G03 X168.982 Y63.436 I-0.832
N16300 G01 X167.707 Y63.076
N16305 G02 X165.496 Y63.774 I-0.574 J2.032
N16310 G03 X163.285 Y64.472 I-1.626 J-1.298
N16315 G01 X161.521 Y63.955
N16320 G02 X159.454 Y63.502 I-8.285 J32.846
N16325 G03 X157.387 Y63.049 I6.218 J-33.299
N16330 X157.394 Y61.949 I0.138 J-0.549
N16335 X161.788 Y60.938 I67.771 J284.354
N16340 G02 X166.158 Y59.831 I-16.54 J-74.475
N16345 X168.701 Y59.023 I-12.25 J-42.979
N16350 G03 X171.237 Y58.199 I19.115 J54.497
N16355 X172.648 Y59.249 I0.315 J1.05
N16360 G01 Y65.751
N16365 G03 X171.237 Y66.803 I-1.098
N16370 G01 X163.285 Y64.472
N16375 G02 X161.148 Y65.151 I-0.565 J1.926
N16380 G03 X159.033 Y65.895 I-1.648 J-1.307
N16385 G01 X148.855 Y63.575
N16390 G02 X147.292 Y63.303 I-5.133 J24.876
N16395 G03 X145.728 Y63.031 I3.57 J-25.148
N16400 Y61.971 I0.109 J-0.53
N16405 G01 X157.243 Y59.607
N16410 X169.869 Y56.106
N16415 G02 X171.821 Y55.454 I-9.458 J-31.56
N16420 G03 X173.773 Y54.802 I11.41 J30.908
N16425 X175.174 Y55.844 I0.313 J1.043
N16430 G01 Y69.162
N16435 G03 X173.768 Y70.196 I-1.083
N16440 G01 X160.923 Y66.326
N16445 X159.033 Y65.895
N16450 G02 X156.956 Y66.668 I-0.449 J1.969
N16455 G03 X154.874 Y67.425 I-1.608 J-1.18
N16460 G01 X148.388 Y65.835
N16465 X133.885 Y63.301
N16470 G02 X132.569 Y63.149 I-3.099 J20.987
N16475 G03 X131.252 Y62.996 I1.783 J-21.14
N16480 X131.258 Y62.004 I0.073 J-0.496
N16485 G02 X144.02 Y59.991 I-40.71 J-299.508
N16490 X156.648 Y57.259 I-32.479 J-180.7
N16495 G01 X173.541 Y52.433
N16500 G02 X174.866 Y51.971 I-6.731 J-21.428
N16505 G03 X176.191 Y51.509 I8.055 J20.966
N16510 X177.597 Y52.541 I0.324 J1.032
N16515 G01 Y72.457
N16520 G03 X176.19 Y73.491 I-1.083
N16525 G01 X164.111 Y69.69
N16530 X154.874 Y67.425
N16535 G02 X152.93 Y68.129 I-0.444 J1.81
N16540 G03 X150.986 Y68.833 I-1.5 J-1.106
N16545 G01 X147.925 Y68.082
N16550 X127.304 Y64.559
N16555 X109.853 Y63.025
N16560 G02 X108.215 Y62.985 I-1.455 J26.181
N16565 G03 X106.578 Y62.945 I-0.183 J-26.22
N16570 X106.577 Y62.056 I0.025 J-0.445
N16575 G02 X122.176 Y60.938 I-31.053 J-542.596
N16580 X137.681 Y58.891 I-14.812 J-171.919
N16585 G01 X151.728 Y56.073
N16590 X168.539 Y51.669
N16595 X178.514 Y48.365
N16600 G03 X179.887 Y49.361 I0.325 J0.996
N16605 G01 Y75.639
N16610 G03 X178.514 Y76.635 I-1.048
N16615 G01 X163.516 Y71.906
N16620 X150.986 Y68.833
N16625 X150.924 Y68.815 Z-6.491
N16630 X150.865 Y68.789 Z-6.483
N16635 X150.813 Y68.758 Z-6.458
N16640 X150.766 Y68.722 Z-6.433
N16645 X150.728 Y68.686 Z-6.393
N16650 X150.695 Y68.646 Z-6.354
N16655 X150.653 Y68.579 Z-6.25
N16660 X150.632 Y68.534 Z-6.129
N16665 X150.625 Y68.518 Z-6.
N16670 G00 Z5.
N16675 X84.743 Y63.276
N16680 Z1.5
N16685 G01 Z-3.95 F333.
N16690 X84.738 Y63.291 Z-4.077
N16695 X84.721 Y63.336 Z-4.195
N16700 X84.693 Y63.407 Z-4.298
N16705 X84.653 Y63.498 Z-4.377
N16710 X84.602 Y63.603 Z-4.429
N16715 X84.54 Y63.713 Z-4.45
N16720 G03 X80.457 Y61.286 Z-4.711 I-2.041 J-1.214
N16725 X84.54 Y63.713 Z-4.971 I2.041 J1.214
N16730 X80.457 Y61.286 Z-5.232 I-2.041 J-1.214
N16735 X84.54 Y63.713 Z-5.492 I2.041 J1.214
N16740 X80.457 Y61.286 Z-5.753 I-2.041 J-1.214
N16745 X84.54 Y63.713 Z-6.013 I2.041 J1.214
N16750 X80.457 Y61.286 Z-6.274 I-2.041 J-1.214
N16755 X84.856 Y62.786 Z-6.5 I2.041 J1.214
N16760 X83.511 Y63.549 I-0.955 J-0.116 F1000.
N16765 G01 X82.088 Y62.916
N16770 G03 X82.086 Y62.08 I0.186 J-0.418
N16775 G01 X82.175 Y62.04
N16780 X82.296 Y61.983
N16785 G03 X82.713 Y61.987 I0.203 J0.41
N16790 G01 X82.91 Y62.083
N16795 G03 X82.919 Y62.914 I-0.187 J0.418
N16800 G01 X82.85 Y62.948
N16805 X82.71 Y63.018
N16810 G03 X82.292 Y63.015 I-0.205 J-0.409
N16815 G01 X82.088 Y62.916
N16820 X82.064 Y62.901
N16825 X82.047 Y62.879
N16830 X82.038 Y62.852
N16835 X82.022 Y62.758
N16840 X82.011 Y62.729
N16845 X81.991 Y62.706
N16850 X81.965 Y62.692
N16855 X81.935 Y62.687
N16860 X67.815 Y63.035
N16865 X67.753 Y63.044
N16870 X67.696 Y63.069
N16875 X67.646 Y63.107
N16880 X67.038 Y63.705
N16885 G03 X66.769 Y63.758 I-0.175 J-0.178
N16890 X66.288 Y63.539 I2.339 J-5.756
N16895 G02 X65.625 Y63.206 I-25.64 J50.344
N16900 G03 Y61.794 I0.348 J-0.706
N16905 G02 X66.288 Y61.461 I-24.977 J-50.676
N16910 G03 X66.968 Y61.165 I2.82 J5.536
N16915 X68.127 Y61.425 I0.377 J1.028
N16920 G01 X68.428 Y61.732
N16925 G03 Y63.268 I-0.781 J0.768
N16930 G01 X68.127 Y63.575
N16935 G03 X66.968 Y63.835 I-0.781 J-0.768
N16940 G01 X66.769 Y63.758
N16945 G02 X64.041 Y64.206 I-0.998 J2.455
N16950 G03 X61.286 Y64.446 I-1.543 J-1.789
N16955 G01 X61.246 Y64.422
N16960 X58.225 Y62.5
N16965 X61.246 Y60.578
N16970 X63.057 Y59.497
N16975 X63.619 Y59.181
N16980 X65.432 Y58.287
N16985 X66.278 Y57.977
N16990 X67.02 Y57.794
N16995 X67.652 Y57.728
N17000 X67.753 Y57.732
N17005 X68.205 Y57.764
N17010 X68.73 Y57.904
N17015 X68.744 Y57.91
N17020 X69.294 Y58.184
N17025 X69.306 Y58.191
N17030 X69.962 Y58.683
N17035 X70.932 Y59.671
N17040 X71.001 Y59.737
N17045 X71.073 Y59.797
N17050 X71.212 Y59.907
N17055 X71.293 Y59.967
N17060 X71.378 Y60.021
N17065 X71.573 Y60.136
N17070 X71.665 Y60.187
N17075 X71.761 Y60.231
N17080 X71.941 Y60.305
N17085 X72.016 Y60.334
N17090 X72.092 Y60.359
N17095 X72.212 Y60.394
N17100 X72.291 Y60.415
N17105 X72.37 Y60.431
N17110 X72.567 Y60.467
N17115 X72.669 Y60.482
N17120 X72.772 Y60.489
N17125 X73.003 Y60.499
N17130 X73.064 Y60.5
N17135 X80.058 Y60.499
N17140 X80.143 Y60.496
N17145 X80.227 Y60.489
N17150 X80.452 Y60.464
N17155 X80.564 Y60.446
N17160 X80.675 Y60.421
N17165 X80.896 Y60.361
N17170 X81.009 Y60.325
N17175 X81.118 Y60.281
N17180 X81.339 Y60.182
N17185 X81.425 Y60.14
N17190 X81.507 Y60.093
N17195 X81.625 Y60.021
N17200 X81.703 Y59.969
N17205 X81.778 Y59.913
N17210 X81.963 Y59.766
N17215 X82.051 Y59.689
N17220 X82.133 Y59.606
N17225 X82.288 Y59.437
N17230 X82.355 Y59.358
N17235 X82.416 Y59.276
N17240 X82.501 Y59.153
N17245 X82.585 Y59.276
N17250 X82.651 Y59.367
N17255 X82.725 Y59.452
N17260 X82.889 Y59.628
N17265 X82.971 Y59.71
N17270 X83.06 Y59.785
N17275 X83.235 Y59.924
N17280 X83.326 Y59.989
N17285 X83.421 Y60.048
N17290 X83.615 Y60.159
N17295 X83.721 Y60.213
N17300 X83.83 Y60.26
N17305 X84.065 Y60.348
N17310 X84.18 Y60.386
N17315 X84.298 Y60.414
N17320 X84.529 Y60.46
N17325 X84.642 Y60.479
N17330 X84.755 Y60.488
N17335 X84.986 Y60.498
N17340 X85.061 Y60.5
N17345 X88.75 Y60.48
N17350 X88.762
N17355 X92.451 Y60.43
N17360 X92.463
N17365 X96.152 Y60.352
N17370 X96.166 Y60.351
N17375 X100.47 Y60.219
N17380 X100.489 Y60.218
N17385 X105.408 Y60.006
N17390 X105.429 Y60.005
N17395 X110.347 Y59.724
N17400 X110.371 Y59.722
N17405 X115.29 Y59.362
N17410 X115.319 Y59.359
N17415 X120.853 Y58.846
N17420 X120.884 Y58.843
N17425 X124.22 Y58.461
N17430 X127.036 Y58.134
N17435 X127.064 Y58.13
N17440 X130.753 Y57.629
N17445 X130.774 Y57.626
N17450 X133.848 Y57.166
N17455 X133.868 Y57.162
N17460 X137.252 Y56.608
N17465 X137.273 Y56.604
N17470 X140.715 Y55.99
N17475 X140.734 Y55.986
N17480 X143.935 Y55.372
N17485 X143.956 Y55.368
N17490 X147.456 Y54.643
N17495 X147.477 Y54.638
N17500 X151.166 Y53.819
N17505 X151.189 Y53.814
N17510 X155.493 Y52.788
N17515 X155.514 Y52.783
N17520 X159.203 Y51.848
N17525 X159.225 Y51.843
N17530 X163.529 Y50.682
N17535 X163.549 Y50.677
N17540 X167.853 Y49.45
N17545 X167.873 Y49.444
N17550 X172.177 Y48.155
N17555 X172.195 Y48.149
N17560 X176.716 Y46.729
N17565 X176.732 Y46.724
N17570 X180.478 Y45.5
N17575 X182.
N17580 Y79.5
N17585 X180.478
N17590 X176.516 Y78.206
N17595 X176.497 Y78.2
N17600 X171.579 Y76.663
N17605 X171.559 Y76.657
N17610 X167.255 Y75.376
N17615 X167.235 Y75.37
N17620 X162.931 Y74.154
N17625 X162.913 Y74.149
N17630 X159.224 Y73.157
N17635 X159.201 Y73.151
N17640 X154.897 Y72.066
N17645 X154.877 Y72.061
N17650 X151.188 Y71.185
N17655 X151.166 Y71.181
N17660 X147.477 Y70.362
N17665 X147.455 Y70.357
N17670 X143.766 Y69.596
N17675 X143.744 Y69.591
N17680 X140.055 Y68.888
N17685 X140.036 Y68.885
N17690 X136.961 Y68.341
N17695 X136.939 Y68.337
N17700 X133.25 Y67.742
N17705 X133.23 Y67.739
N17710 X130.156 Y67.285
N17715 X130.136 Y67.282
N17720 X127.062 Y66.87
N17725 X127.036 Y66.866
N17730 X121.502 Y66.223
N17735 X121.478 Y66.22
N17740 X120.248 Y66.098
N17745 X120.238 Y66.097
N17750 X115.319 Y65.641
N17755 X115.288 Y65.638
N17760 X109.755 Y65.238
N17765 X109.73 Y65.237
N17770 X104.811 Y64.963
N17775 X104.789 Y64.962
N17780 X99.871 Y64.761
N17785 X99.853 Y64.76
N17790 X95.549 Y64.634
N17795 X95.534
N17800 X91.23 Y64.551
N17805 X91.217 Y64.55
N17810 X87.528 Y64.511
N17815 X87.517
N17820 X84.904 Y64.503
N17825 X84.793 Y64.507
N17830 X84.683 Y64.519
N17835 X84.452 Y64.553
N17840 X84.335 Y64.575
N17845 X84.221 Y64.605
N17850 X83.99 Y64.678
N17855 X83.876 Y64.719
N17860 X83.765 Y64.769
N17865 X83.546 Y64.879
N17870 X83.447 Y64.933
N17875 X83.352 Y64.995
N17880 X83.182 Y65.116
N17885 X83.092 Y65.185
N17890 X83.007 Y65.261
N17895 X82.828 Y65.434
N17900 X82.748 Y65.518
N17905 X82.674 Y65.608
N17910 X82.543 Y65.781
N17915 X82.5 Y65.842
N17920 X82.416 Y65.724
N17925 X82.298 Y65.574
N17930 X82.247 Y65.512
N17935 X82.192 Y65.453
N17940 X82.099 Y65.358
N17945 X82.033 Y65.294
N17950 X81.963 Y65.234
N17955 X81.778 Y65.087
N17960 X81.686 Y65.019
N17965 X81.589 Y64.958
N17970 X81.398 Y64.848
N17975 X81.297 Y64.795
N17980 X81.191 Y64.749
N17985 X80.97 Y64.664
N17990 X80.861 Y64.626
N17995 X80.748 Y64.597
N18000 X80.527 Y64.549
N18005 X80.416 Y64.529
N18010 X80.303 Y64.518
N18015 X80.076 Y64.503
N18020 X79.98 Y64.5
N18025 X72.909 Y64.503
N18030 X72.826 Y64.505
N18035 X72.743 Y64.512
N18040 X72.589 Y64.529
N18045 X72.452 Y64.551
N18050 X72.332 Y64.576
N18055 X72.212 Y64.606
N18060 X72.092 Y64.641
N18065 X72.016 Y64.666
N18070 X71.941 Y64.695
N18075 X71.761 Y64.769
N18080 X71.665 Y64.813
N18085 X71.573 Y64.864
N18090 X71.378 Y64.979
N18095 X71.293 Y65.033
N18100 X71.212 Y65.093
N18105 X71.073 Y65.203
N18110 X71.001 Y65.263
N18115 X70.932 Y65.329
N18120 X69.962 Y66.317
N18125 X69.307 Y66.807
N18130 X69.242 Y66.843
N18135 X68.744 Y67.09
N18140 X68.659 Y67.116
N18145 X68.206 Y67.236
N18150 X67.673 Y67.273
N18155 X67.649 Y67.272
N18160 X67.02 Y67.206
N18165 X66.278 Y67.023
N18170 X65.432 Y66.713
N18175 X63.619 Y65.819
N18180 X63.056 Y65.503
N18185 X61.286 Y64.446
N18190 G03 X61.273 Y64.025 I0.128 J-0.215
N18195 G01 X66.875 Y60.185
N18200 X66.928 Y60.157
N18205 X66.986 Y60.143
N18210 G03 X67.567 Y64.857 Z-6.761 I0.29 J2.357 F333.
N18215 X66.986 Y60.143 Z-7.021 I-0.29 J-2.357
N18220 X67.567 Y64.857 Z-7.282 I0.29 J2.357
N18225 X65.874 Y60.583 Z-7.5 I-0.29 J-2.357
N18230 X67.365 Y60.682 I0.687 J0.938 F1000.
N18235 X68.428 Y61.732 I-34.458 J35.947
N18240 Y63.268 I-0.781 J0.768
N18245 G01 X68.127 Y63.575
N18250 G03 X66.968 Y63.835 I-0.781 J-0.768
N18255 X66.288 Y63.539 I2.139 J-5.833
N18260 G02 X65.625 Y63.206 I-25.64 J50.344
N18265 G03 Y61.794 I0.348 J-0.706
N18270 G02 X66.288 Y61.461 I-24.977 J-50.676
N18275 G03 X66.968 Y61.165 I2.82 J5.536
N18280 X68.127 Y61.425 I0.377 J1.028
N18285 G01 X68.428 Y61.732
N18290 X68.454 Y61.765
N18295 X68.776 Y62.263
N18300 G03 X68.431 Y62.486 I-0.173 J0.111
N18305 X68.605 Y62.169 I0.173 J-0.111
N18310 G01 X82.301 Y62.276
N18315 X82.337 Y62.269
N18320 X82.369 Y62.25
N18325 X82.633 Y62.019
N18330 X82.659 Y62.003
N18335 X82.688 Y61.995
N18340 X82.718
N18345 X82.747 Y62.005
N18350 X82.91 Y62.083
N18355 G03 X82.919 Y62.914 I-0.187 J0.418
N18360 G01 X82.85 Y62.948
N18365 X82.71 Y63.018
N18370 G03 X82.292 Y63.015 I-0.205 J-0.409
N18375 G01 X82.088 Y62.916
N18380 G03 X82.086 Y62.08 I0.186 J-0.418
N18385 G01 X82.175 Y62.04
N18390 X82.296 Y61.983
N18395 G03 X82.713 Y61.987 I0.203 J0.41
N18400 G01 X82.747 Y62.005
N18405 X82.829 Y62.046 Z-7.491
N18410 X82.91 Y62.083 Z-7.466
N18415 X82.957 Y62.108 Z-7.438
N18420 X83. Y62.137 Z-7.41
N18425 X83.035 Y62.166 Z-7.37
N18430 X83.066 Y62.198 Z-7.33
N18435 X83.107 Y62.252 Z-7.231
N18440 X83.128 Y62.288 Z-7.119
N18445 X83.134 Y62.301 Z-7.
N18450 G00 Z5.
N18455 X171.442 Y62.929
N18460 Z-4.95
N18465 G01 X171.439 Y62.945 Z-5.077 F333.
N18470 X171.43 Y62.992 Z-5.195
N18475 X171.413 Y63.066 Z-5.298
N18480 X171.387 Y63.162 Z-5.377
N18485 X171.352 Y63.273 Z-5.429
N18490 X171.308 Y63.391 Z-5.45
N18495 G03 X166.905 Y61.609 Z-5.711 I-2.201 J-0.891
N18500 X171.308 Y63.391 Z-5.971 I2.201 J0.891
N18505 X166.905 Y61.609 Z-6.232 I-2.201 J-0.891
N18510 X171.308 Y63.391 Z-6.492 I2.201 J0.891
N18515 X166.905 Y61.609 Z-6.753 I-2.201 J-0.891
N18520 X171.308 Y63.391 Z-7.013 I2.201 J0.891
N18525 X166.905 Y61.609 Z-7.274 I-2.201 J-0.891
N18530 X171.48 Y62.428 Z-7.5 I2.201 J0.891
N18535 X169.758 Y63.708 I-1.307 J0.04 F1000.
N18540 G02 X167.707 Y63.076 I-14.36 J42.937
N18545 G03 X167.706 Y61.927 I0.162 J-0.574
N18550 G01 X168.981 Y61.564
N18555 G03 X170.041 Y62.364 I0.228 J0.8
N18560 G01 Y62.635
N18565 G03 X168.982 Y63.436 I-0.832
N18570 G01 X167.707 Y63.076
N18575 G02 X165.496 Y63.774 I-0.574 J2.032
N18580 G03 X163.285 Y64.472 I-1.626 J-1.298
N18585 G01 X161.521 Y63.955
N18590 G02 X159.454 Y63.502 I-8.285 J32.846
