%
O0002
(Header)
(Generated by gcodetools from Inkscape.)
(Using default header. To add your own header create file "header" in the output dir.)
S3000M3
(Header end.)
G21(All units in mm)

(Start cutting path id: path6648)
(Change tool to Default tool)

G00Z5.000000
G00X191.117876Y20.481984

G01Z-1.000000F100.0(Penetrate)
G02X190.908617Y17.165622Z-1.000000I-26.383686J-0.000000F30.000000
G02X190.425226Y15.015235Z-1.000000I-11.515150J1.458997
G02X189.586368Y12.982942Z-1.000000I-13.896125J4.546550
G02X188.886007Y11.960293Z-1.000000I-4.149883J2.090899
G02X187.984208Y11.117523Z-1.000000I-4.695111J4.120100
G02X187.623847Y10.995575Z-1.000000I-0.360361J0.471468
G02X187.409694Y11.056725Z-1.000000I0.000000J0.405572
G02X187.192871Y11.263547Z-1.000000I0.387659J0.623470
G02X187.072078Y11.520065Z-1.000000I0.677961J0.475945
G02X187.023552Y11.879897Z-1.000000I1.309859J0.359832
G02X187.056074Y12.083262Z-1.000000I0.652099J0.000000
G02X187.146693Y12.255062Z-1.000000I0.551107J-0.180890
G02X187.288656Y12.387699Z-1.000000I0.467267J-0.357832
G02X187.469929Y12.469450Z-1.000000I0.340796J-0.513826
G03X189.274162Y14.165931Z-1.000000I-0.770230J2.626805
G03X190.394440Y20.562380Z-1.000000I-17.700738J6.396448
G03X189.933031Y29.861619Z-1.000000I-93.939008J0.000000
G03X189.101495Y33.559291Z-1.000000I-15.489133J-1.540874
G03X188.951025Y33.918068Z-1.000000I-2.312977J-0.759116
G03X188.824437Y34.095246Z-1.000000I-0.677440J-0.350198
G03X188.678320Y34.276284Z-1.000000I-2.177317J-1.607844
G03X188.470415Y34.497223Z-1.000000I-3.454036J-3.041975
G02X188.366036Y34.581379Z-1.000000I1.062970J1.425222
G02X188.285712Y34.658000Z-1.000000I0.800170J0.919245
G02X188.240458Y34.769486Z-1.000000I0.385406J0.221371
G02X188.224172Y34.899186Z-1.000000I0.508320J0.129701
G02X188.350038Y35.389671Z-1.000000I1.018616J-0.000000
G02X188.562801Y35.515537Z-1.000000I0.212763J-0.116894
G02X189.064841Y35.228394Z-1.000000I0.000000J-0.582455
G02X189.871139Y33.291320Z-1.000000I-6.607475J-3.886674
G02X190.343503Y31.047224Z-1.000000I-22.328715J-5.871780
G02X190.779277Y27.583398Z-1.000000I-52.841666J-8.407185
G02X191.031800Y24.095506Z-1.000000I-70.679193J-6.870250
G02X191.117906Y20.481984Z-1.000000I-75.779469J-3.613521
G01X191.117876Y20.481984Z-1.000000
G00Z5.000000

(End cutting path id: path6648)


(Start cutting path id: path6648)
(Change tool to Default tool)

G00Z5.000000
G00X191.117876Y20.481984

G01Z-1.000000F100.0(Penetrate)
G02X190.908617Y17.165622Z-1.000000I-26.383686J-0.000000F30.000000
G02X190.425226Y15.015235Z-1.000000I-11.515150J1.458997
G02X189.586368Y12.982942Z-1.000000I-13.896125J4.546550
G02X188.886007Y11.960293Z-1.000000I-4.149883J2.090899
G02X187.984208Y11.117523Z-1.000000I-4.695111J4.120100
G02X187.623847Y10.995575Z-1.000000I-0.360361J0.471468
G02X187.409694Y11.056725Z-1.000000I0.000000J0.405572
G02X187.192871Y11.263547Z-1.000000I0.387659J0.623470
G02X187.072078Y11.520065Z-1.000000I0.677961J0.475945
G02X187.023552Y11.879897Z-1.000000I1.309859J0.359832
G02X187.056074Y12.083262Z-1.000000I0.652099J0.000000
G02X187.146693Y12.255062Z-1.000000I0.551107J-0.180890
G02X187.288656Y12.387699Z-1.000000I0.467267J-0.357832
G02X187.469929Y12.469450Z-1.000000I0.340796J-0.513826
G03X189.274162Y14.165931Z-1.000000I-0.770230J2.626805
G03X190.394440Y20.562380Z-1.000000I-17.700738J6.396448
G03X189.933031Y29.861619Z-1.000000I-93.939008J0.000000
G03X189.101495Y33.559291Z-1.000000I-15.489133J-1.540874
G03X188.951025Y33.918068Z-1.000000I-2.312977J-0.759116
G03X188.824437Y34.095246Z-1.000000I-0.677440J-0.350198
G03X188.678320Y34.276284Z-1.000000I-2.177317J-1.607844
G03X188.470415Y34.497223Z-1.000000I-3.454036J-3.041975
G02X188.366036Y34.581379Z-1.000000I1.062970J1.425222
G02X188.285712Y34.658000Z-1.000000I0.800170J0.919245
G02X188.240458Y34.769486Z-1.000000I0.385406J0.221371
G02X188.224172Y34.899186Z-1.000000I0.508320J0.129701
G02X188.350038Y35.389671Z-1.000000I1.018616J-0.000000
G02X188.562801Y35.515537Z-1.000000I0.212763J-0.116894
G02X189.064841Y35.228394Z-1.000000I0.000000J-0.582455
G02X189.871139Y33.291320Z-1.000000I-6.607475J-3.886674
G02X190.343503Y31.047224Z-1.000000I-22.328715J-5.871780
G02X190.779277Y27.583398Z-1.000000I-52.841666J-8.407185
G02X191.031800Y24.095506Z-1.000000I-70.679193J-6.870250
G02X191.117906Y20.481984Z-1.000000I-75.779469J-3.613521
G01X191.117876Y20.481984Z-1.000000
G00Z5.000000

(End cutting path id: path6648)


(Start cutting path id: path6646)
(Change tool to Default tool)

G00Z5.000000
G00X185.703195Y27.261817

G01Z-1.000000F100.0(Penetrate)
G02X185.683769Y26.646262Z-1.000000I-9.762176J-0.000000F30.000000
G02X185.533884Y24.582039Z-1.000000I-110.030212J6.951802
G03X185.352578Y22.223621Z-1.000000I817.613945J-64.041354
G03X185.333781Y21.929060Z-1.000000I12.733800J-0.960458
G03X185.138050Y18.632684Z-1.000000I1244.941572J-75.575786
G03X185.041330Y16.891086Z-1.000000I347.414533J-20.167189
G03X184.981616Y15.175639Z-1.000000I85.358395J-3.830055
G03X184.964375Y13.782534Z-1.000000I56.273521J-1.393106
G03X184.993503Y12.632239Z-1.000000I22.727174J-0.000000
G03X185.056722Y11.960293Z-1.000000I7.808857J0.395738
G03X185.179010Y11.293590Z-1.000000I15.252725J2.453101
G03X185.272218Y10.915180Z-1.000000I5.001743J1.031329
G02X185.385438Y10.511733Z-1.000000I-8.468113J-2.594026
G02X185.395351Y10.432822Z-1.000000I-0.309125J-0.078911
G02X185.338524Y10.219785Z-1.000000I-0.427735J0.000000
G02X185.149078Y10.004047Z-1.000000I-0.628936J0.361239
G02X184.887919Y9.860581Z-1.000000I-0.609799J0.800621
G02X184.641138Y9.816471Z-1.000000I-0.246780J0.668260
G02X184.518043Y9.904249Z-1.000000I0.000000J0.130201
G02X184.317902Y10.754390Z-1.000000I4.107912J1.415715
G02X184.246678Y11.694399Z-1.000000I12.086332J1.388475
G02X184.210154Y13.675353Z-1.000000I53.702123J1.980954
G02X184.241514Y15.174984Z-1.000000I35.871964J-0.000000
G02X184.379465Y17.721811Z-1.000000I103.630546J-4.336076
G01X184.610353Y21.419903Z-1.000000
G02X184.142144Y20.046719Z-1.000000I-17.937851J5.349790
G02X183.579074Y18.740125Z-1.000000I-16.800538J6.465478
G02X182.844035Y17.694126Z-1.000000I-3.455437J1.646925
G02X182.332307Y17.480639Z-1.000000I-0.511728J0.506560
G02X181.915525Y17.718392Z-1.000000I0.000000J0.484186
G02X181.254858Y19.302879Z-1.000000I5.334977J3.154449
G02X180.847420Y21.138389Z-1.000000I24.148332J6.323303
G02X180.500637Y23.429733Z-1.000000I37.305046J6.817840
G02X180.280353Y25.736687Z-1.000000I64.476672J7.320689
G02X180.238971Y26.806257Z-1.000000I13.801664J1.069569
G02X180.335078Y27.380098Z-1.000000I1.761223J0.000000
G02X180.469852Y27.476204Z-1.000000I0.134774J-0.046447
G02X180.677983Y27.334276Z-1.000000I0.000000J-0.223570
G02X180.900836Y26.377495Z-1.000000I-3.165137J-1.241569
G03X181.932248Y19.410655Z-1.000000I51.195272J4.019478
G03X182.532403Y18.927715Z-1.000000I0.600155J0.131439
G03X182.877744Y19.046218Z-1.000000I0.000000J0.562449
G03X183.255838Y19.490468Z-1.000000I-0.881629J1.133358
G03X183.547241Y20.094328Z-1.000000I-5.665180J3.106071
G03X184.010058Y21.285911Z-1.000000I-21.651022J9.095053
G03X184.192430Y21.853983Z-1.000000I-9.073663J3.226279
G03X184.441035Y22.786597Z-1.000000I-24.223380J6.956625
G03X184.663708Y23.726345Z-1.000000I-53.860493J13.258458
G03X184.795056Y24.340867Z-1.000000I-22.897647J5.215476
G01X184.902804Y27.047443Z-1.000000
G02X184.951127Y27.661129Z-1.000000I10.713485J-0.534859
G02X184.995152Y27.904966Z-1.000000I1.727917J-0.186082
G02X185.104560Y28.112844Z-1.000000I0.447400J-0.102741
G02X185.241433Y28.172951Z-1.000000I0.136873J-0.125788
G02X185.362720Y28.121154Z-1.000000I0.000000J-0.167901
G02X185.549277Y27.851369Z-1.000000I-0.750229J-0.718180
G02X185.666505Y27.547597Z-1.000000I-1.280709J-0.668740
G02X185.703195Y27.261817Z-1.000000I-1.094624J-0.285780
G01X185.703195Y27.261817Z-1.000000
G00Z5.000000

(End cutting path id: path6646)


(Start cutting path id: path6646)
(Change tool to Default tool)

G00Z5.000000
G00X185.703195Y27.261817

G01Z-1.000000F100.0(Penetrate)
G02X185.683769Y26.646262Z-1.000000I-9.762176J-0.000000F30.000000
G02X185.533884Y24.582039Z-1.000000I-110.030212J6.951802
G03X185.352578Y22.223621Z-1.000000I817.613945J-64.041354
G03X185.333781Y21.929060Z-1.000000I12.733800J-0.960458
G03X185.138050Y18.632684Z-1.000000I1244.941572J-75.575786
G03X185.041330Y16.891086Z-1.000000I347.414533J-20.167189
G03X184.981616Y15.175639Z-1.000000I85.358395J-3.830055
G03X184.964375Y13.782534Z-1.000000I56.273521J-1.393106
G03X184.993503Y12.632239Z-1.000000I22.727174J-0.000000
G03X185.056722Y11.960293Z-1.000000I7.808857J0.395738
G03X185.179010Y11.293590Z-1.000000I15.252725J2.453101
G03X185.272218Y10.915180Z-1.000000I5.001743J1.031329
G02X185.385438Y10.511733Z-1.000000I-8.468113J-2.594026
G02X185.395351Y10.432822Z-1.000000I-0.309125J-0.078911
G02X185.338524Y10.219785Z-1.000000I-0.427735J0.000000
G02X185.149078Y10.004047Z-1.000000I-0.628936J0.361239
G02X184.887919Y9.860581Z-1.000000I-0.609799J0.800621
G02X184.641138Y9.816471Z-1.000000I-0.246780J0.668260
G02X184.518043Y9.904249Z-1.000000I0.000000J0.130201
G02X184.317902Y10.754390Z-1.000000I4.107912J1.415715
G02X184.246678Y11.694399Z-1.000000I12.086332J1.388475
G02X184.210154Y13.675353Z-1.000000I53.702123J1.980954
G02X184.241514Y15.174984Z-1.000000I35.871964J-0.000000
G02X184.379465Y17.721811Z-1.000000I103.630546J-4.336076
G01X184.610353Y21.419903Z-1.000000
G02X184.142144Y20.046719Z-1.000000I-17.937851J5.349790
G02X183.579074Y18.740125Z-1.000000I-16.800538J6.465478
G02X182.844035Y17.694126Z-1.000000I-3.455437J1.646925
G02X182.332307Y17.480639Z-1.000000I-0.511728J0.506560
G02X181.915525Y17.718392Z-1.000000I0.000000J0.484186
G02X181.254858Y19.302879Z-1.000000I5.334977J3.154449
G02X180.847420Y21.138389Z-1.000000I24.148332J6.323303
G02X180.500637Y23.429733Z-1.000000I37.305046J6.817840
G02X180.280353Y25.736687Z-1.000000I64.476672J7.320689
G02X180.238971Y26.806257Z-1.000000I13.801664J1.069569
G02X180.335078Y27.380098Z-1.000000I1.761223J0.000000
G02X180.469852Y27.476204Z-1.000000I0.134774J-0.046447
G02X180.677983Y27.334276Z-1.000000I0.000000J-0.223570
G02X180.900836Y26.377495Z-1.000000I-3.165137J-1.241569
G03X181.932248Y19.410655Z-1.000000I51.195272J4.019478
G03X182.532403Y18.927715Z-1.000000I0.600155J0.131439
G03X182.877744Y19.046218Z-1.000000I0.000000J0.562449
G03X183.255838Y19.490468Z-1.000000I-0.881629J1.133358
G03X183.547241Y20.094328Z-1.000000I-5.665180J3.106071
G03X184.010058Y21.285911Z-1.000000I-21.651022J9.095053
G03X184.192430Y21.853983Z-1.000000I-9.073663J3.226279
G03X184.441035Y22.786597Z-1.000000I-24.223380J6.956625
G03X184.663708Y23.726345Z-1.000000I-53.860493J13.258458
G03X184.795056Y24.340867Z-1.000000I-22.897647J5.215476
G01X184.902804Y27.047443Z-1.000000
G02X184.951127Y27.661129Z-1.000000I10.713485J-0.534859
G02X184.995152Y27.904966Z-1.000000I1.727917J-0.186082
G02X185.104560Y28.112844Z-1.000000I0.447400J-0.102741
G02X185.241433Y28.172951Z-1.000000I0.136873J-0.125788
G02X185.362720Y28.121154Z-1.000000I0.000000J-0.167901
G02X185.549277Y27.851369Z-1.000000I-0.750229J-0.718180
G02X185.666505Y27.547597Z-1.000000I-1.280709J-0.668740
G02X185.703195Y27.261817Z-1.000000I-1.094624J-0.285780
G01X185.703195Y27.261817Z-1.000000
G00Z5.000000

(End cutting path id: path6646)


(Start cutting path id: path6644)
(Change tool to Default tool)

G00Z5.000000
G00X179.821212Y26.511487

G01Z-1.000000F100.0(Penetrate)
G02X179.752169Y26.083634Z-1.000000I-1.360205J0.000000F30.000000
G02X179.590331Y25.814741Z-1.000000I-0.677085J0.224366
G02X179.341719Y25.629652Z-1.000000I-0.577014J0.515535
G02X178.789941Y25.439576Z-1.000000I-1.164297J2.483954
G03X177.374148Y25.009855Z-1.000000I320.234276J-1057.615610
G03X177.204545Y24.957217Z-1.000000I4.633616J-15.229573
G01X176.204051Y24.662435Z-1.000000
G03X176.207721Y23.268974Z-1.000000I264.562221J0.000001
G03X176.219436Y21.741484Z-1.000000I317.915392J1.674497
G03X176.256750Y20.214197Z-1.000000I178.220966J3.590121
G03X176.296399Y19.061707Z-1.000000I101.520879J2.915665
G03X176.397036Y17.511798Z-1.000000I30.714765J1.216114
G03X176.511887Y16.676699Z-1.000000I9.017701J0.814760
G02X176.663890Y15.845658Z-1.000000I-180.153693J-33.380802
G02X176.681205Y15.738780Z-1.000000I-2.961414J-0.534610
G02X176.631711Y15.490306Z-1.000000I-0.648453J0.000000
G02X176.481102Y15.256421Z-1.000000I-0.722093J0.299556
G02X176.274032Y15.060536Z-1.000000I-0.711985J0.545247
G02X176.127080Y15.015235Z-1.000000I-0.146952J0.215701
G02X176.048924Y15.039759Z-1.000000I0.000000J0.136802
G02X175.973162Y15.122376Z-1.000000I0.146364J0.210265
G02X175.925527Y15.209158Z-1.000000I0.260283J0.199336
G02X175.865414Y15.417146Z-1.000000I1.472712J0.538325
G02X175.793937Y15.795818Z-1.000000I3.416876J0.841043
G02X175.680711Y16.810638Z-1.000000I24.492840J3.246452
G02X175.614345Y17.829551Z-1.000000I48.985898J3.702288
G02X175.557571Y19.061654Z-1.000000I71.575029J3.915470
G02X175.517880Y20.160555Z-1.000000I93.407977J3.923960
G02X175.480608Y21.607439Z-1.000000I161.897869J4.894409
G02X175.468924Y23.081333Z-1.000000I293.483969J3.063521
G02X175.465223Y24.447994Z-1.000000I252.328933J1.366662
G03X174.610100Y24.186135Z-1.000000I4.950427J-17.693175
G03X173.695116Y23.858455Z-1.000000I6.856340J-20.586341
G02X172.875428Y23.585971Z-1.000000I-5.685750J15.734767
G02X172.725407Y23.563672Z-1.000000I-0.150020J0.493503
G02X172.559082Y23.605017Z-1.000000I0.000000J0.355229
G02X172.371394Y23.751261Z-1.000000I0.320577J0.604986
G02X172.262626Y23.954994Z-1.000000I0.456529J0.374630
G02X172.217468Y24.260418Z-1.000000I1.010287J0.305425
G02X172.265743Y24.585100Z-1.000000I1.115975J0.000000
G02X172.356001Y24.715979Z-1.000000I0.250463J-0.076164
G02X172.506692Y24.787504Z-1.000000I0.238980J-0.308983
G02X172.817763Y24.823120Z-1.000000I0.311070J-1.340667
G03X173.045369Y24.845419Z-1.000000I0.000000J1.172725
G03X173.495020Y24.957112Z-1.000000I-0.934161J4.721677
G03X173.940138Y25.121041Z-1.000000I-11.248038J31.228126
G03X174.064530Y25.171486Z-1.000000I-0.936390J2.487626
G02X175.097654Y25.513975Z-1.000000I30.778607J-91.114771
G02X175.465223Y25.627046Z-1.000000I3.713466J-11.417646
G03X175.459350Y26.189701Z-1.000000I-26.957150J0.000000
G03X175.434453Y27.100934Z-1.000000I-70.734402J-1.476704
G02X175.408957Y28.333688Z-1.000000I144.089918J3.596726
G02X175.403683Y28.976772Z-1.000000I39.204466J0.643083
G02X175.413680Y30.021611Z-1.000000I54.607469J-0.000000
G02X175.434453Y30.584638Z-1.000000I15.873874J-0.303781
G02X175.500515Y31.171076Z-1.000000I8.641853J-0.676554
G02X175.588371Y31.629751Z-1.000000I5.370471J-0.790932
G02X175.802063Y32.051990Z-1.000000I0.959688J-0.220497
G02X176.050140Y32.165706Z-1.000000I0.248077J-0.213739
G02X176.173776Y32.139977Z-1.000000I-0.000000J-0.309915
G02X176.234844Y32.085351Z-1.000000I-0.052044J-0.119628
G02X176.264653Y32.000635Z-1.000000I-0.213937J-0.122882
G02X176.280999Y31.790581Z-1.000000I-1.341512J-0.210054
G02X176.274426Y31.630115Z-1.000000I-1.962115J0.000000
G02X176.204036Y30.852662Z-1.000000I-46.202683J3.791254
G03X176.151031Y30.074337Z-1.000000I12.639556J-1.251736
G03X176.127073Y28.789222Z-1.000000I34.455053J-1.285115
G03X176.133930Y27.797792Z-1.000000I71.672290J-0.000000
G03X176.157843Y26.565018Z-1.000000I110.839620J1.533372
G01X176.173228Y25.841473Z-1.000000
G03X176.856559Y26.057246Z-1.000000I-2.264475J8.361305
G03X178.913036Y26.832989Z-1.000000I-27.732249J76.631198
G03X179.002043Y26.915175Z-1.000000I-0.073449J0.168836
G03X179.113139Y27.208154Z-1.000000I-1.086747J0.579643
G02X179.233529Y27.492507Z-1.000000I1.230887J-0.353471
G02X179.297842Y27.529735Z-1.000000I0.064314J-0.036939
G02X179.431749Y27.473153Z-1.000000I-0.000000J-0.186741
G02X179.636471Y27.181356Z-1.000000I-0.805099J-0.782565
G02X179.775673Y26.847650Z-1.000000I-1.245764J-0.715545
G02X179.821174Y26.511421Z-1.000000I-1.219531J-0.336229
G01X179.821212Y26.511487Z-1.000000
G00Z5.000000

(End cutting path id: path6644)


(Start cutting path id: path6644)
(Change tool to Default tool)

G00Z5.000000
G00X179.821212Y26.511487

G01Z-1.000000F100.0(Penetrate)
G02X179.752169Y26.083634Z-1.000000I-1.360205J0.000000F30.000000
G02X179.590331Y25.814741Z-1.000000I-0.677085J0.224366
G02X179.341719Y25.629652Z-1.000000I-0.577014J0.515535
G02X178.789941Y25.439576Z-1.000000I-1.164297J2.483954
G03X177.374148Y25.009855Z-1.000000I320.234276J-1057.615610
G03X177.204545Y24.957217Z-1.000000I4.633616J-15.229573
G01X176.204051Y24.662435Z-1.000000
G03X176.207721Y23.268974Z-1.000000I264.562221J0.000001
G03X176.219436Y21.741484Z-1.000000I317.915392J1.674497
G03X176.256750Y20.214197Z-1.000000I178.220966J3.590121
G03X176.296399Y19.061707Z-1.000000I101.520879J2.915665
G03X176.397036Y17.511798Z-1.000000I30.714765J1.216114
G03X176.511887Y16.676699Z-1.000000I9.017701J0.814760
G02X176.663890Y15.845658Z-1.000000I-180.153693J-33.380802
G02X176.681205Y15.738780Z-1.000000I-2.961414J-0.534610
G02X176.631711Y15.490306Z-1.000000I-0.648453J0.000000
G02X176.481102Y15.256421Z-1.000000I-0.722093J0.299556
G02X176.274032Y15.060536Z-1.000000I-0.711985J0.545247
G02X176.127080Y15.015235Z-1.000000I-0.146952J0.215701
G02X176.048924Y15.039759Z-1.000000I0.000000J0.136802
G02X175.973162Y15.122376Z-1.000000I0.146364J0.210265
G02X175.925527Y15.209158Z-1.000000I0.260283J0.199336
G02X175.865414Y15.417146Z-1.000000I1.472712J0.538325
G02X175.793937Y15.795818Z-1.000000I3.416876J0.841043
G02X175.680711Y16.810638Z-1.000000I24.492840J3.246452
G02X175.614345Y17.829551Z-1.000000I48.985898J3.702288
G02X175.557571Y19.061654Z-1.000000I71.575029J3.915470
G02X175.517880Y20.160555Z-1.000000I93.407977J3.923960
G02X175.480608Y21.607439Z-1.000000I161.897869J4.894409
G02X175.468924Y23.081333Z-1.000000I293.483969J3.063521
G02X175.465223Y24.447994Z-1.000000I252.328933J1.366662
G03X174.610100Y24.186135Z-1.000000I4.950427J-17.693175
G03X173.695116Y23.858455Z-1.000000I6.856340J-20.586341
G02X172.875428Y23.585971Z-1.000000I-5.685750J15.734767
G02X172.725407Y23.563672Z-1.000000I-0.150020J0.493503
G02X172.559082Y23.605017Z-1.000000I0.000000J0.355229
G02X172.371394Y23.751261Z-1.000000I0.320577J0.604986
G02X172.262626Y23.954994Z-1.000000I0.456529J0.374630
G02X172.217468Y24.260418Z-1.000000I1.010287J0.305425
G02X172.265743Y24.585100Z-1.000000I1.115975J0.000000
G02X172.356001Y24.715979Z-1.000000I0.250463J-0.076164
G02X172.506692Y24.787504Z-1.000000I0.238980J-0.308983
G02X172.817763Y24.823120Z-1.000000I0.311070J-1.340667
G03X173.045369Y24.845419Z-1.000000I0.000000J1.172725
G03X173.495020Y24.957112Z-1.000000I-0.934161J4.721677
G03X173.940138Y25.121041Z-1.000000I-11.248038J31.228126
G03X174.064530Y25.171486Z-1.000000I-0.936390J2.487626
G02X175.097654Y25.513975Z-1.000000I30.778607J-91.114771
G02X175.465223Y25.627046Z-1.000000I3.713466J-11.417646
G03X175.459350Y26.189701Z-1.000000I-26.957150J0.000000
G03X175.434453Y27.100934Z-1.000000I-70.734402J-1.476704
G02X175.408957Y28.333688Z-1.000000I144.089918J3.596726
G02X175.403683Y28.976772Z-1.000000I39.204466J0.643083
G02X175.413680Y30.021611Z-1.000000I54.607469J-0.000000
G02X175.434453Y30.584638Z-1.000000I15.873874J-0.303781
G02X175.500515Y31.171076Z-1.000000I8.641853J-0.676554
G02X175.588371Y31.629751Z-1.000000I5.370471J-0.790932
G02X175.802063Y32.051990Z-1.000000I0.959688J-0.220497
G02X176.050140Y32.165706Z-1.000000I0.248077J-0.213739
G02X176.173776Y32.139977Z-1.000000I-0.000000J-0.309915
G02X176.234844Y32.085351Z-1.000000I-0.052044J-0.119628
G02X176.264653Y32.000635Z-1.000000I-0.213937J-0.122882
G02X176.280999Y31.790581Z-1.000000I-1.341512J-0.210054
G02X176.274426Y31.630115Z-1.000000I-1.962115J0.000000
G02X176.204036Y30.852662Z-1.000000I-46.202683J3.791254
G03X176.151031Y30.074337Z-1.000000I12.639556J-1.251736
G03X176.127073Y28.789222Z-1.000000I34.455053J-1.285115
G03X176.133930Y27.797792Z-1.000000I71.672290J-0.000000
G03X176.157843Y26.565018Z-1.000000I110.839620J1.533372
G01X176.173228Y25.841473Z-1.000000
G03X176.856559Y26.057246Z-1.000000I-2.264475J8.361305
G03X178.913036Y26.832989Z-1.000000I-27.732249J76.631198
G03X179.002043Y26.915175Z-1.000000I-0.073449J0.168836
G03X179.113139Y27.208154Z-1.000000I-1.086747J0.579643
G02X179.233529Y27.492507Z-1.000000I1.230887J-0.353471
G02X179.297842Y27.529735Z-1.000000I0.064314J-0.036939
G02X179.431749Y27.473153Z-1.000000I-0.000000J-0.186741
G02X179.636471Y27.181356Z-1.000000I-0.805099J-0.782565
G02X179.775673Y26.847650Z-1.000000I-1.245764J-0.715545
G02X179.821174Y26.511421Z-1.000000I-1.219531J-0.336229
G01X179.821212Y26.511487Z-1.000000
G00Z5.000000

(End cutting path id: path6644)


(Start cutting path id: path6642)
(Change tool to Default tool)

G00Z5.000000
G00X170.651322Y32.192610

G01Z-1.000000F100.0(Penetrate)
G02X170.520244Y31.921725Z-1.000000I-0.345446J0.000000F30.000000
G02X170.143383Y31.790647Z-1.000000I-0.376862J0.476220
G02X169.917490Y31.861552Z-1.000000I0.000000J0.395284
G02X169.604650Y32.165812Z-1.000000I0.767455J1.102055
G02X169.389111Y32.555474Z-1.000000I1.762978J1.229623
G02X169.342984Y32.782163Z-1.000000I0.533962J0.226689
G02X169.381201Y33.066738Z-1.000000I1.078627J-0.000000
G02X169.496910Y33.344917Z-1.000000I1.145513J-0.313323
G02X169.693453Y33.563469Z-1.000000I0.738969J-0.466898
G02X169.835539Y33.612888Z-1.000000I0.142086J-0.179551
G01X169.943279Y33.532532Z-1.000000
G02X170.044179Y33.455087Z-1.000000I-0.104889J-0.241104
G02X170.220338Y33.184152Z-1.000000I-1.328431J-1.056471
G02X170.336430Y32.966209Z-1.000000I-3.351100J-1.924933
G02X170.497396Y32.621398Z-1.000000I-8.233739J-4.053686
G02X170.637824Y32.270183Z-1.000000I-4.847704J-2.141957
G02X170.651322Y32.192637Z-1.000000I-0.216006J-0.077546
G01X170.651322Y32.192610Z-1.000000
G00Z5.000000

(Change tool to Default tool)

G00Z5.000000
G00X171.036129Y15.336816

G01Z-1.000000F100.0(Penetrate)
G02X170.994222Y15.086601Z-1.000000I-0.767949J0.000000F30.000000
G02X170.897595Y14.934840Z-1.000000I-0.365119J0.125831
G02X170.755514Y14.821486Z-1.000000I-0.298874J0.228896
G02X170.605144Y14.800861Z-1.000000I-0.109333J0.238654
G02X170.477119Y14.912309Z-1.000000I0.018743J0.150789
G02X170.281908Y16.006751Z-1.000000I6.295926J1.687610
G02X170.209323Y17.186953Z-1.000000I35.206034J2.757572
G02X170.081812Y20.481984Z-1.000000I274.364928J12.267350
G02X170.023421Y22.652685Z-1.000000I748.169876J21.211590
G02X169.974064Y24.716031Z-1.000000I675.947741J17.201509
G02X169.930985Y26.806312Z-1.000000I710.247979J15.683221
G02X169.912524Y27.931765Z-1.000000I205.880125J3.939957
G02X169.928203Y28.223909Z-1.000000I2.729593J-0.000000
G02X169.958679Y28.360526Z-1.000000I0.621227J-0.066873
G02X170.048843Y28.479713Z-1.000000I0.250690J-0.095947
G02X170.174168Y28.521317Z-1.000000I0.125325J-0.167957
G02X170.431006Y28.404921Z-1.000000I0.000000J-0.341566
G02X170.620544Y28.012160Z-1.000000I-0.614318J-0.538571
G02X170.678832Y27.499938Z-1.000000I-3.837981J-0.696167
G02X170.712900Y26.055914Z-1.000000I-30.586928J-1.444024
G01X170.697515Y22.893777Z-1.000000
G03X170.726291Y20.188014Z-1.000000I127.225497J-0.000000
G03X170.789863Y18.552550Z-1.000000I46.535532J0.989917
G03X170.793097Y18.472331Z-1.000000I0.996357J0.000000
G03X170.928396Y16.837489Z-1.000000I414.628645J33.491404
G02X171.022716Y15.711340Z-1.000000I-47.337262J-4.531725
G02X171.036144Y15.336816Z-1.000000I-5.216224J-0.374524
G01X171.036129Y15.336816Z-1.000000
G00Z5.000000

(End cutting path id: path6642)


(Start cutting path id: path6642)
(Change tool to Default tool)

G00Z5.000000
G00X170.651322Y32.192610

G01Z-1.000000F100.0(Penetrate)
G02X170.520244Y31.921725Z-1.000000I-0.345446J0.000000F30.000000
G02X170.143383Y31.790647Z-1.000000I-0.376862J0.476220
G02X169.917490Y31.861552Z-1.000000I0.000000J0.395284
G02X169.604650Y32.165812Z-1.000000I0.767455J1.102055
G02X169.389111Y32.555474Z-1.000000I1.762978J1.229623
G02X169.342984Y32.782163Z-1.000000I0.533962J0.226689
G02X169.381201Y33.066738Z-1.000000I1.078627J-0.000000
G02X169.496910Y33.344917Z-1.000000I1.145513J-0.313323
G02X169.693453Y33.563469Z-1.000000I0.738969J-0.466898
G02X169.835539Y33.612888Z-1.000000I0.142086J-0.179551
G01X169.943279Y33.532532Z-1.000000
G02X170.044179Y33.455087Z-1.000000I-0.104889J-0.241104
G02X170.220338Y33.184152Z-1.000000I-1.328431J-1.056471
G02X170.336430Y32.966209Z-1.000000I-3.351100J-1.924933
G02X170.497396Y32.621398Z-1.000000I-8.233739J-4.053686
G02X170.637824Y32.270183Z-1.000000I-4.847704J-2.141957
G02X170.651322Y32.192637Z-1.000000I-0.216006J-0.077546
G01X170.651322Y32.192610Z-1.000000
G00Z5.000000

(Change tool to Default tool)

G00Z5.000000
G00X171.036129Y15.336816

G01Z-1.000000F100.0(Penetrate)
G02X170.994222Y15.086601Z-1.000000I-0.767949J0.000000F30.000000
G02X170.897595Y14.934840Z-1.000000I-0.365119J0.125831
G02X170.755514Y14.821486Z-1.000000I-0.298874J0.228896
G02X170.605144Y14.800861Z-1.000000I-0.109333J0.238654
G02X170.477119Y14.912309Z-1.000000I0.018743J0.150789
G02X170.281908Y16.006751Z-1.000000I6.295926J1.687610
G02X170.209323Y17.186953Z-1.000000I35.206034J2.757572
G02X170.081812Y20.481984Z-1.000000I274.364928J12.267350
G02X170.023421Y22.652685Z-1.000000I748.169876J21.211590
G02X169.974064Y24.716031Z-1.000000I675.947741J17.201509
G02X169.930985Y26.806312Z-1.000000I710.247979J15.683221
G02X169.912524Y27.931765Z-1.000000I205.880125J3.939957
G02X169.928203Y28.223909Z-1.000000I2.729593J-0.000000
G02X169.958679Y28.360526Z-1.000000I0.621227J-0.066873
G02X170.048843Y28.479713Z-1.000000I0.250690J-0.095947
G02X170.174168Y28.521317Z-1.000000I0.125325J-0.167957
G02X170.431006Y28.404921Z-1.000000I0.000000J-0.341566
G02X170.620544Y28.012160Z-1.000000I-0.614318J-0.538571
G02X170.678832Y27.499938Z-1.000000I-3.837981J-0.696167
G02X170.712900Y26.055914Z-1.000000I-30.586928J-1.444024
G01X170.697515Y22.893777Z-1.000000
G03X170.726291Y20.188014Z-1.000000I127.225497J-0.000000
G03X170.789863Y18.552550Z-1.000000I46.535532J0.989917
G03X170.793097Y18.472331Z-1.000000I0.996357J0.000000
G03X170.928396Y16.837489Z-1.000000I414.628645J33.491404
G02X171.022716Y15.711340Z-1.000000I-47.337262J-4.531725
G02X171.036144Y15.336816Z-1.000000I-5.216224J-0.374524
G01X171.036129Y15.336816Z-1.000000
G00Z5.000000

(End cutting path id: path6642)


(Start cutting path id: path6640)
(Change tool to Default tool)

G00Z5.000000
G00X168.587324Y21.312709

G01Z-1.000000F100.0(Penetrate)
G02X168.562519Y21.156588Z-1.000000I-0.503703J0.000000F30.000000
G02X168.264088Y20.321194Z-1.000000I-15.081101J4.916471
G02X167.938632Y19.497961Z-1.000000I-19.217679J7.121539
G02X167.633008Y18.820521Z-1.000000I-13.315858J5.599735
G02X166.779990Y17.163087Z-1.000000I-25.837000J12.249101
G02X166.186145Y16.221138Z-1.000000I-8.915273J4.962402
G02X165.458066Y15.495198Z-1.000000I-2.346349J1.625179
G02X164.862415Y15.310018Z-1.000000I-0.595651J0.865398
G02X164.395980Y15.490765Z-1.000000I0.000000J0.692214
G02X163.892714Y16.194340Z-1.000000I1.394838J1.529506
G02X163.625123Y17.099075Z-1.000000I4.033274J1.684848
G02X163.523300Y18.230968Z-1.000000I6.240279J1.131893
G02X163.625694Y19.935926Z-1.000000I14.245674J-0.000000
G02X164.046632Y22.572209Z-1.000000I34.552322J-4.165246
G02X164.680381Y25.164842Z-1.000000I30.415105J-6.060968
G02X165.370362Y27.127825Z-1.000000I18.100190J-5.259392
G02X166.361864Y28.771091Z-1.000000I5.944270J-2.465854
G02X166.971150Y29.057273Z-1.000000I0.609287J-0.505502
G02X167.255842Y28.964102Z-1.000000I-0.000000J-0.481537
G02X167.556053Y28.628511Z-1.000000I-0.643270J-0.877527
G02X167.677357Y28.379854Z-1.000000I-1.779157J-1.021861
G02X167.817719Y27.985361Z-1.000000I-4.353003J-1.771024
G02X167.914023Y27.579381Z-1.000000I-3.102268J-0.950314
G02X167.940852Y27.261817Z-1.000000I-1.866047J-0.317564
G02X167.924556Y26.807270Z-1.000000I-6.347688J0.000000
G02X167.863896Y26.189906Z-1.000000I-11.777135J0.845511
G02X167.770287Y25.635945Z-1.000000I-4.410227J0.460358
G01X167.725363Y25.600353Z-1.000000
G02X167.619453Y25.656467Z-1.000000I0.000000J0.128005
G02X167.525268Y25.895136Z-1.000000I0.485354J0.329454
G02X167.490027Y26.190941Z-1.000000I4.005962J0.627253
G02X167.463728Y26.645466Z-1.000000I9.439480J0.774200
G03X167.405498Y27.340520Z-1.000000I-19.959141J-1.322165
G03X167.371372Y27.556600Z-1.000000I-1.957597J-0.198428
G03X167.295320Y27.761611Z-1.000000I-0.649322J-0.124265
G03X167.232847Y27.797772Z-1.000000I-0.062473J-0.035883
G03X166.690013Y27.535226Z-1.000000I0.000000J-0.692448
G03X165.832154Y26.029128Z-1.000000I4.485187J-3.552082
G03X165.249478Y24.260399Z-1.000000I16.509239J-6.419010
G03X164.723920Y21.955859Z-1.000000I27.536576J-7.492009
G03X164.368389Y19.644251Z-1.000000I35.629508J-6.663052
G03X164.292935Y18.391759Z-1.000000I10.357705J-1.252492
G03X164.568947Y16.899113Z-1.000000I4.174053J-0.000000
G03X164.970193Y16.623102Z-1.000000I0.401246J0.153646
G03X165.418395Y16.725152Z-1.000000I-0.000000J1.035274
G03X165.862939Y17.051864Z-1.000000I-0.645598J1.344232
G03X166.242937Y17.507449Z-1.000000I-2.857725J2.769859
G03X166.724900Y18.257767Z-1.000000I-7.315795J5.229216
G03X167.523051Y19.748012Z-1.000000I-33.809215J19.066518
G03X168.017845Y20.803552Z-1.000000I-16.456605J8.357925
G02X168.049928Y20.883374Z-1.000000I2.437458J-0.933356
G02X168.187163Y21.205529Z-1.000000I39.852288J-16.786346
G02X168.357480Y21.528722Z-1.000000I2.424725J-1.071311
G02X168.402651Y21.553895Z-1.000000I0.045172J-0.027942
G02X168.526303Y21.492844Z-1.000000I0.000000J-0.155746
G02X168.587354Y21.312709Z-1.000000I-0.235220J-0.180134
G01X168.587324Y21.312709Z-1.000000
G00Z5.000000

(End cutting path id: path6640)


(Start cutting path id: path6640)
(Change tool to Default tool)

G00Z5.000000
G00X168.587324Y21.312709

G01Z-1.000000F100.0(Penetrate)
G02X168.562519Y21.156588Z-1.000000I-0.503703J0.000000F30.000000
G02X168.264088Y20.321194Z-1.000000I-15.081101J4.916471
G02X167.938632Y19.497961Z-1.000000I-19.217679J7.121539
G02X167.633008Y18.820521Z-1.000000I-13.315858J5.599735
G02X166.779990Y17.163087Z-1.000000I-25.837000J12.249101
G02X166.186145Y16.221138Z-1.000000I-8.915273J4.962402
G02X165.458066Y15.495198Z-1.000000I-2.346349J1.625179
G02X164.862415Y15.310018Z-1.000000I-0.595651J0.865398
G02X164.395980Y15.490765Z-1.000000I0.000000J0.692214
G02X163.892714Y16.194340Z-1.000000I1.394838J1.529506
G02X163.625123Y17.099075Z-1.000000I4.033274J1.684848
G02X163.523300Y18.230968Z-1.000000I6.240279J1.131893
G02X163.625694Y19.935926Z-1.000000I14.245674J-0.000000
G02X164.046632Y22.572209Z-1.000000I34.552322J-4.165246
G02X164.680381Y25.164842Z-1.000000I30.415105J-6.060968
G02X165.370362Y27.127825Z-1.000000I18.100190J-5.259392
G02X166.361864Y28.771091Z-1.000000I5.944270J-2.465854
G02X166.971150Y29.057273Z-1.000000I0.609287J-0.505502
G02X167.255842Y28.964102Z-1.000000I-0.000000J-0.481537
G02X167.556053Y28.628511Z-1.000000I-0.643270J-0.877527
G02X167.677357Y28.379854Z-1.000000I-1.779157J-1.021861
G02X167.817719Y27.985361Z-1.000000I-4.353003J-1.771024
G02X167.914023Y27.579381Z-1.000000I-3.102268J-0.950314
G02X167.940852Y27.261817Z-1.000000I-1.866047J-0.317564
G02X167.924556Y26.807270Z-1.000000I-6.347688J0.000000
G02X167.863896Y26.189906Z-1.000000I-11.777135J0.845511
G02X167.770287Y25.635945Z-1.000000I-4.410227J0.460358
G01X167.725363Y25.600353Z-1.000000
G02X167.619453Y25.656467Z-1.000000I0.000000J0.128005
G02X167.525268Y25.895136Z-1.000000I0.485354J0.329454
G02X167.490027Y26.190941Z-1.000000I4.005962J0.627253
G02X167.463728Y26.645466Z-1.000000I9.439480J0.774200
G03X167.405498Y27.340520Z-1.000000I-19.959141J-1.322165
G03X167.371372Y27.556600Z-1.000000I-1.957597J-0.198428
G03X167.295320Y27.761611Z-1.000000I-0.649322J-0.124265
G03X167.232847Y27.797772Z-1.000000I-0.062473J-0.035883
G03X166.690013Y27.535226Z-1.000000I0.000000J-0.692448
G03X165.832154Y26.029128Z-1.000000I4.485187J-3.552082
G03X165.249478Y24.260399Z-1.000000I16.509239J-6.419010
G03X164.723920Y21.955859Z-1.000000I27.536576J-7.492009
G03X164.368389Y19.644251Z-1.000000I35.629508J-6.663052
G03X164.292935Y18.391759Z-1.000000I10.357705J-1.252492
G03X164.568947Y16.899113Z-1.000000I4.174053J-0.000000
G03X164.970193Y16.623102Z-1.000000I0.401246J0.153646
G03X165.418395Y16.725152Z-1.000000I-0.000000J1.035274
G03X165.862939Y17.051864Z-1.000000I-0.645598J1.344232
G03X166.242937Y17.507449Z-1.000000I-2.857725J2.769859
G03X166.724900Y18.257767Z-1.000000I-7.315795J5.229216
G03X167.523051Y19.748012Z-1.000000I-33.809215J19.066518
G03X168.017845Y20.803552Z-1.000000I-16.456605J8.357925
G02X168.049928Y20.883374Z-1.000000I2.437458J-0.933356
G02X168.187163Y21.205529Z-1.000000I39.852288J-16.786346
G02X168.357480Y21.528722Z-1.000000I2.424725J-1.071311
G02X168.402651Y21.553895Z-1.000000I0.045172J-0.027942
G02X168.526303Y21.492844Z-1.000000I0.000000J-0.155746
G02X168.587354Y21.312709Z-1.000000I-0.235220J-0.180134
G01X168.587324Y21.312709Z-1.000000
G00Z5.000000

(End cutting path id: path6640)


(Start cutting path id: path6636)
(Change tool to Default tool)

G00Z5.000000
G00X159.462641Y26.699063

G01Z-1.000000F100.0(Penetrate)
G02X159.422995Y26.469218Z-1.000000I-0.686068J0.000000F30.000000
G02X159.262546Y26.136309Z-1.000000I-1.622836J0.577024
G02X159.053372Y25.885738Z-1.000000I-1.021280J0.639962
G02X158.939309Y25.841539Z-1.000000I-0.114062J0.125077
G02X158.847777Y25.871925Z-1.000000I-0.000000J0.153060
G02X158.723814Y26.002330Z-1.000000I0.318565J0.426949
G02X158.638078Y26.166371Z-1.000000I2.018415J1.159343
G02X158.508325Y26.457890Z-1.000000I6.253400J2.957973
G03X158.377736Y26.710892Z-1.000000I-1.404066J-0.564518
G03X158.215874Y26.913450Z-1.000000I-1.056141J-0.677999
G03X158.028185Y27.059694Z-1.000000I-0.508253J-0.458729
G03X157.861853Y27.101039Z-1.000000I-0.166332J-0.313905
G03X157.543498Y26.917950Z-1.000000I0.000000J-0.368321
G03X156.661263Y25.037600Z-1.000000I10.183028J-5.924882
G03X155.985061Y22.977551Z-1.000000I27.116232J-10.041798
G03X155.183615Y19.892432Z-1.000000I60.067161J-17.250775
G03X155.200458Y19.276123Z-1.000000I130.288411J3.252182
G03X155.229770Y18.338162Z-1.000000I301.802097J8.962191
G02X155.273562Y17.400145Z-1.000000I-186.233479J-9.164543
G02X155.291310Y16.944683Z-1.000000I-43.889091J-1.938265
G01X155.337465Y15.872772Z-1.000000
G02X155.310984Y15.502029Z-1.000000I-2.608494J-0.000000
G02X155.245117Y15.229623Z-1.000000I-1.467954J0.210779
G02X155.099650Y15.007137Z-1.000000I-0.466328J0.146101
G02X154.906488Y14.934840Z-1.000000I-0.193162J0.221892
G02X154.753560Y15.050739Z-1.000000I0.000000J0.158843
G02X154.567859Y16.140743Z-1.000000I5.077967J1.425940
G02X154.513391Y17.374221Z-1.000000I33.812584J2.111064
G02X154.475504Y19.704843Z-1.000000I120.705583J3.127805
G02X154.462438Y20.294442Z-1.000000I74.945471J1.955780
G02X154.444734Y21.393105Z-1.000000I260.217385J4.742677
G03X154.438298Y22.491749Z-1.000000I-93.774469J0.000000
G03X154.413964Y24.019285Z-1.000000I-181.308661J-2.124325
G02X154.374750Y26.323968Z-1.000000I382.647305J7.663356
G02X154.367809Y27.315414Z-1.000000I70.803541J0.991446
G02X154.515431Y27.784142Z-1.000000I0.817963J0.000000
G02X154.798786Y27.931765Z-1.000000I0.283355J-0.198133
G02X154.980467Y27.842065Z-1.000000I0.000000J-0.228840
G02X155.106629Y27.529801Z-1.000000I-0.501954J-0.384422
G02X155.145281Y27.152758Z-1.000000I-3.096760J-0.507957
G02X155.168169Y26.055914Z-1.000000I-26.269540J-1.096845
G01X155.168169Y21.795068Z-1.000000
G02X155.684300Y23.842734Z-1.000000I38.515040J-8.619133
G02X156.168663Y25.359181Z-1.000000I21.594626J-6.061899
G02X156.768967Y26.829208Z-1.000000I17.369238J-6.235360
G02X157.215327Y27.636995Z-1.000000I5.664867J-2.603027
G02X157.806183Y28.316409Z-1.000000I2.728375J-1.776115
G02X158.138858Y28.440922Z-1.000000I0.332676J-0.382170
G02X158.454009Y28.378192Z-1.000000I0.000000J-0.823022
G02X158.785331Y28.172951Z-1.000000I-0.463617J-1.118463
G02X159.053638Y27.876101Z-1.000000I-1.101230J-1.265024
G02X159.277885Y27.476204Z-1.000000I-1.798042J-1.271099
G02X159.419716Y27.064862Z-1.000000I-2.006247J-0.921875
G02X159.462588Y26.699063Z-1.000000I-1.539107J-0.365799
G01X159.462641Y26.699063Z-1.000000
G00Z5.000000

(End cutting path id: path6636)


(Start cutting path id: path6636)
(Change tool to Default tool)

G00Z5.000000
G00X159.462641Y26.699063

G01Z-1.000000F100.0(Penetrate)
G02X159.422995Y26.469218Z-1.000000I-0.686068J0.000000F30.000000
G02X159.262546Y26.136309Z-1.000000I-1.622836J0.577024
G02X159.053372Y25.885738Z-1.000000I-1.021280J0.639962
G02X158.939309Y25.841539Z-1.000000I-0.114062J0.125077
G02X158.847777Y25.871925Z-1.000000I-0.000000J0.153060
G02X158.723814Y26.002330Z-1.000000I0.318565J0.426949
G02X158.638078Y26.166371Z-1.000000I2.018415J1.159343
G02X158.508325Y26.457890Z-1.000000I6.253400J2.957973
G03X158.377736Y26.710892Z-1.000000I-1.404066J-0.564518
G03X158.215874Y26.913450Z-1.000000I-1.056141J-0.677999
G03X158.028185Y27.059694Z-1.000000I-0.508253J-0.458729
G03X157.861853Y27.101039Z-1.000000I-0.166332J-0.313905
G03X157.543498Y26.917950Z-1.000000I0.000000J-0.368321
G03X156.661263Y25.037600Z-1.000000I10.183028J-5.924882
G03X155.985061Y22.977551Z-1.000000I27.116232J-10.041798
G03X155.183615Y19.892432Z-1.000000I60.067161J-17.250775
G03X155.200458Y19.276123Z-1.000000I130.288411J3.252182
G03X155.229770Y18.338162Z-1.000000I301.802097J8.962191
G02X155.273562Y17.400145Z-1.000000I-186.233479J-9.164543
G02X155.291310Y16.944683Z-1.000000I-43.889091J-1.938265
G01X155.337465Y15.872772Z-1.000000
G02X155.310984Y15.502029Z-1.000000I-2.608494J-0.000000
G02X155.245117Y15.229623Z-1.000000I-1.467954J0.210779
G02X155.099650Y15.007137Z-1.000000I-0.466328J0.146101
G02X154.906488Y14.934840Z-1.000000I-0.193162J0.221892
G02X154.753560Y15.050739Z-1.000000I0.000000J0.158843
G02X154.567859Y16.140743Z-1.000000I5.077967J1.425940
G02X154.513391Y17.374221Z-1.000000I33.812584J2.111064
G02X154.475504Y19.704843Z-1.000000I120.705583J3.127805
G02X154.462438Y20.294442Z-1.000000I74.945471J1.955780
G02X154.444734Y21.393105Z-1.000000I260.217385J4.742677
G03X154.438298Y22.491749Z-1.000000I-93.774469J0.000000
G03X154.413964Y24.019285Z-1.000000I-181.308661J-2.124325
G02X154.374750Y26.323968Z-1.000000I382.647305J7.663356
G02X154.367809Y27.315414Z-1.000000I70.803541J0.991446
G02X154.515431Y27.784142Z-1.000000I0.817963J0.000000
G02X154.798786Y27.931765Z-1.000000I0.283355J-0.198133
G02X154.980467Y27.842065Z-1.000000I0.000000J-0.228840
G02X155.106629Y27.529801Z-1.000000I-0.501954J-0.384422
G02X155.145281Y27.152758Z-1.000000I-3.096760J-0.507957
G02X155.168169Y26.055914Z-1.000000I-26.269540J-1.096845
G01X155.168169Y21.795068Z-1.000000
G02X155.684300Y23.842734Z-1.000000I38.515040J-8.619133
G02X156.168663Y25.359181Z-1.000000I21.594626J-6.061899
G02X156.768967Y26.829208Z-1.000000I17.369238J-6.235360
G02X157.215327Y27.636995Z-1.000000I5.664867J-2.603027
G02X157.806183Y28.316409Z-1.000000I2.728375J-1.776115
G02X158.138858Y28.440922Z-1.000000I0.332676J-0.382170
G02X158.454009Y28.378192Z-1.000000I0.000000J-0.823022
G02X158.785331Y28.172951Z-1.000000I-0.463617J-1.118463
G02X159.053638Y27.876101Z-1.000000I-1.101230J-1.265024
G02X159.277885Y27.476204Z-1.000000I-1.798042J-1.271099
G02X159.419716Y27.064862Z-1.000000I-2.006247J-0.921875
G02X159.462588Y26.699063Z-1.000000I-1.539107J-0.365799
G01X159.462641Y26.699063Z-1.000000
G00Z5.000000

(End cutting path id: path6636)


(Start cutting path id: path6638)
(Change tool to Default tool)

G00Z5.000000
G00X161.572340Y32.192610

G01Z-1.000000F100.0(Penetrate)
G02X161.441261Y31.921725Z-1.000000I-0.345443J0.000000F30.000000
G02X161.064393Y31.790647Z-1.000000I-0.376869J0.476236
G02X160.838507Y31.861550Z-1.000000I0.000000J0.395268
G02X160.525668Y32.165812Z-1.000000I0.767478J1.102074
G02X160.310129Y32.555474Z-1.000000I1.762978J1.229623
G02X160.264002Y32.782163Z-1.000000I0.533962J0.226689
G02X160.302219Y33.066738Z-1.000000I1.078627J-0.000000
G02X160.417928Y33.344917Z-1.000000I1.145513J-0.313323
G02X160.614470Y33.563471Z-1.000000I0.738994J-0.466914
G02X160.756549Y33.612888Z-1.000000I0.142079J-0.179538
G01X160.864297Y33.532532Z-1.000000
G02X160.965196Y33.455087Z-1.000000I-0.104889J-0.241104
G02X161.141355Y33.184152Z-1.000000I-1.328431J-1.056471
G02X161.257448Y32.966209Z-1.000000I-3.351100J-1.924933
G02X161.418414Y32.621398Z-1.000000I-8.233739J-4.053686
G02X161.558842Y32.270183Z-1.000000I-4.847704J-2.141957
G02X161.572340Y32.192637Z-1.000000I-0.216006J-0.077546
G01X161.572340Y32.192610Z-1.000000
G00Z5.000000

(Change tool to Default tool)

G00Z5.000000
G00X161.957146Y15.336816

G01Z-1.000000F100.0(Penetrate)
G02X161.915240Y15.086601Z-1.000000I-0.767949J-0.000000F30.000000
G02X161.818613Y14.934840Z-1.000000I-0.365119J0.125831
G02X161.676526Y14.821484Z-1.000000I-0.298895J0.228925
G02X161.526162Y14.800861Z-1.000000I-0.109327J0.238641
G02X161.398137Y14.912309Z-1.000000I0.018743J0.150789
G02X161.202926Y16.006751Z-1.000000I6.295926J1.687610
G02X161.130341Y17.186953Z-1.000000I35.206034J2.757572
G02X161.002830Y20.481984Z-1.000000I274.364928J12.267350
G02X160.944439Y22.652685Z-1.000000I748.169876J21.211587
G02X160.895082Y24.716031Z-1.000000I675.947741J17.201512
G02X160.852003Y26.806312Z-1.000000I710.247979J15.683225
G02X160.833542Y27.931765Z-1.000000I205.880125J3.939956
G02X160.849221Y28.223909Z-1.000000I2.729593J0.000000
G02X160.879697Y28.360526Z-1.000000I0.621227J-0.066873
G02X160.969861Y28.479713Z-1.000000I0.250690J-0.095947
G02X161.095185Y28.521317Z-1.000000I0.125325J-0.167957
G02X161.352024Y28.404921Z-1.000000I0.000000J-0.341566
G02X161.541562Y28.012160Z-1.000000I-0.614318J-0.538571
G02X161.599850Y27.499938Z-1.000000I-3.837981J-0.696167
G02X161.633917Y26.055914Z-1.000000I-30.586928J-1.444024
G01X161.618533Y22.893777Z-1.000000
G03X161.647308Y20.188014Z-1.000000I127.225497J-0.000000
G03X161.710880Y18.552550Z-1.000000I46.535532J0.989917
G03X161.714115Y18.472331Z-1.000000I0.996357J-0.000000
G03X161.849413Y16.837489Z-1.000000I414.628645J33.491404
G02X161.943733Y15.711340Z-1.000000I-47.337262J-4.531725
G02X161.957161Y15.336816Z-1.000000I-5.216224J-0.374524
G01X161.957146Y15.336816Z-1.000000
G00Z5.000000

(End cutting path id: path6638)


(Start cutting path id: path6638)
(Change tool to Default tool)

G00Z5.000000
G00X161.572340Y32.192610

G01Z-1.000000F100.0(Penetrate)
G02X161.441261Y31.921725Z-1.000000I-0.345443J0.000000F30.000000
G02X161.064393Y31.790647Z-1.000000I-0.376869J0.476236
G02X160.838507Y31.861550Z-1.000000I0.000000J0.395268
G02X160.525668Y32.165812Z-1.000000I0.767478J1.102074
G02X160.310129Y32.555474Z-1.000000I1.762978J1.229623
G02X160.264002Y32.782163Z-1.000000I0.533962J0.226689
G02X160.302219Y33.066738Z-1.000000I1.078627J-0.000000
G02X160.417928Y33.344917Z-1.000000I1.145513J-0.313323
G02X160.614470Y33.563471Z-1.000000I0.738994J-0.466914
G02X160.756549Y33.612888Z-1.000000I0.142079J-0.179538
G01X160.864297Y33.532532Z-1.000000
G02X160.965196Y33.455087Z-1.000000I-0.104889J-0.241104
G02X161.141355Y33.184152Z-1.000000I-1.328431J-1.056471
G02X161.257448Y32.966209Z-1.000000I-3.351100J-1.924933
G02X161.418414Y32.621398Z-1.000000I-8.233739J-4.053686
G02X161.558842Y32.270183Z-1.000000I-4.847704J-2.141957
G02X161.572340Y32.192637Z-1.000000I-0.216006J-0.077546
G01X161.572340Y32.192610Z-1.000000
G00Z5.000000

(Change tool to Default tool)

G00Z5.000000
G00X161.957146Y15.336816

G01Z-1.000000F100.0(Penetrate)
G02X161.915240Y15.086601Z-1.000000I-0.767949J-0.000000F30.000000
G02X161.818613Y14.934840Z-1.000000I-0.365119J0.125831
G02X161.676526Y14.821484Z-1.000000I-0.298895J0.228925
G02X161.526162Y14.800861Z-1.000000I-0.109327J0.238641
G02X161.398137Y14.912309Z-1.000000I0.018743J0.150789
G02X161.202926Y16.006751Z-1.000000I6.295926J1.687610
G02X161.130341Y17.186953Z-1.000000I35.206034J2.757572
G02X161.002830Y20.481984Z-1.000000I274.364928J12.267350
G02X160.944439Y22.652685Z-1.000000I748.169876J21.211587
G02X160.895082Y24.716031Z-1.000000I675.947741J17.201512
G02X160.852003Y26.806312Z-1.000000I710.247979J15.683225
G02X160.833542Y27.931765Z-1.000000I205.880125J3.939956
G02X160.849221Y28.223909Z-1.000000I2.729593J0.000000
G02X160.879697Y28.360526Z-1.000000I0.621227J-0.066873
G02X160.969861Y28.479713Z-1.000000I0.250690J-0.095947
G02X161.095185Y28.521317Z-1.000000I0.125325J-0.167957
G02X161.352024Y28.404921Z-1.000000I0.000000J-0.341566
G02X161.541562Y28.012160Z-1.000000I-0.614318J-0.538571
G02X161.599850Y27.499938Z-1.000000I-3.837981J-0.696167
G02X161.633917Y26.055914Z-1.000000I-30.586928J-1.444024
G01X161.618533Y22.893777Z-1.000000
G03X161.647308Y20.188014Z-1.000000I127.225497J-0.000000
G03X161.710880Y18.552550Z-1.000000I46.535532J0.989917
G03X161.714115Y18.472331Z-1.000000I0.996357J-0.000000
G03X161.849413Y16.837489Z-1.000000I414.628645J33.491404
G02X161.943733Y15.711340Z-1.000000I-47.337262J-4.531725
G02X161.957161Y15.336816Z-1.000000I-5.216224J-0.374524
G01X161.957146Y15.336816Z-1.000000
G00Z5.000000

(End cutting path id: path6638)


(Start cutting path id: path6634)
(Change tool to Default tool)

G00Z5.000000
G00X153.395963Y26.511487

G01Z-1.000000F100.0(Penetrate)
G02X153.326920Y26.083634Z-1.000000I-1.360205J-0.000000F30.000000
G02X153.165082Y25.814741Z-1.000000I-0.677085J0.224366
G02X152.916470Y25.629652Z-1.000000I-0.577014J0.515535
G02X152.364692Y25.439576Z-1.000000I-1.164297J2.483954
G03X150.948899Y25.009855Z-1.000000I320.234276J-1057.615610
G03X150.779296Y24.957217Z-1.000000I4.633616J-15.229573
G01X149.778802Y24.662435Z-1.000000
G03X149.782472Y23.268974Z-1.000000I264.562222J0.000001
G03X149.794187Y21.741484Z-1.000000I317.915392J1.674497
G03X149.831501Y20.214197Z-1.000000I178.220966J3.590121
G03X149.871150Y19.061707Z-1.000000I101.520879J2.915665
G03X149.971787Y17.511798Z-1.000000I30.714765J1.216114
G03X150.086638Y16.676699Z-1.000000I9.017701J0.814760
G02X150.238641Y15.845658Z-1.000000I-180.153693J-33.380802
G02X150.255956Y15.738780Z-1.000000I-2.961414J-0.534610
G02X150.206462Y15.490306Z-1.000000I-0.648453J-0.000000
G02X150.055853Y15.256421Z-1.000000I-0.722093J0.299556
G02X149.848783Y15.060536Z-1.000000I-0.711985J0.545247
G02X149.701831Y15.015235Z-1.000000I-0.146952J0.215701
G02X149.623675Y15.039759Z-1.000000I0.000000J0.136802
G02X149.547913Y15.122376Z-1.000000I0.146364J0.210265
G02X149.500278Y15.209158Z-1.000000I0.260283J0.199336
G02X149.440165Y15.417146Z-1.000000I1.472712J0.538325
G02X149.368688Y15.795818Z-1.000000I3.416876J0.841043
G02X149.255462Y16.810638Z-1.000000I24.492840J3.246452
G02X149.189096Y17.829551Z-1.000000I48.985898J3.702288
G02X149.132322Y19.061654Z-1.000000I71.575029J3.915470
G02X149.092632Y20.160555Z-1.000000I93.384360J3.922968
G02X149.055367Y21.607439Z-1.000000I161.856916J4.892689
G02X149.043683Y23.081333Z-1.000000I293.483969J3.063521
G02X149.039982Y24.447994Z-1.000000I252.328933J1.366662
G03X148.184858Y24.186135Z-1.000000I4.950427J-17.693175
G03X147.269875Y23.858455Z-1.000000I6.856340J-20.586341
G02X146.450187Y23.585970Z-1.000000I-5.685990J15.735432
G02X146.300174Y23.563672Z-1.000000I-0.150013J0.493474
G02X146.133841Y23.605018Z-1.000000I-0.000000J0.355250
G02X145.946152Y23.751261Z-1.000000I0.320563J0.604973
G02X145.837384Y23.954994Z-1.000000I0.456529J0.374630
G02X145.792227Y24.260418Z-1.000000I1.010287J0.305425
G02X145.840502Y24.585100Z-1.000000I1.115975J-0.000000
G02X145.930760Y24.715979Z-1.000000I0.250463J-0.076164
G02X146.081451Y24.787504Z-1.000000I0.238980J-0.308983
G02X146.392521Y24.823120Z-1.000000I0.311070J-1.340667
G03X146.620128Y24.845419Z-1.000000I-0.000000J1.172725
G03X147.069779Y24.957112Z-1.000000I-0.934161J4.721677
G03X147.514903Y25.121042Z-1.000000I-11.243777J31.216826
G03X147.639289Y25.171486Z-1.000000I-0.935924J2.486388
G02X148.672412Y25.513975Z-1.000000I30.778607J-91.114771
G02X149.039982Y25.627046Z-1.000000I3.713466J-11.417646
G03X149.034109Y26.189701Z-1.000000I-26.957150J0.000000
G03X149.009212Y27.100934Z-1.000000I-70.734402J-1.476704
G02X148.983716Y28.333688Z-1.000000I144.089918J3.596726
G02X148.978442Y28.976772Z-1.000000I39.204466J0.643083
G02X148.988438Y30.021611Z-1.000000I54.607469J-0.000000
G02X149.009212Y30.584638Z-1.000000I15.873874J-0.303781
G02X149.075273Y31.171076Z-1.000000I8.641853J-0.676554
G02X149.163130Y31.629751Z-1.000000I5.370471J-0.790932
G02X149.376822Y32.051990Z-1.000000I0.959688J-0.220497
G02X149.624899Y32.165706Z-1.000000I0.248077J-0.213739
G02X149.748535Y32.139977Z-1.000000I0.000000J-0.309915
G02X149.809602Y32.085351Z-1.000000I-0.052044J-0.119628
G02X149.839412Y32.000635Z-1.000000I-0.213937J-0.122882
G02X149.855757Y31.790581Z-1.000000I-1.341512J-0.210054
G02X149.849184Y31.630115Z-1.000000I-1.962115J0.000000
G02X149.778794Y30.852662Z-1.000000I-46.202683J3.791254
G03X149.725789Y30.074337Z-1.000000I12.639556J-1.251736
G03X149.701831Y28.789222Z-1.000000I34.455053J-1.285115
G03X149.708689Y27.797792Z-1.000000I71.672290J-0.000000
G03X149.732601Y26.565018Z-1.000000I110.839620J1.533372
G01X149.747986Y25.841473Z-1.000000
G03X150.431318Y26.057246Z-1.000000I-2.264475J8.361305
G03X152.487794Y26.832989Z-1.000000I-27.732249J76.631198
G03X152.576801Y26.915175Z-1.000000I-0.073449J0.168836
G03X152.687898Y27.208154Z-1.000000I-1.086747J0.579643
G02X152.808287Y27.492507Z-1.000000I1.230887J-0.353471
G02X152.872601Y27.529735Z-1.000000I0.064314J-0.036939
G02X153.006507Y27.473153Z-1.000000I0.000000J-0.186741
G02X153.211230Y27.181356Z-1.000000I-0.805099J-0.782565
G02X153.350432Y26.847650Z-1.000000I-1.245764J-0.715545
G02X153.395933Y26.511421Z-1.000000I-1.219531J-0.336229
G01X153.395963Y26.511487Z-1.000000
G00Z5.000000

(End cutting path id: path6634)


(Start cutting path id: path6634)
(Change tool to Default tool)

G00Z5.000000
G00X153.395963Y26.511487

G01Z-1.000000F100.0(Penetrate)
G02X153.326920Y26.083634Z-1.000000I-1.360205J-0.000000F30.000000
G02X153.165082Y25.814741Z-1.000000I-0.677085J0.224366
G02X152.916470Y25.629652Z-1.000000I-0.577014J0.515535
G02X152.364692Y25.439576Z-1.000000I-1.164297J2.483954
G03X150.948899Y25.009855Z-1.000000I320.234276J-1057.615610
G03X150.779296Y24.957217Z-1.000000I4.633616J-15.229573
G01X149.778802Y24.662435Z-1.000000
G03X149.782472Y23.268974Z-1.000000I264.562222J0.000001
G03X149.794187Y21.741484Z-1.000000I317.915392J1.674497
G03X149.831501Y20.214197Z-1.000000I178.220966J3.590121
G03X149.871150Y19.061707Z-1.000000I101.520879J2.915665
G03X149.971787Y17.511798Z-1.000000I30.714765J1.216114
G03X150.086638Y16.676699Z-1.000000I9.017701J0.814760
G02X150.238641Y15.845658Z-1.000000I-180.153693J-33.380802
G02X150.255956Y15.738780Z-1.000000I-2.961414J-0.534610
G02X150.206462Y15.490306Z-1.000000I-0.648453J-0.000000
G02X150.055853Y15.256421Z-1.000000I-0.722093J0.299556
G02X149.848783Y15.060536Z-1.000000I-0.711985J0.545247
G02X149.701831Y15.015235Z-1.000000I-0.146952J0.215701
G02X149.623675Y15.039759Z-1.000000I0.000000J0.136802
G02X149.547913Y15.122376Z-1.000000I0.146364J0.210265
G02X149.500278Y15.209158Z-1.000000I0.260283J0.199336
G02X149.440165Y15.417146Z-1.000000I1.472712J0.538325
G02X149.368688Y15.795818Z-1.000000I3.416876J0.841043
G02X149.255462Y16.810638Z-1.000000I24.492840J3.246452
G02X149.189096Y17.829551Z-1.000000I48.985898J3.702288
G02X149.132322Y19.061654Z-1.000000I71.575029J3.915470
G02X149.092632Y20.160555Z-1.000000I93.384360J3.922968
G02X149.055367Y21.607439Z-1.000000I161.856916J4.892689
G02X149.043683Y23.081333Z-1.000000I293.483969J3.063521
G02X149.039982Y24.447994Z-1.000000I252.328933J1.366662
G03X148.184858Y24.186135Z-1.000000I4.950427J-17.693175
G03X147.269875Y23.858455Z-1.000000I6.856340J-20.586341
G02X146.450187Y23.585970Z-1.000000I-5.685990J15.735432
G02X146.300174Y23.563672Z-1.000000I-0.150013J0.493474
G02X146.133841Y23.605018Z-1.000000I-0.000000J0.355250
G02X145.946152Y23.751261Z-1.000000I0.320563J0.604973
G02X145.837384Y23.954994Z-1.000000I0.456529J0.374630
G02X145.792227Y24.260418Z-1.000000I1.010287J0.305425
G02X145.840502Y24.585100Z-1.000000I1.115975J-0.000000
G02X145.930760Y24.715979Z-1.000000I0.250463J-0.076164
G02X146.081451Y24.787504Z-1.000000I0.238980J-0.308983
G02X146.392521Y24.823120Z-1.000000I0.311070J-1.340667
G03X146.620128Y24.845419Z-1.000000I-0.000000J1.172725
G03X147.069779Y24.957112Z-1.000000I-0.934161J4.721677
G03X147.514903Y25.121042Z-1.000000I-11.243777J31.216826
G03X147.639289Y25.171486Z-1.000000I-0.935924J2.486388
G02X148.672412Y25.513975Z-1.000000I30.778607J-91.114771
G02X149.039982Y25.627046Z-1.000000I3.713466J-11.417646
G03X149.034109Y26.189701Z-1.000000I-26.957150J0.000000
G03X149.009212Y27.100934Z-1.000000I-70.734402J-1.476704
G02X148.983716Y28.333688Z-1.000000I144.089918J3.596726
G02X148.978442Y28.976772Z-1.000000I39.204466J0.643083
G02X148.988438Y30.021611Z-1.000000I54.607469J-0.000000
G02X149.009212Y30.584638Z-1.000000I15.873874J-0.303781
G02X149.075273Y31.171076Z-1.000000I8.641853J-0.676554
G02X149.163130Y31.629751Z-1.000000I5.370471J-0.790932
G02X149.376822Y32.051990Z-1.000000I0.959688J-0.220497
G02X149.624899Y32.165706Z-1.000000I0.248077J-0.213739
G02X149.748535Y32.139977Z-1.000000I0.000000J-0.309915
G02X149.809602Y32.085351Z-1.000000I-0.052044J-0.119628
G02X149.839412Y32.000635Z-1.000000I-0.213937J-0.122882
G02X149.855757Y31.790581Z-1.000000I-1.341512J-0.210054
G02X149.849184Y31.630115Z-1.000000I-1.962115J0.000000
G02X149.778794Y30.852662Z-1.000000I-46.202683J3.791254
G03X149.725789Y30.074337Z-1.000000I12.639556J-1.251736
G03X149.701831Y28.789222Z-1.000000I34.455053J-1.285115
G03X149.708689Y27.797792Z-1.000000I71.672290J-0.000000
G03X149.732601Y26.565018Z-1.000000I110.839620J1.533372
G01X149.747986Y25.841473Z-1.000000
G03X150.431318Y26.057246Z-1.000000I-2.264475J8.361305
G03X152.487794Y26.832989Z-1.000000I-27.732249J76.631198
G03X152.576801Y26.915175Z-1.000000I-0.073449J0.168836
G03X152.687898Y27.208154Z-1.000000I-1.086747J0.579643
G02X152.808287Y27.492507Z-1.000000I1.230887J-0.353471
G02X152.872601Y27.529735Z-1.000000I0.064314J-0.036939
G02X153.006507Y27.473153Z-1.000000I0.000000J-0.186741
G02X153.211230Y27.181356Z-1.000000I-0.805099J-0.782565
G02X153.350432Y26.847650Z-1.000000I-1.245764J-0.715545
G02X153.395933Y26.511421Z-1.000000I-1.219531J-0.336229
G01X153.395963Y26.511487Z-1.000000
G00Z5.000000

(End cutting path id: path6634)


(Start cutting path id: path6632)
(Change tool to Default tool)

G00Z5.000000
G00X145.529121Y21.312709

G01Z-1.000000F100.0(Penetrate)
G02X145.504315Y21.156588Z-1.000000I-0.503703J0.000000F30.000000
G02X145.205884Y20.321194Z-1.000000I-15.081101J4.916471
G02X144.880429Y19.497961Z-1.000000I-19.217679J7.121539
G02X144.574804Y18.820521Z-1.000000I-13.315858J5.599735
G02X143.721780Y17.163087Z-1.000000I-25.837572J12.249489
G02X143.127934Y16.221138Z-1.000000I-8.915445J4.962523
G02X142.399861Y15.495199Z-1.000000I-2.346328J1.625145
G02X141.804211Y15.310018Z-1.000000I-0.595650J0.865391
G02X141.337775Y15.490764Z-1.000000I0.000000J0.692219
G02X140.834502Y16.194340Z-1.000000I1.394849J1.529531
G02X140.566912Y17.099075Z-1.000000I4.033274J1.684848
G02X140.465089Y18.230968Z-1.000000I6.240279J1.131893
G02X140.567483Y19.935926Z-1.000000I14.245674J0.000000
G02X140.988421Y22.572209Z-1.000000I34.552322J-4.165246
G02X141.622174Y25.164843Z-1.000000I30.416091J-6.061252
G02X142.312151Y27.127825Z-1.000000I18.100718J-5.259545
G02X143.303658Y28.771094Z-1.000000I5.944342J-2.465908
G02X143.912939Y29.057273Z-1.000000I0.609281J-0.505497
G02X144.197637Y28.964100Z-1.000000I0.000000J-0.481547
G02X144.497842Y28.628511Z-1.000000I-0.643243J-0.877490
G02X144.619151Y28.379853Z-1.000000I-1.778842J-1.021737
G02X144.759508Y27.985361Z-1.000000I-4.352133J-1.770670
G02X144.855818Y27.579381Z-1.000000I-3.102096J-0.950320
G02X144.882648Y27.261817Z-1.000000I-1.865929J-0.317564
G02X144.866351Y26.807270Z-1.000000I-6.347063J-0.000000
G02X144.805685Y26.189906Z-1.000000I-11.776007J0.845513
G02X144.712076Y25.635945Z-1.000000I-4.410227J0.460358
G01X144.667152Y25.600353Z-1.000000
G02X144.561242Y25.656467Z-1.000000I-0.000000J0.128005
G02X144.467056Y25.895136Z-1.000000I0.485354J0.329454
G02X144.431816Y26.190941Z-1.000000I4.005962J0.627253
G02X144.405516Y26.645466Z-1.000000I9.439480J0.774200
G03X144.347289Y27.340521Z-1.000000I-19.963865J-1.322478
G03X144.313169Y27.556600Z-1.000000I-1.958036J-0.198456
G03X144.237114Y27.761608Z-1.000000I-0.649272J-0.124256
G03X144.174636Y27.797772Z-1.000000I-0.062479J-0.035889
G03X143.631803Y27.535226Z-1.000000I0.000000J-0.692446
G03X142.773950Y26.029128Z-1.000000I4.485170J-3.552050
G03X142.191273Y24.260399Z-1.000000I16.509513J-6.419116
G03X141.665708Y21.955859Z-1.000000I27.537051J-7.492190
G03X141.310184Y19.644252Z-1.000000I35.630108J-6.663047
G03X141.234732Y18.391759Z-1.000000I10.357890J-1.252493
G03X141.510741Y16.899111Z-1.000000I4.174101J0.000000
G03X141.911982Y16.623102Z-1.000000I0.401241J0.153642
G03X142.360192Y16.725153Z-1.000000I0.000000J1.035298
G03X142.804735Y17.051864Z-1.000000I-0.645588J1.344222
G03X143.184728Y17.507447Z-1.000000I-2.857901J2.769980
G03X143.666696Y18.257767Z-1.000000I-7.316371J5.229628
G03X144.464842Y19.748011Z-1.000000I-33.812248J19.068055
G03X144.959641Y20.803552Z-1.000000I-16.458204J8.358738
G02X144.991724Y20.883374Z-1.000000I2.438643J-0.933810
G02X145.128952Y21.205529Z-1.000000I39.871240J-16.793578
G02X145.299269Y21.528722Z-1.000000I2.424725J-1.071311
G02X145.344440Y21.553895Z-1.000000I0.045172J-0.027942
G02X145.468098Y21.492842Z-1.000000I-0.000000J-0.155756
G02X145.529151Y21.312709Z-1.000000I-0.235208J-0.180133
G01X145.529121Y21.312709Z-1.000000
G00Z5.000000

(End cutting path id: path6632)


(Start cutting path id: path6632)
(Change tool to Default tool)

G00Z5.000000
G00X145.529121Y21.312709

G01Z-1.000000F100.0(Penetrate)
G02X145.504315Y21.156588Z-1.000000I-0.503703J0.000000F30.000000
G02X145.205884Y20.321194Z-1.000000I-15.081101J4.916471
G02X144.880429Y19.497961Z-1.000000I-19.217679J7.121539
G02X144.574804Y18.820521Z-1.000000I-13.315858J5.599735
G02X143.721780Y17.163087Z-1.000000I-25.837572J12.249489
G02X143.127934Y16.221138Z-1.000000I-8.915445J4.962523
G02X142.399861Y15.495199Z-1.000000I-2.346328J1.625145
G02X141.804211Y15.310018Z-1.000000I-0.595650J0.865391
G02X141.337775Y15.490764Z-1.000000I0.000000J0.692219
G02X140.834502Y16.194340Z-1.000000I1.394849J1.529531
G02X140.566912Y17.099075Z-1.000000I4.033274J1.684848
G02X140.465089Y18.230968Z-1.000000I6.240279J1.131893
G02X140.567483Y19.935926Z-1.000000I14.245674J0.000000
G02X140.988421Y22.572209Z-1.000000I34.552322J-4.165246
G02X141.622174Y25.164843Z-1.000000I30.416091J-6.061252
G02X142.312151Y27.127825Z-1.000000I18.100718J-5.259545
G02X143.303658Y28.771094Z-1.000000I5.944342J-2.465908
G02X143.912939Y29.057273Z-1.000000I0.609281J-0.505497
G02X144.197637Y28.964100Z-1.000000I0.000000J-0.481547
G02X144.497842Y28.628511Z-1.000000I-0.643243J-0.877490
G02X144.619151Y28.379853Z-1.000000I-1.778842J-1.021737
G02X144.759508Y27.985361Z-1.000000I-4.352133J-1.770670
G02X144.855818Y27.579381Z-1.000000I-3.102096J-0.950320
G02X144.882648Y27.261817Z-1.000000I-1.865929J-0.317564
G02X144.866351Y26.807270Z-1.000000I-6.347063J-0.000000
G02X144.805685Y26.189906Z-1.000000I-11.776007J0.845513
G02X144.712076Y25.635945Z-1.000000I-4.410227J0.460358
G01X144.667152Y25.600353Z-1.000000
G02X144.561242Y25.656467Z-1.000000I-0.000000J0.128005
G02X144.467056Y25.895136Z-1.000000I0.485354J0.329454
G02X144.431816Y26.190941Z-1.000000I4.005962J0.627253
G02X144.405516Y26.645466Z-1.000000I9.439480J0.774200
G03X144.347289Y27.340521Z-1.000000I-19.963865J-1.322478
G03X144.313169Y27.556600Z-1.000000I-1.958036J-0.198456
G03X144.237114Y27.761608Z-1.000000I-0.649272J-0.124256
G03X144.174636Y27.797772Z-1.000000I-0.062479J-0.035889
G03X143.631803Y27.535226Z-1.000000I0.000000J-0.692446
G03X142.773950Y26.029128Z-1.000000I4.485170J-3.552050
G03X142.191273Y24.260399Z-1.000000I16.509513J-6.419116
G03X141.665708Y21.955859Z-1.000000I27.537051J-7.492190
G03X141.310184Y19.644252Z-1.000000I35.630108J-6.663047
G03X141.234732Y18.391759Z-1.000000I10.357890J-1.252493
G03X141.510741Y16.899111Z-1.000000I4.174101J0.000000
G03X141.911982Y16.623102Z-1.000000I0.401241J0.153642
G03X142.360192Y16.725153Z-1.000000I0.000000J1.035298
G03X142.804735Y17.051864Z-1.000000I-0.645588J1.344222
G03X143.184728Y17.507447Z-1.000000I-2.857901J2.769980
G03X143.666696Y18.257767Z-1.000000I-7.316371J5.229628
G03X144.464842Y19.748011Z-1.000000I-33.812248J19.068055
G03X144.959641Y20.803552Z-1.000000I-16.458204J8.358738
G02X144.991724Y20.883374Z-1.000000I2.438643J-0.933810
G02X145.128952Y21.205529Z-1.000000I39.871240J-16.793578
G02X145.299269Y21.528722Z-1.000000I2.424725J-1.071311
G02X145.344440Y21.553895Z-1.000000I0.045172J-0.027942
G02X145.468098Y21.492842Z-1.000000I-0.000000J-0.155756
G02X145.529151Y21.312709Z-1.000000I-0.235208J-0.180133
G01X145.529121Y21.312709Z-1.000000
G00Z5.000000

(End cutting path id: path6632)


(Start cutting path id: path6630)
(Change tool to Default tool)

G00Z5.000000
G00X139.528567Y22.250641

G01Z-1.000000F100.0(Penetrate)
G02X139.589536Y22.203863Z-1.000000I0.000000J-0.063121F30.000000
G02X139.636315Y21.848665Z-1.000000I-1.325140J-0.355198
G02X139.589981Y21.372104Z-1.000000I-2.473936J-0.000000
G02X139.220724Y19.731641Z-1.000000I-29.940028J5.877509
G02X138.706525Y18.143698Z-1.000000I-11.104955J2.718718
G02X137.989349Y16.703497Z-1.000000I-9.840177J4.001443
G02X136.991430Y15.627697Z-1.000000I-2.924618J1.712156
G02X135.972969Y15.310018Z-1.000000I-1.018462J1.473726
G02X135.127784Y15.560837Z-1.000000I0.000000J1.549420
G02X134.326010Y16.381929Z-1.000000I1.432152J2.200458
G02X133.879182Y17.514880Z-1.000000I2.934457J1.811918
G02X133.664145Y19.678044Z-1.000000I10.772649J2.163165
G02X133.802610Y21.749769Z-1.000000I15.567935J-0.000000
G02X134.218262Y23.804911Z-1.000000I15.734238J-2.112646
G02X134.913825Y25.802690Z-1.000000I14.065464J-3.777170
G02X135.665125Y27.154623Z-1.000000I7.147193J-3.087134
G02X136.695830Y28.207113Z-1.000000I3.443119J-2.340921
G02X137.512187Y28.467720Z-1.000000I0.816357J-1.148325
G02X138.027520Y28.351025Z-1.000000I0.000000J-1.196224
G02X138.466503Y28.012160Z-1.000000I-0.567663J-1.189151
G02X138.745313Y27.535549Z-1.000000I-0.918072J-0.856913
G02X138.866702Y26.752660Z-1.000000I-2.463897J-0.782889
G02X138.720097Y25.860750Z-1.000000I-2.786378J-0.000000
G02X138.251015Y24.930419Z-1.000000I-3.507498J1.185092
G02X137.576914Y24.119286Z-1.000000I-4.503556J3.057055
G02X136.681011Y23.376136Z-1.000000I-4.664528J4.711707
G02X135.672088Y22.789178Z-1.000000I-4.275817J6.189108
G02X134.680031Y22.411419Z-1.000000I-2.702042J5.604473
G03X134.540278Y21.175381Z-1.000000I17.018652J-2.550140
G03X134.495321Y19.999626Z-1.000000I15.351994J-1.175755
G03X134.625694Y18.475283Z-1.000000I8.976604J-0.000000
G03X134.910912Y17.587819Z-1.000000I3.284115J0.565904
G03X135.470295Y16.938530Z-1.000000I1.575774J0.791971
G03X136.126894Y16.730296Z-1.000000I0.656600J0.931069
G03X137.106984Y17.062547Z-1.000000I0.000000J1.611680
G03X138.050919Y18.204170Z-1.000000I-2.008117J2.621436
G03X138.705066Y19.710158Z-1.000000I-13.376305J6.705243
G03X139.282294Y21.527097Z-1.000000I-18.915004J7.009320
G03X139.312108Y21.634500Z-1.000000I-6.023871J1.730004
G03X139.390034Y21.929060Z-1.000000I-45.235148J12.124616
G02X139.488038Y22.223971Z-1.000000I1.760825J-0.421412
G01X139.528567Y22.250641Z-1.000000
G01X139.528567Y22.250641Z-1.000000
G00Z5.000000

(Change tool to Default tool)

G00Z5.000000
G00X138.174052Y26.457890

G01Z-1.000000F100.0(Penetrate)
G03X138.099448Y26.853955Z-1.000000I-1.088634J0.000000F30.000000
G03X137.912386Y27.127825Z-1.000000I-0.686687J-0.268209
G03X137.640785Y27.306950Z-1.000000I-0.596708J-0.609295
G03X137.327484Y27.369011Z-1.000000I-0.313301J-0.759789
G03X136.810778Y27.226662Z-1.000000I0.000000J-1.008961
G03X136.203857Y26.699063Z-1.000000I1.163317J-1.951099
G03X135.725836Y25.993863Z-1.000000I4.074383J-3.276441
G03X135.295719Y25.091196Z-1.000000I6.270965J-3.541901
G03X134.985346Y24.141929Z-1.000000I10.404729J-3.927308
G03X134.833949Y23.429733Z-1.000000I5.695117J-1.582840
G03X135.506539Y23.646538Z-1.000000I-0.527827J2.789151
G03X136.326990Y24.126479Z-1.000000I-2.171799J4.653897
G03X137.067200Y24.735913Z-1.000000I-4.182115J5.833781
G03X137.635328Y25.359181Z-1.000000I-3.808161J4.041822
G03X138.082104Y26.061512Z-1.000000I-2.936213J2.361095
G03X138.174052Y26.457890Z-1.000000I-0.808400J0.396378
G01X138.174052Y26.457890Z-1.000000
G00Z5.000000

(End cutting path id: path6630)


(Start cutting path id: path6630)
(Change tool to Default tool)

G00Z5.000000
G00X139.528567Y22.250641

G01Z-1.000000F100.0(Penetrate)
G02X139.589536Y22.203863Z-1.000000I0.000000J-0.063121F30.000000
G02X139.636315Y21.848665Z-1.000000I-1.325140J-0.355198
G02X139.589981Y21.372104Z-1.000000I-2.473936J-0.000000
G02X139.220724Y19.731641Z-1.000000I-29.940028J5.877509
G02X138.706525Y18.143698Z-1.000000I-11.104955J2.718718
G02X137.989349Y16.703497Z-1.000000I-9.840177J4.001443
G02X136.991430Y15.627697Z-1.000000I-2.924618J1.712156
G02X135.972969Y15.310018Z-1.000000I-1.018462J1.473726
G02X135.127784Y15.560837Z-1.000000I0.000000J1.549420
G02X134.326010Y16.381929Z-1.000000I1.432152J2.200458
G02X133.879182Y17.514880Z-1.000000I2.934457J1.811918
G02X133.664145Y19.678044Z-1.000000I10.772649J2.163165
G02X133.802610Y21.749769Z-1.000000I15.567935J-0.000000
G02X134.218262Y23.804911Z-1.000000I15.734238J-2.112646
G02X134.913825Y25.802690Z-1.000000I14.065464J-3.777170
G02X135.665125Y27.154623Z-1.000000I7.147193J-3.087134
G02X136.695830Y28.207113Z-1.000000I3.443119J-2.340921
G02X137.512187Y28.467720Z-1.000000I0.816357J-1.148325
G02X138.027520Y28.351025Z-1.000000I0.000000J-1.196224
G02X138.466503Y28.012160Z-1.000000I-0.567663J-1.189151
G02X138.745313Y27.535549Z-1.000000I-0.918072J-0.856913
G02X138.866702Y26.752660Z-1.000000I-2.463897J-0.782889
G02X138.720097Y25.860750Z-1.000000I-2.786378J-0.000000
G02X138.251015Y24.930419Z-1.000000I-3.507498J1.185092
G02X137.576914Y24.119286Z-1.000000I-4.503556J3.057055
G02X136.681011Y23.376136Z-1.000000I-4.664528J4.711707
G02X135.672088Y22.789178Z-1.000000I-4.275817J6.189108
G02X134.680031Y22.411419Z-1.000000I-2.702042J5.604473
G03X134.540278Y21.175381Z-1.000000I17.018652J-2.550140
G03X134.495321Y19.999626Z-1.000000I15.351994J-1.175755
G03X134.625694Y18.475283Z-1.000000I8.976604J-0.000000
G03X134.910912Y17.587819Z-1.000000I3.284115J0.565904
G03X135.470295Y16.938530Z-1.000000I1.575774J0.791971
G03X136.126894Y16.730296Z-1.000000I0.656600J0.931069
G03X137.106984Y17.062547Z-1.000000I0.000000J1.611680
G03X138.050919Y18.204170Z-1.000000I-2.008117J2.621436
G03X138.705066Y19.710158Z-1.000000I-13.376305J6.705243
G03X139.282294Y21.527097Z-1.000000I-18.915004J7.009320
G03X139.312108Y21.634500Z-1.000000I-6.023871J1.730004
G03X139.390034Y21.929060Z-1.000000I-45.235148J12.124616
G02X139.488038Y22.223971Z-1.000000I1.760825J-0.421412
G01X139.528567Y22.250641Z-1.000000
G01X139.528567Y22.250641Z-1.000000
G00Z5.000000

(Change tool to Default tool)

G00Z5.000000
G00X138.174052Y26.457890

G01Z-1.000000F100.0(Penetrate)
G03X138.099448Y26.853955Z-1.000000I-1.088634J0.000000F30.000000
G03X137.912386Y27.127825Z-1.000000I-0.686687J-0.268209
G03X137.640785Y27.306950Z-1.000000I-0.596708J-0.609295
G03X137.327484Y27.369011Z-1.000000I-0.313301J-0.759789
G03X136.810778Y27.226662Z-1.000000I0.000000J-1.008961
G03X136.203857Y26.699063Z-1.000000I1.163317J-1.951099
G03X135.725836Y25.993863Z-1.000000I4.074383J-3.276441
G03X135.295719Y25.091196Z-1.000000I6.270965J-3.541901
G03X134.985346Y24.141929Z-1.000000I10.404729J-3.927308
G03X134.833949Y23.429733Z-1.000000I5.695117J-1.582840
G03X135.506539Y23.646538Z-1.000000I-0.527827J2.789151
G03X136.326990Y24.126479Z-1.000000I-2.171799J4.653897
G03X137.067200Y24.735913Z-1.000000I-4.182115J5.833781
G03X137.635328Y25.359181Z-1.000000I-3.808161J4.041822
G03X138.082104Y26.061512Z-1.000000I-2.936213J2.361095
G03X138.174052Y26.457890Z-1.000000I-0.808400J0.396378
G01X138.174052Y26.457890Z-1.000000
G00Z5.000000

(End cutting path id: path6630)


(Start cutting path id: path6626)
(Change tool to Default tool)

G00Z5.000000
G00X129.508009Y32.514178

G01Z-1.000000F100.0(Penetrate)
G02X129.443186Y32.221020Z-1.000000I-0.695306J0.000000F30.000000
G02X129.246343Y31.951424Z-1.000000I-0.779355J0.362380
G02X128.799068Y31.593813Z-1.000000I-2.114680J2.186377
G02X127.938005Y31.093901Z-1.000000I-5.040463J7.690316
G02X127.049006Y30.665996Z-1.000000I-7.498539J14.441272
G02X126.491142Y30.450752Z-1.000000I-2.427717J5.461521
G02X125.591447Y30.181970Z-1.000000I-5.146725J15.587490
G02X124.690258Y29.968393Z-1.000000I-4.131716J15.425749
G02X123.796420Y29.815294Z-1.000000I-9.390085J52.136321
G02X123.535838Y29.780817Z-1.000000I-0.713797J4.392999
G03X123.554684Y28.226583Z-1.000000I348.980933J3.454369
G03X123.581993Y26.565084Z-1.000000I398.840678J5.724503
G03X123.614136Y24.930449Z-1.000000I973.015251J18.315463
G03X123.628148Y24.314068Z-1.000000I138.362549J2.836993
G03X124.224000Y24.464668Z-1.000000I-2.393287J10.723157
G03X125.429033Y24.823225Z-1.000000I-12.508860J44.243735
G01X126.013935Y24.984003Z-1.000000
G03X126.883833Y25.413790Z-1.000000I-0.865427J2.846883
G03X127.506976Y26.055914Z-1.000000I-1.475772J2.055570
G02X127.804526Y26.390500Z-1.000000I1.986543J-1.467047
G02X127.907175Y26.431092Z-1.000000I0.102649J-0.109495
G02X127.986115Y26.392846Z-1.000000I0.000000J-0.100591
G02X128.076493Y26.216704Z-1.000000I-0.402117J-0.317582
G02X128.133484Y26.025192Z-1.000000I-0.925093J-0.379530
G02X128.153448Y25.814741Z-1.000000I-1.099259J-0.210451
G02X128.035910Y25.383426Z-1.000000I-0.850140J-0.000000
G02X127.522368Y24.742830Z-1.000000I-2.471084J1.454833
G02X126.864567Y24.250180Z-1.000000I-2.842351J3.109706
G02X126.152468Y23.912092Z-1.000000I-2.009836J3.314250
G02X125.515744Y23.688191Z-1.000000I-4.480305J11.723676
G02X124.736382Y23.456531Z-1.000000I-5.577630J17.337775
G02X123.950186Y23.247044Z-1.000000I-17.334254J63.474748
G02X123.705111Y23.188560Z-1.000000I-1.586895J6.107073
G03X123.931701Y18.620838Z-1.000000I77.730334J1.566468
G03X124.243836Y16.381929Z-1.000000I18.936027J1.498730
G03X124.702047Y16.140370Z-1.000000I2.402032J4.001022
G03X125.121189Y15.979953Z-1.000000I1.459192J3.184829
G03X125.556149Y15.905281Z-1.000000I0.723566J2.910611
G03X126.229431Y15.872812Z-1.000000I0.673282J6.964278
G03X126.889806Y15.947136Z-1.000000I-0.000000J2.970905
G03X127.522368Y16.167581Z-1.000000I-0.671009J2.943225
G03X128.096839Y16.539560Z-1.000000I-1.700307J3.255478
G03X128.507469Y16.944723Z-1.000000I-1.616165J2.048644
G03X128.812471Y17.429477Z-1.000000I-1.569962J1.326129
G03X128.892276Y17.802246Z-1.000000I-0.830698J0.372769
G03X128.880092Y18.015157Z-1.000000I-1.866421J-0.000000
G03X128.846121Y18.204210Z-1.000000I-1.504245J-0.172723
G03X128.792834Y18.416559Z-1.000000I-3.165682J-0.681532
G03X128.722981Y18.632971Z-1.000000I-3.358009J-0.964421
G03X128.690060Y18.712402Z-1.000000I-1.475760J-0.565101
G03X128.615240Y18.874157Z-1.000000I-6.198826J-2.769083
G02X128.564589Y19.063487Z-1.000000I1.675864J0.549779
G02X128.553700Y19.168927Z-1.000000I0.505046J0.105440
G02X128.641087Y19.349524Z-1.000000I0.230308J0.000000
G02X128.892329Y19.436911Z-1.000000I0.251242J-0.317473
G02X129.089604Y19.361040Z-1.000000I-0.000000J-0.294404
G02X129.307921Y19.061746Z-1.000000I-0.606031J-0.671335
G02X129.443795Y18.701223Z-1.000000I-1.342926J-0.711989
G02X129.492624Y18.284605Z-1.000000I-1.752928J-0.416618
G02X129.384704Y17.454239Z-1.000000I-3.248484J0.000000
G02X129.046247Y16.596343Z-1.000000I-3.809680J1.007280
G02X128.527087Y15.844925Z-1.000000I-3.224975J1.673103
G02X127.845657Y15.256461Z-1.000000I-2.629518J2.356156
G02X127.047690Y14.857615Z-1.000000I-1.681101J2.365697
G02X126.167914Y14.720505Z-1.000000I-0.879776J2.754033
G02X125.237608Y14.776982Z-1.000000I0.000000J7.690418
G02X124.628695Y14.908081Z-1.000000I0.415495J3.409490
G02X124.099129Y15.163010Z-1.000000I0.409097J1.527321
G02X123.720557Y15.578029Z-1.000000I0.857491J1.162360
G02X123.455370Y16.331408Z-1.000000I2.669962J1.363180
G02X123.197217Y18.097016Z-1.000000I14.650404J3.043738
G02X123.081799Y19.893777Z-1.000000I69.838529J5.388279
G02X122.950944Y22.893817Z-1.000000I194.590966J9.990530
G02X122.653998Y22.771926Z-1.000000I-1.668279J3.641541
G02X122.289079Y22.652644Z-1.000000I-1.961737J5.383715
G02X121.933542Y22.585876Z-1.000000I-1.065999J4.696346
G02X121.750354Y22.572289Z-1.000000I-0.183188J1.228138
G02X121.589952Y22.617310Z-1.000000I0.000000J0.308250
G02X121.442510Y22.759878Z-1.000000I0.243094J0.398930
G02X121.364865Y22.981391Z-1.000000I0.817693J0.410985
G02X121.334762Y23.269035Z-1.000000I1.359243J0.287643
G02X121.343668Y23.455601Z-1.000000I1.958658J-0.000000
G02X121.365532Y23.590603Z-1.000000I1.045313J-0.100023
G02X121.428476Y23.707861Z-1.000000I0.392666J-0.135258
G02X121.488673Y23.751393Z-1.000000I0.102740J-0.078683
G02X121.997804Y23.851236Z-1.000000I3.760355J-17.827285
G02X122.227501Y23.885386Z-1.000000I0.651335J-3.591440
G01X122.889358Y24.019365Z-1.000000
G03X122.820772Y27.476121Z-1.000000I-847.932346J-15.094859
G03X122.766225Y29.646904Z-1.000000I-334.444938J-7.317796
G03X122.536142Y29.638574Z-1.000000I-0.000000J-3.181564
G03X122.396811Y29.620119Z-1.000000I0.085742J-1.182533
G01X121.688769Y29.593334Z-1.000000
G02X121.569892Y29.627279Z-1.000000I-0.000000J0.225125
G02X121.473280Y29.727326Z-1.000000I0.150449J0.241954
G02X121.416279Y29.866630Z-1.000000I0.492068J0.282664
G02X121.396318Y30.022095Z-1.000000I0.595437J0.155465
G02X121.542352Y30.569537Z-1.000000I1.099115J-0.000000
G02X121.888872Y30.879619Z-1.000000I0.641962J-0.368738
G02X122.074799Y30.928114Z-1.000000I0.985864J-3.399116
G02X122.350634Y30.986760Z-1.000000I1.722997J-7.425861
G02X122.644354Y31.057707Z-1.000000I1.285539J-4.678662
G02X122.735440Y31.067116Z-1.000000I0.091086J-0.436193
G02X123.093456Y31.521907Z-1.000000I1.376705J-0.715444
G02X123.381913Y31.629870Z-1.000000I0.288456J-0.331369
G01X123.422177Y31.604813Z-1.000000
G02X123.474268Y31.442281Z-1.000000I-0.521525J-0.256761
G02X123.512900Y31.280445Z-1.000000I-1.768395J-0.507660
G02X123.520423Y31.201108Z-1.000000I-0.414557J-0.079337
G03X124.529668Y31.324728Z-1.000000I-0.933747J11.804773
G03X125.937002Y31.603071Z-1.000000I-3.867847J23.253260
G03X126.843756Y31.869485Z-1.000000I-1.853875J7.986061
G03X128.784551Y32.621385Z-1.000000I-13.389417J37.441306
G01X129.354060Y32.835773Z-1.000000
G02X129.448493Y32.776280Z-1.000000I0.000000J-0.104693
G02X129.507986Y32.514192Z-1.000000I-0.547555J-0.262089
G01X129.508009Y32.514178Z-1.000000
G00Z5.000000

(End cutting path id: path6626)


(Start cutting path id: path6626)
(Change tool to Default tool)

G00Z5.000000
G00X129.508009Y32.514178

G01Z-1.000000F100.0(Penetrate)
G02X129.443186Y32.221020Z-1.000000I-0.695306J0.000000F30.000000
G02X129.246343Y31.951424Z-1.000000I-0.779355J0.362380
G02X128.799068Y31.593813Z-1.000000I-2.114680J2.186377
G02X127.938005Y31.093901Z-1.000000I-5.040463J7.690316
G02X127.049006Y30.665996Z-1.000000I-7.498539J14.441272
G02X126.491142Y30.450752Z-1.000000I-2.427717J5.461521
G02X125.591447Y30.181970Z-1.000000I-5.146725J15.587490
G02X124.690258Y29.968393Z-1.000000I-4.131716J15.425749
G02X123.796420Y29.815294Z-1.000000I-9.390085J52.136321
G02X123.535838Y29.780817Z-1.000000I-0.713797J4.392999
G03X123.554684Y28.226583Z-1.000000I348.980933J3.454369
G03X123.581993Y26.565084Z-1.000000I398.840678J5.724503
G03X123.614136Y24.930449Z-1.000000I973.015251J18.315463
G03X123.628148Y24.314068Z-1.000000I138.362549J2.836993
G03X124.224000Y24.464668Z-1.000000I-2.393287J10.723157
G03X125.429033Y24.823225Z-1.000000I-12.508860J44.243735
G01X126.013935Y24.984003Z-1.000000
G03X126.883833Y25.413790Z-1.000000I-0.865427J2.846883
G03X127.506976Y26.055914Z-1.000000I-1.475772J2.055570
G02X127.804526Y26.390500Z-1.000000I1.986543J-1.467047
G02X127.907175Y26.431092Z-1.000000I0.102649J-0.109495
G02X127.986115Y26.392846Z-1.000000I0.000000J-0.100591
G02X128.076493Y26.216704Z-1.000000I-0.402117J-0.317582
G02X128.133484Y26.025192Z-1.000000I-0.925093J-0.379530
G02X128.153448Y25.814741Z-1.000000I-1.099259J-0.210451
G02X128.035910Y25.383426Z-1.000000I-0.850140J-0.000000
G02X127.522368Y24.742830Z-1.000000I-2.471084J1.454833
G02X126.864567Y24.250180Z-1.000000I-2.842351J3.109706
G02X126.152468Y23.912092Z-1.000000I-2.009836J3.314250
G02X125.515744Y23.688191Z-1.000000I-4.480305J11.723676
G02X124.736382Y23.456531Z-1.000000I-5.577630J17.337775
G02X123.950186Y23.247044Z-1.000000I-17.334254J63.474748
G02X123.705111Y23.188560Z-1.000000I-1.586895J6.107073
G03X123.931701Y18.620838Z-1.000000I77.730334J1.566468
G03X124.243836Y16.381929Z-1.000000I18.936027J1.498730
G03X124.702047Y16.140370Z-1.000000I2.402032J4.001022
G03X125.121189Y15.979953Z-1.000000I1.459192J3.184829
G03X125.556149Y15.905281Z-1.000000I0.723566J2.910611
G03X126.229431Y15.872812Z-1.000000I0.673282J6.964278
G03X126.889806Y15.947136Z-1.000000I-0.000000J2.970905
G03X127.522368Y16.167581Z-1.000000I-0.671009J2.943225
G03X128.096839Y16.539560Z-1.000000I-1.700307J3.255478
G03X128.507469Y16.944723Z-1.000000I-1.616165J2.048644
G03X128.812471Y17.429477Z-1.000000I-1.569962J1.326129
G03X128.892276Y17.802246Z-1.000000I-0.830698J0.372769
G03X128.880092Y18.015157Z-1.000000I-1.866421J-0.000000
G03X128.846121Y18.204210Z-1.000000I-1.504245J-0.172723
G03X128.792834Y18.416559Z-1.000000I-3.165682J-0.681532
G03X128.722981Y18.632971Z-1.000000I-3.358009J-0.964421
G03X128.690060Y18.712402Z-1.000000I-1.475760J-0.565101
G03X128.615240Y18.874157Z-1.000000I-6.198826J-2.769083
G02X128.564589Y19.063487Z-1.000000I1.675864J0.549779
G02X128.553700Y19.168927Z-1.000000I0.505046J0.105440
G02X128.641087Y19.349524Z-1.000000I0.230308J0.000000
G02X128.892329Y19.436911Z-1.000000I0.251242J-0.317473
G02X129.089604Y19.361040Z-1.000000I-0.000000J-0.294404
G02X129.307921Y19.061746Z-1.000000I-0.606031J-0.671335
G02X129.443795Y18.701223Z-1.000000I-1.342926J-0.711989
G02X129.492624Y18.284605Z-1.000000I-1.752928J-0.416618
G02X129.384704Y17.454239Z-1.000000I-3.248484J0.000000
G02X129.046247Y16.596343Z-1.000000I-3.809680J1.007280
G02X128.527087Y15.844925Z-1.000000I-3.224975J1.673103
G02X127.845657Y15.256461Z-1.000000I-2.629518J2.356156
G02X127.047690Y14.857615Z-1.000000I-1.681101J2.365697
G02X126.167914Y14.720505Z-1.000000I-0.879776J2.754033
G02X125.237608Y14.776982Z-1.000000I0.000000J7.690418
G02X124.628695Y14.908081Z-1.000000I0.415495J3.409490
G02X124.099129Y15.163010Z-1.000000I0.409097J1.527321
G02X123.720557Y15.578029Z-1.000000I0.857491J1.162360
G02X123.455370Y16.331408Z-1.000000I2.669962J1.363180
G02X123.197217Y18.097016Z-1.000000I14.650404J3.043738
G02X123.081799Y19.893777Z-1.000000I69.838529J5.388279
G02X122.950944Y22.893817Z-1.000000I194.590966J9.990530
G02X122.653998Y22.771926Z-1.000000I-1.668279J3.641541
G02X122.289079Y22.652644Z-1.000000I-1.961737J5.383715
G02X121.933542Y22.585876Z-1.000000I-1.065999J4.696346
G02X121.750354Y22.572289Z-1.000000I-0.183188J1.228138
G02X121.589952Y22.617310Z-1.000000I0.000000J0.308250
G02X121.442510Y22.759878Z-1.000000I0.243094J0.398930
G02X121.364865Y22.981391Z-1.000000I0.817693J0.410985
G02X121.334762Y23.269035Z-1.000000I1.359243J0.287643
G02X121.343668Y23.455601Z-1.000000I1.958658J-0.000000
G02X121.365532Y23.590603Z-1.000000I1.045313J-0.100023
G02X121.428476Y23.707861Z-1.000000I0.392666J-0.135258
G02X121.488673Y23.751393Z-1.000000I0.102740J-0.078683
G02X121.997804Y23.851236Z-1.000000I3.760355J-17.827285
G02X122.227501Y23.885386Z-1.000000I0.651335J-3.591440
G01X122.889358Y24.019365Z-1.000000
G03X122.820772Y27.476121Z-1.000000I-847.932346J-15.094859
G03X122.766225Y29.646904Z-1.000000I-334.444938J-7.317796
G03X122.536142Y29.638574Z-1.000000I-0.000000J-3.181564
G03X122.396811Y29.620119Z-1.000000I0.085742J-1.182533
G01X121.688769Y29.593334Z-1.000000
G02X121.569892Y29.627279Z-1.000000I-0.000000J0.225125
G02X121.473280Y29.727326Z-1.000000I0.150449J0.241954
G02X121.416279Y29.866630Z-1.000000I0.492068J0.282664
G02X121.396318Y30.022095Z-1.000000I0.595437J0.155465
G02X121.542352Y30.569537Z-1.000000I1.099115J-0.000000
G02X121.888872Y30.879619Z-1.000000I0.641962J-0.368738
G02X122.074799Y30.928114Z-1.000000I0.985864J-3.399116
G02X122.350634Y30.986760Z-1.000000I1.722997J-7.425861
G02X122.644354Y31.057707Z-1.000000I1.285539J-4.678662
G02X122.735440Y31.067116Z-1.000000I0.091086J-0.436193
G02X123.093456Y31.521907Z-1.000000I1.376705J-0.715444
G02X123.381913Y31.629870Z-1.000000I0.288456J-0.331369
G01X123.422177Y31.604813Z-1.000000
G02X123.474268Y31.442281Z-1.000000I-0.521525J-0.256761
G02X123.512900Y31.280445Z-1.000000I-1.768395J-0.507660
G02X123.520423Y31.201108Z-1.000000I-0.414557J-0.079337
G03X124.529668Y31.324728Z-1.000000I-0.933747J11.804773
G03X125.937002Y31.603071Z-1.000000I-3.867847J23.253260
G03X126.843756Y31.869485Z-1.000000I-1.853875J7.986061
G03X128.784551Y32.621385Z-1.000000I-13.389417J37.441306
G01X129.354060Y32.835773Z-1.000000
G02X129.448493Y32.776280Z-1.000000I0.000000J-0.104693
G02X129.507986Y32.514192Z-1.000000I-0.547555J-0.262089
G01X129.508009Y32.514178Z-1.000000
G00Z5.000000

(End cutting path id: path6626)


(Start cutting path id: path6624)
(Change tool to Default tool)

G00Z5.000000
G00X116.778192Y32.460595

G01Z-1.000000F100.0(Penetrate)
G02X116.761004Y32.140484Z-1.000000I-2.989479J0.000000F30.000000
G02X116.685837Y31.603058Z-1.000000I-8.517065J0.917275
G02X116.568345Y31.141016Z-1.000000I-2.384926J0.360499
G02X116.501134Y31.093901Z-1.000000I-0.067212J0.024382
G02X116.416598Y31.127645Z-1.000000I0.000000J0.122763
G02X116.331816Y31.254691Z-1.000000I0.238037J0.250661
G02X116.290595Y31.443259Z-1.000000I3.597516J0.885206
G02X116.239468Y31.737050Z-1.000000I8.685173J1.662781
G03X116.006275Y32.624669Z-1.000000I-6.171043J-1.146797
G03X115.716128Y33.264521Z-1.000000I-3.479855J-1.192262
G03X115.303748Y33.785490Z-1.000000I-1.598573J-0.841675
G03X114.977308Y33.907671Z-1.000000I-0.326440J-0.375000
G03X114.242175Y33.495224Z-1.000000I-0.000000J-0.861363
G03X113.422697Y31.361885Z-1.000000I5.403503J-3.299707
G03X113.092940Y28.830885Z-1.000000I24.270268J-4.449093
G03X112.960928Y25.439576Z-1.000000I43.494404J-3.391309
G03X113.416982Y25.519088Z-1.000000I-0.467257J4.027682
G03X113.992207Y25.680749Z-1.000000I-1.538159J6.577323
G02X114.578687Y25.890325Z-1.000000I13.190040J-35.985701
G02X114.761812Y25.948733Z-1.000000I1.200514J-3.447673
G02X115.863052Y26.303578Z-1.000000I4.903620J-13.331855
G02X116.208683Y26.350696Z-1.000000I0.345631J-1.244101
G02X116.407536Y26.241706Z-1.000000I0.000000J-0.235900
G02X116.516526Y25.868338Z-1.000000I-0.585029J-0.373368
G02X116.495178Y25.495446Z-1.000000I-3.267316J0.000000
G02X116.424171Y25.064398Z-1.000000I-4.440551J0.510124
G02X116.275410Y24.705485Z-1.000000I-1.056309J0.227529
G02X116.147112Y24.635636Z-1.000000I-0.128298J0.082904
G02X116.000940Y24.660346Z-1.000000I0.000000J0.444700
G02X115.839269Y24.742777Z-1.000000I0.219040J0.629359
G03X115.607941Y24.855854Z-1.000000I-0.415485J-0.556824
G03X115.254367Y24.903568Z-1.000000I-0.353574J-1.286185
G03X115.013378Y24.872317Z-1.000000I0.000000J-0.944799
G03X114.238480Y24.635583Z-1.000000I2.679187J-10.156376
G01X113.007105Y24.314015Z-1.000000
G03X113.015408Y23.644193Z-1.000000I27.023667J-0.000000
G03X113.099461Y20.589125Z-1.000000I562.335334J13.942610
G02X113.224630Y15.872250Z-1.000000I-387.015205J-12.630089
G02X113.253379Y13.058949Z-1.000000I-137.635898J-2.813301
G02X113.231094Y12.553354Z-1.000000I-5.746559J0.000000
G02X113.191839Y12.362203Z-1.000000I-0.851069J0.075170
G02X113.089668Y12.201751Z-1.000000I-0.322416J0.092549
G02X112.945565Y12.147816Z-1.000000I-0.144102J0.165534
G02X112.790393Y12.225163Z-1.000000I0.000000J0.194326
G02X112.622329Y12.576591Z-1.000000I0.783299J0.590498
G02X112.544220Y13.009018Z-1.000000I3.160066J0.794070
G02X112.514589Y13.541308Z-1.000000I4.766171J0.532290
G03X112.477826Y16.622405Z-1.000000I-129.131697J-0.000000
G03X112.283700Y23.215306Z-1.000000I-591.515239J-14.117642
G01X112.252930Y24.072829Z-1.000000
G03X112.131063Y24.041267Z-1.000000I0.341022J-1.567790
G03X111.452532Y23.831657Z-1.000000I14.730865J-48.888433
G02X110.785447Y23.650323Z-1.000000I-2.227604J6.877141
G02X110.482824Y23.617269Z-1.000000I-0.302624J1.368816
G02X110.328317Y23.650980Z-1.000000I0.000000J0.370937
G02X110.190372Y23.751261Z-1.000000I0.179690J0.392192
G02X110.116358Y23.897131Z-1.000000I0.309131J0.248566
G02X110.082632Y24.153225Z-1.000000I0.955448J0.256094
G02X110.191939Y24.723928Z-1.000000I1.544511J-0.000000
G02X110.359691Y24.849971Z-1.000000I0.187141J-0.074416
G03X110.758987Y24.885376Z-1.000000I-0.619586J9.257079
G03X111.329399Y24.957112Z-1.000000I-2.095685J18.967570
G03X111.894897Y25.079300Z-1.000000I-1.992452J10.590914
G03X112.206753Y25.171486Z-1.000000I-0.808172J3.307543
G02X112.413862Y29.541048Z-1.000000I46.197756J-0.000000
G02X112.884003Y32.299699Z-1.000000I18.821162J-1.788195
G02X113.958544Y34.570305Z-1.000000I6.250969J-1.568646
G02X114.931168Y35.059871Z-1.000000I0.972624J-0.721376
G02X115.381013Y34.959013Z-1.000000I0.000000J-1.053622
G02X115.839307Y34.631096Z-1.000000I-0.672150J-1.423604
G02X116.216119Y34.166533Z-1.000000I-1.984496J-1.994747
G02X116.516564Y33.585984Z-1.000000I-2.819951J-1.827395
G02X116.721155Y32.958032Z-1.000000I-3.517218J-1.493234
G02X116.778230Y32.460489Z-1.000000I-2.140064J-0.497543
G01X116.778192Y32.460595Z-1.000000
G00Z5.000000

(End cutting path id: path6624)


(Start cutting path id: path6624)
(Change tool to Default tool)

G00Z5.000000
G00X116.778192Y32.460595

G01Z-1.000000F100.0(Penetrate)
G02X116.761004Y32.140484Z-1.000000I-2.989479J0.000000F30.000000
G02X116.685837Y31.603058Z-1.000000I-8.517065J0.917275
G02X116.568345Y31.141016Z-1.000000I-2.384926J0.360499
G02X116.501134Y31.093901Z-1.000000I-0.067212J0.024382
G02X116.416598Y31.127645Z-1.000000I0.000000J0.122763
G02X116.331816Y31.254691Z-1.000000I0.238037J0.250661
G02X116.290595Y31.443259Z-1.000000I3.597516J0.885206
G02X116.239468Y31.737050Z-1.000000I8.685173J1.662781
G03X116.006275Y32.624669Z-1.000000I-6.171043J-1.146797
G03X115.716128Y33.264521Z-1.000000I-3.479855J-1.192262
G03X115.303748Y33.785490Z-1.000000I-1.598573J-0.841675
G03X114.977308Y33.907671Z-1.000000I-0.326440J-0.375000
G03X114.242175Y33.495224Z-1.000000I-0.000000J-0.861363
G03X113.422697Y31.361885Z-1.000000I5.403503J-3.299707
G03X113.092940Y28.830885Z-1.000000I24.270268J-4.449093
G03X112.960928Y25.439576Z-1.000000I43.494404J-3.391309
G03X113.416982Y25.519088Z-1.000000I-0.467257J4.027682
G03X113.992207Y25.680749Z-1.000000I-1.538159J6.577323
G02X114.578687Y25.890325Z-1.000000I13.190040J-35.985701
G02X114.761812Y25.948733Z-1.000000I1.200514J-3.447673
G02X115.863052Y26.303578Z-1.000000I4.903620J-13.331855
G02X116.208683Y26.350696Z-1.000000I0.345631J-1.244101
G02X116.407536Y26.241706Z-1.000000I0.000000J-0.235900
G02X116.516526Y25.868338Z-1.000000I-0.585029J-0.373368
G02X116.495178Y25.495446Z-1.000000I-3.267316J0.000000
G02X116.424171Y25.064398Z-1.000000I-4.440551J0.510124
G02X116.275410Y24.705485Z-1.000000I-1.056309J0.227529
G02X116.147112Y24.635636Z-1.000000I-0.128298J0.082904
G02X116.000940Y24.660346Z-1.000000I0.000000J0.444700
G02X115.839269Y24.742777Z-1.000000I0.219040J0.629359
G03X115.607941Y24.855854Z-1.000000I-0.415485J-0.556824
G03X115.254367Y24.903568Z-1.000000I-0.353574J-1.286185
G03X115.013378Y24.872317Z-1.000000I0.000000J-0.944799
G03X114.238480Y24.635583Z-1.000000I2.679187J-10.156376
G01X113.007105Y24.314015Z-1.000000
G03X113.015408Y23.644193Z-1.000000I27.023667J-0.000000
G03X113.099461Y20.589125Z-1.000000I562.335334J13.942610
G02X113.224630Y15.872250Z-1.000000I-387.015205J-12.630089
G02X113.253379Y13.058949Z-1.000000I-137.635898J-2.813301
G02X113.231094Y12.553354Z-1.000000I-5.746559J0.000000
G02X113.191839Y12.362203Z-1.000000I-0.851069J0.075170
G02X113.089668Y12.201751Z-1.000000I-0.322416J0.092549
G02X112.945565Y12.147816Z-1.000000I-0.144102J0.165534
G02X112.790393Y12.225163Z-1.000000I0.000000J0.194326
G02X112.622329Y12.576591Z-1.000000I0.783299J0.590498
G02X112.544220Y13.009018Z-1.000000I3.160066J0.794070
G02X112.514589Y13.541308Z-1.000000I4.766171J0.532290
G03X112.477826Y16.622405Z-1.000000I-129.131697J-0.000000
G03X112.283700Y23.215306Z-1.000000I-591.515239J-14.117642
G01X112.252930Y24.072829Z-1.000000
G03X112.131063Y24.041267Z-1.000000I0.341022J-1.567790
G03X111.452532Y23.831657Z-1.000000I14.730865J-48.888433
G02X110.785447Y23.650323Z-1.000000I-2.227604J6.877141
G02X110.482824Y23.617269Z-1.000000I-0.302624J1.368816
G02X110.328317Y23.650980Z-1.000000I0.000000J0.370937
G02X110.190372Y23.751261Z-1.000000I0.179690J0.392192
G02X110.116358Y23.897131Z-1.000000I0.309131J0.248566
G02X110.082632Y24.153225Z-1.000000I0.955448J0.256094
G02X110.191939Y24.723928Z-1.000000I1.544511J-0.000000
G02X110.359691Y24.849971Z-1.000000I0.187141J-0.074416
G03X110.758987Y24.885376Z-1.000000I-0.619586J9.257079
G03X111.329399Y24.957112Z-1.000000I-2.095685J18.967570
G03X111.894897Y25.079300Z-1.000000I-1.992452J10.590914
G03X112.206753Y25.171486Z-1.000000I-0.808172J3.307543
G02X112.413862Y29.541048Z-1.000000I46.197756J-0.000000
G02X112.884003Y32.299699Z-1.000000I18.821162J-1.788195
G02X113.958544Y34.570305Z-1.000000I6.250969J-1.568646
G02X114.931168Y35.059871Z-1.000000I0.972624J-0.721376
G02X115.381013Y34.959013Z-1.000000I0.000000J-1.053622
G02X115.839307Y34.631096Z-1.000000I-0.672150J-1.423604
G02X116.216119Y34.166533Z-1.000000I-1.984496J-1.994747
G02X116.516564Y33.585984Z-1.000000I-2.819951J-1.827395
G02X116.721155Y32.958032Z-1.000000I-3.517218J-1.493234
G02X116.778230Y32.460489Z-1.000000I-2.140064J-0.497543
G01X116.778192Y32.460595Z-1.000000
G00Z5.000000

(End cutting path id: path6624)


(Start cutting path id: path6622)
(Change tool to Default tool)

G00Z5.000000
G00X109.409437Y20.964343

G01Z-1.000000F100.0(Penetrate)
G02X109.314916Y19.934275Z-1.000000I-5.660022J0.000000F30.000000
G02X108.963060Y18.552550Z-1.000000I-10.574546J1.957146
G02X108.405551Y17.246872Z-1.000000I-7.689148J2.511315
G02X107.700900Y16.194340Z-1.000000I-5.676537J3.038194
G02X106.778820Y15.458716Z-1.000000I-2.318780J1.960804
G02X105.838445Y15.229623Z-1.000000I-0.940375J1.815460
G02X104.967366Y15.488070Z-1.000000I0.000000J1.597179
G02X104.314620Y16.221138Z-1.000000I1.016572J1.562334
G02X103.964553Y17.246094Z-1.000000I3.686796J1.831459
G02X103.822073Y18.686529Z-1.000000I7.209939J1.440434
G02X103.874610Y19.969231Z-1.000000I15.684891J0.000000
G02X104.083739Y21.875463Z-1.000000I34.881223J-2.862156
G02X104.433663Y23.760985Z-1.000000I24.400653J-3.553156
G02X104.853344Y25.278785Z-1.000000I16.217537J-3.667330
G02X104.885566Y25.385484Z-1.000000I3.933705J-1.129726
G02X105.099625Y26.055914Z-1.000000I155.550169J-49.295664
G02X105.373473Y26.729414Z-1.000000I5.216012J-1.728431
G02X105.607565Y27.101039Z-1.000000I1.803582J-0.876555
G02X105.924294Y27.397590Z-1.000000I0.963189J-0.711313
G02X106.192467Y27.476204Z-1.000000I0.268172J-0.418095
G02X106.315948Y27.444787Z-1.000000I-0.000000J-0.258372
G02X106.438740Y27.342212Z-1.000000I-0.194711J-0.357873
G02X106.527412Y27.219372Z-1.000000I-0.218544J-0.251180
G02X106.561881Y27.047443Z-1.000000I-0.411560J-0.171930
G02X106.553208Y26.995660Z-1.000000I-0.158927J-0.000000
G02X106.469525Y26.779458Z-1.000000I-2.929551J1.009610
G02X106.391968Y26.592119Z-1.000000I-29.484951J12.096894
G02X106.346392Y26.484689Z-1.000000I-9.741495J4.069276
G03X105.864316Y25.370036Z-1.000000I15.093532J-7.189382
G03X105.499817Y24.314068Z-1.000000I13.179155J-5.140076
G03X105.110773Y22.936951Z-1.000000I22.642772J-7.140228
G03X104.822567Y21.607492Z-1.000000I20.812990J-5.207908
G03X104.653859Y20.262278Z-1.000000I14.565306J-2.509868
G03X104.591678Y18.686529Z-1.000000I19.934769J-1.575750
G03X105.098158Y17.075985Z-1.000000I2.813903J0.000000
G03X106.069326Y16.569505Z-1.000000I0.971168J0.677859
G03X106.688396Y16.727344Z-1.000000I0.000000J1.292964
G03X107.346879Y17.266251Z-1.000000I-1.098144J2.013554
G03X107.868842Y18.008584Z-1.000000I-3.501075J3.016418
G03X108.301195Y18.954513Z-1.000000I-5.284451J2.987118
G03X108.577648Y19.985926Z-1.000000I-6.942374J2.413547
G03X108.655216Y20.803552Z-1.000000I-4.270429J0.817626
G03X108.557325Y21.718041Z-1.000000I-4.320467J-0.000000
G03X108.301195Y22.438217Z-1.000000I-2.916600J-0.631652
G03X107.910372Y23.111372Z-1.000000I-6.209171J-3.154921
G03X107.331486Y23.912092Z-1.000000I-9.375174J-6.168225
G02X106.945444Y24.430813Z-1.000000I9.653169J7.587081
G02X106.746584Y24.742830Z-1.000000I3.287173J2.314417
G02X106.596251Y25.073566Z-1.000000I1.664984J0.956339
G02X106.561881Y25.278785Z-1.000000I0.595487J0.205219
G02X106.631078Y25.564819Z-1.000000I0.625770J-0.000000
G02X106.823547Y25.787943Z-1.000000I0.558017J-0.286776
G02X107.105389Y25.945869Z-1.000000I0.585795J-0.714980
G02X107.439234Y26.002330Z-1.000000I0.333845J-0.958751
G02X107.632022Y25.982798Z-1.000000I-0.000000J-0.961209
G02X107.700900Y25.948760Z-1.000000I-0.030307J-0.148035
G02X107.741936Y25.908537Z-1.000000I-0.032134J-0.073828
G02X107.762440Y25.814767Z-1.000000I-0.204166J-0.093770
G02X107.754167Y25.763006Z-1.000000I-0.166056J-0.000000
G02X107.700900Y25.627178Z-1.000000I-1.222327J0.400993
G03X107.664258Y25.518076Z-1.000000I0.639425J-0.275456
G03X107.654745Y25.439602Z-1.000000I0.318918J-0.078473
G03X107.674562Y25.365314Z-1.000000I0.149153J-0.000000
G03X107.962589Y24.903647Z-1.000000I6.478237J3.720989
G02X108.537610Y23.996133Z-1.000000I-10.159863J-7.073448
G02X108.993868Y23.108191Z-1.000000I-9.268933J-5.323917
G02X109.293498Y22.171873Z-1.000000I-3.791424J-1.729392
G02X109.409459Y20.964369Z-1.000000I-6.228886J-1.207504
G01X109.409437Y20.964343Z-1.000000
G00Z5.000000

(End cutting path id: path6622)


(Start cutting path id: path6622)
(Change tool to Default tool)

G00Z5.000000
G00X109.409437Y20.964343

G01Z-1.000000F100.0(Penetrate)
G02X109.314916Y19.934275Z-1.000000I-5.660022J0.000000F30.000000
G02X108.963060Y18.552550Z-1.000000I-10.574546J1.957146
G02X108.405551Y17.246872Z-1.000000I-7.689148J2.511315
G02X107.700900Y16.194340Z-1.000000I-5.676537J3.038194
G02X106.778820Y15.458716Z-1.000000I-2.318780J1.960804
G02X105.838445Y15.229623Z-1.000000I-0.940375J1.815460
G02X104.967366Y15.488070Z-1.000000I0.000000J1.597179
G02X104.314620Y16.221138Z-1.000000I1.016572J1.562334
G02X103.964553Y17.246094Z-1.000000I3.686796J1.831459
G02X103.822073Y18.686529Z-1.000000I7.209939J1.440434
G02X103.874610Y19.969231Z-1.000000I15.684891J0.000000
G02X104.083739Y21.875463Z-1.000000I34.881223J-2.862156
G02X104.433663Y23.760985Z-1.000000I24.400653J-3.553156
G02X104.853344Y25.278785Z-1.000000I16.217537J-3.667330
G02X104.885566Y25.385484Z-1.000000I3.933705J-1.129726
G02X105.099625Y26.055914Z-1.000000I155.550169J-49.295664
G02X105.373473Y26.729414Z-1.000000I5.216012J-1.728431
G02X105.607565Y27.101039Z-1.000000I1.803582J-0.876555
G02X105.924294Y27.397590Z-1.000000I0.963189J-0.711313
G02X106.192467Y27.476204Z-1.000000I0.268172J-0.418095
G02X106.315948Y27.444787Z-1.000000I-0.000000J-0.258372
G02X106.438740Y27.342212Z-1.000000I-0.194711J-0.357873
G02X106.527412Y27.219372Z-1.000000I-0.218544J-0.251180
G02X106.561881Y27.047443Z-1.000000I-0.411560J-0.171930
G02X106.553208Y26.995660Z-1.000000I-0.158927J-0.000000
G02X106.469525Y26.779458Z-1.000000I-2.929551J1.009610
G02X106.391968Y26.592119Z-1.000000I-29.484951J12.096894
G02X106.346392Y26.484689Z-1.000000I-9.741495J4.069276
G03X105.864316Y25.370036Z-1.000000I15.093532J-7.189382
G03X105.499817Y24.314068Z-1.000000I13.179155J-5.140076
G03X105.110773Y22.936951Z-1.000000I22.642772J-7.140228
G03X104.822567Y21.607492Z-1.000000I20.812990J-5.207908
G03X104.653859Y20.262278Z-1.000000I14.565306J-2.509868
G03X104.591678Y18.686529Z-1.000000I19.934769J-1.575750
G03X105.098158Y17.075985Z-1.000000I2.813903J0.000000
G03X106.069326Y16.569505Z-1.000000I0.971168J0.677859
G03X106.688396Y16.727344Z-1.000000I0.000000J1.292964
G03X107.346879Y17.266251Z-1.000000I-1.098144J2.013554
G03X107.868842Y18.008584Z-1.000000I-3.501075J3.016418
G03X108.301195Y18.954513Z-1.000000I-5.284451J2.987118
G03X108.577648Y19.985926Z-1.000000I-6.942374J2.413547
G03X108.655216Y20.803552Z-1.000000I-4.270429J0.817626
G03X108.557325Y21.718041Z-1.000000I-4.320467J-0.000000
G03X108.301195Y22.438217Z-1.000000I-2.916600J-0.631652
G03X107.910372Y23.111372Z-1.000000I-6.209171J-3.154921
G03X107.331486Y23.912092Z-1.000000I-9.375174J-6.168225
G02X106.945444Y24.430813Z-1.000000I9.653169J7.587081
G02X106.746584Y24.742830Z-1.000000I3.287173J2.314417
G02X106.596251Y25.073566Z-1.000000I1.664984J0.956339
G02X106.561881Y25.278785Z-1.000000I0.595487J0.205219
G02X106.631078Y25.564819Z-1.000000I0.625770J-0.000000
G02X106.823547Y25.787943Z-1.000000I0.558017J-0.286776
G02X107.105389Y25.945869Z-1.000000I0.585795J-0.714980
G02X107.439234Y26.002330Z-1.000000I0.333845J-0.958751
G02X107.632022Y25.982798Z-1.000000I-0.000000J-0.961209
G02X107.700900Y25.948760Z-1.000000I-0.030307J-0.148035
G02X107.741936Y25.908537Z-1.000000I-0.032134J-0.073828
G02X107.762440Y25.814767Z-1.000000I-0.204166J-0.093770
G02X107.754167Y25.763006Z-1.000000I-0.166056J-0.000000
G02X107.700900Y25.627178Z-1.000000I-1.222327J0.400993
G03X107.664258Y25.518076Z-1.000000I0.639425J-0.275456
G03X107.654745Y25.439602Z-1.000000I0.318918J-0.078473
G03X107.674562Y25.365314Z-1.000000I0.149153J-0.000000
G03X107.962589Y24.903647Z-1.000000I6.478237J3.720989
G02X108.537610Y23.996133Z-1.000000I-10.159863J-7.073448
G02X108.993868Y23.108191Z-1.000000I-9.268933J-5.323917
G02X109.293498Y22.171873Z-1.000000I-3.791424J-1.729392
G02X109.409459Y20.964369Z-1.000000I-6.228886J-1.207504
G01X109.409437Y20.964343Z-1.000000
G00Z5.000000

(End cutting path id: path6622)


(Start cutting path id: path6620)
(Change tool to Default tool)

G00Z5.000000
G00X98.555292Y26.699063

G01Z-1.000000F100.0(Penetrate)
G02X98.515646Y26.469218Z-1.000000I-0.686068J0.000000F30.000000
G02X98.355197Y26.136309Z-1.000000I-1.622836J0.577024
G02X98.146022Y25.885738Z-1.000000I-1.021280J0.639962
G02X98.031960Y25.841539Z-1.000000I-0.114062J0.125077
G02X97.940429Y25.871925Z-1.000000I0.000000J0.153055
G02X97.816472Y26.002330Z-1.000000I0.318549J0.426913
G02X97.730731Y26.166372Z-1.000000I2.017859J1.159119
G02X97.600976Y26.457890Z-1.000000I6.251514J2.957184
G03X97.470387Y26.710892Z-1.000000I-1.404066J-0.564518
G03X97.308525Y26.913450Z-1.000000I-1.056141J-0.677999
G03X97.120836Y27.059694Z-1.000000I-0.508253J-0.458729
G03X96.954504Y27.101039Z-1.000000I-0.166332J-0.313905
G03X96.636149Y26.917950Z-1.000000I0.000000J-0.368321
G03X95.753914Y25.037600Z-1.000000I10.183028J-5.924882
G03X95.077711Y22.977551Z-1.000000I27.116232J-10.041798
G03X94.276266Y19.892432Z-1.000000I60.067161J-17.250775
G03X94.293109Y19.276123Z-1.000000I130.288411J3.252182
G03X94.322421Y18.338162Z-1.000000I301.802097J8.962190
G02X94.366213Y17.400145Z-1.000000I-186.233479J-9.164543
G02X94.383961Y16.944683Z-1.000000I-43.889091J-1.938265
G01X94.430116Y15.872772Z-1.000000
G02X94.403633Y15.502030Z-1.000000I-2.608279J-0.000000
G02X94.337760Y15.229623Z-1.000000I-1.467855J0.210782
G02X94.192293Y15.007137Z-1.000000I-0.466328J0.146101
G02X93.999132Y14.934840Z-1.000000I-0.193162J0.221892
G02X93.846204Y15.050739Z-1.000000I0.000000J0.158843
G02X93.660503Y16.140743Z-1.000000I5.077967J1.425940
G02X93.606034Y17.374221Z-1.000000I33.812584J2.111064
G02X93.568147Y19.704843Z-1.000000I120.705583J3.127805
G02X93.555082Y20.294442Z-1.000000I74.945471J1.955780
G02X93.537377Y21.393105Z-1.000000I260.217385J4.742677
G03X93.530941Y22.491749Z-1.000000I-93.774469J0.000000
G03X93.506607Y24.019285Z-1.000000I-181.308661J-2.124325
G02X93.467394Y26.323968Z-1.000000I382.647305J7.663357
G02X93.460453Y27.315414Z-1.000000I70.803541J0.991446
G02X93.608075Y27.784142Z-1.000000I0.817963J0.000000
G02X93.891429Y27.931765Z-1.000000I0.283355J-0.198133
G02X94.073114Y27.842062Z-1.000000I0.000000J-0.228846
G02X94.199273Y27.529801Z-1.000000I-0.501932J-0.384405
G02X94.237924Y27.152758Z-1.000000I-3.096760J-0.507957
G02X94.260813Y26.055914Z-1.000000I-26.269540J-1.096845
G01X94.260813Y21.795068Z-1.000000
G02X94.776943Y23.842734Z-1.000000I38.515040J-8.619133
G02X95.261307Y25.359181Z-1.000000I21.594626J-6.061899
G02X95.861612Y26.829206Z-1.000000I17.368680J-6.235159
G02X96.307978Y27.636995Z-1.000000I5.664727J-2.602982
G02X96.898828Y28.316407Z-1.000000I2.728305J-1.776044
G02X97.231509Y28.440922Z-1.000000I0.332682J-0.382176
G02X97.546653Y28.378193Z-1.000000I0.000000J-0.822995
G02X97.877974Y28.172951Z-1.000000I-0.463628J-1.118475
G02X98.146281Y27.876101Z-1.000000I-1.101230J-1.265024
G02X98.370529Y27.476204Z-1.000000I-1.798042J-1.271099
G02X98.512359Y27.064862Z-1.000000I-2.006247J-0.921875
G02X98.555232Y26.699063Z-1.000000I-1.539107J-0.365799
G01X98.555292Y26.699063Z-1.000000
G00Z5.000000

(End cutting path id: path6620)


(Start cutting path id: path6620)
(Change tool to Default tool)

G00Z5.000000
G00X98.555292Y26.699063

G01Z-1.000000F100.0(Penetrate)
G02X98.515646Y26.469218Z-1.000000I-0.686068J0.000000F30.000000
G02X98.355197Y26.136309Z-1.000000I-1.622836J0.577024
G02X98.146022Y25.885738Z-1.000000I-1.021280J0.639962
G02X98.031960Y25.841539Z-1.000000I-0.114062J0.125077
G02X97.940429Y25.871925Z-1.000000I0.000000J0.153055
G02X97.816472Y26.002330Z-1.000000I0.318549J0.426913
G02X97.730731Y26.166372Z-1.000000I2.017859J1.159119
G02X97.600976Y26.457890Z-1.000000I6.251514J2.957184
G03X97.470387Y26.710892Z-1.000000I-1.404066J-0.564518
G03X97.308525Y26.913450Z-1.000000I-1.056141J-0.677999
G03X97.120836Y27.059694Z-1.000000I-0.508253J-0.458729
G03X96.954504Y27.101039Z-1.000000I-0.166332J-0.313905
G03X96.636149Y26.917950Z-1.000000I0.000000J-0.368321
G03X95.753914Y25.037600Z-1.000000I10.183028J-5.924882
G03X95.077711Y22.977551Z-1.000000I27.116232J-10.041798
G03X94.276266Y19.892432Z-1.000000I60.067161J-17.250775
G03X94.293109Y19.276123Z-1.000000I130.288411J3.252182
G03X94.322421Y18.338162Z-1.000000I301.802097J8.962190
G02X94.366213Y17.400145Z-1.000000I-186.233479J-9.164543
G02X94.383961Y16.944683Z-1.000000I-43.889091J-1.938265
G01X94.430116Y15.872772Z-1.000000
